( pcb2gcode 1.1.4 )

( This file uses a mill head of 0.03 to drill the 2bit sizes. )

G94     ( Inches per minute feed rate. )
G20     ( Units == INCHES.             )
G90     ( Absolute coordinates.        )
S10000  ( RPM spindle speed.           )
M3
G91.1
G0 Z0.10000

F1.00000
#50=-0.10000 ; zwork
#51=0.02000 ; zsafe
#52=0.00800 ; stepsize
G0 X1.18043 Y1.59090
G1 Z#50
G0 Z#51

G0 X1.18043 Y1.29590
G1 Z#50
G0 Z#51

G0 X1.18043 Y0.90590
G1 Z#50
G0 Z#51

G0 X1.18043 Y0.49590
G1 Z#50
G0 Z#51

G0 X1.18043 Y0.17590
G1 Z#50
G0 Z#51

G0 X1.14913 Y0.81460
G1 Z#50
G0 Z#51

G0 X1.05543 Y0.84590
G1 Z#50
G0 Z#51

G0 X1.04043 Y1.00090
G1 Z#50
G0 Z#51

G0 X1.03413 Y1.18960
G1 Z#50
G0 Z#51

G0 X1.03353 Y0.58090
G1 Z#50
G0 Z#51

G0 X1.00543 Y1.42090
G1 Z#50
G0 Z#51

G0 X0.93853 Y0.49670
G1 Z#50
G0 Z#51

G0 X0.93853 Y0.33670
G1 Z#50
G0 Z#51

G0 X0.93853 Y0.16170
G1 Z#50
G0 Z#51

G0 X0.92043 Y1.20490
G1 Z#50
G0 Z#51

G0 X0.90953 Y1.32590
G1 Z#50
G0 Z#51

G0 X0.90673 Y0.79590
G1 Z#50
G0 Z#51

G0 X0.87043 Y1.06590
G1 Z#50
G0 Z#51

G0 X0.84543 Y0.96590
G1 Z#50
G0 Z#51

G0 X0.83043 Y1.35090
G1 Z#50
G0 Z#51

G0 X0.75543 Y0.99590
G1 Z#50
G0 Z#51

G0 X0.74043 Y1.21590
G1 Z#50
G0 Z#51

G0 X0.70543 Y1.06590
G1 Z#50
G0 Z#51

G0 X0.70043 Y0.11590
G1 Z#50
G0 Z#51

G0 X0.67043 Y0.99590
G1 Z#50
G0 Z#51

G0 X0.64043 Y1.12090
G1 Z#50
G0 Z#51

G0 X0.63983 Y0.56590
G1 Z#50
G0 Z#51

G0 X0.63543 Y1.49590
G1 Z#50
G0 Z#51

G0 X0.62543 Y1.25090
G1 Z#50
G0 Z#51

G0 X0.61543 Y0.76590
G1 Z#50
G0 Z#51

G0 X0.55413 Y1.30460
G1 Z#50
G0 Z#51

G0 X0.51413 Y1.52960
G1 Z#50
G0 Z#51

G0 X0.44543 Y1.02090
G1 Z#50
G0 Z#51

G0 X0.44043 Y0.50590
G1 Z#50
G0 Z#51

G0 X0.40913 Y0.70460
G1 Z#50
G0 Z#51

G0 X0.39543 Y1.49590
G1 Z#50
G0 Z#51

G0 X0.36043 Y1.02090
G1 Z#50
G0 Z#51

G0 X0.35543 Y1.36590
G1 Z#50
G0 Z#51

G0 X0.34353 Y0.61220
G1 Z#50
G0 Z#51

G0 X0.32913 Y0.68460
G1 Z#50
G0 Z#51

G0 X0.32043 Y1.25220
G1 Z#50
G0 Z#51

G0 X0.32043 Y0.74590
G1 Z#50
G0 Z#51

G0 X0.28413 Y1.33960
G1 Z#50
G0 Z#51

G0 X0.23913 Y0.54960
G1 Z#50
G0 Z#51

G0 X0.23413 Y0.78960
G1 Z#50
G0 Z#51

G0 X0.23413 Y0.68460
G1 Z#50
G0 Z#51

G0 X0.17543 Y1.59090
G1 Z#50
G0 Z#51

G0 X0.17543 Y1.29090
G1 Z#50
G0 Z#51

G0 X0.17543 Y0.90590
G1 Z#50
G0 Z#51

G0 X0.17543 Y0.49590
G1 Z#50
G0 Z#51

G0 X0.17543 Y0.17590
G1 Z#50
G0 Z#51

G0 X1.27623 Y1.47290
G1 Z[#50+12*#52]
G2 I-0.02450 J0
G1 Z[#50+11*#52]
G2 I-0.02450 J0
G1 Z[#50+10*#52]
G2 I-0.02450 J0
G1 Z[#50+9*#52]
G2 I-0.02450 J0
G1 Z[#50+8*#52]
G2 I-0.02450 J0
G1 Z[#50+7*#52]
G2 I-0.02450 J0
G1 Z[#50+6*#52]
G2 I-0.02450 J0
G1 Z[#50+5*#52]
G2 I-0.02450 J0
G1 Z[#50+4*#52]
G2 I-0.02450 J0
G1 Z[#50+3*#52]
G2 I-0.02450 J0
G1 Z[#50+2*#52]
G2 I-0.02450 J0
G1 Z[#50+1*#52]
G2 I-0.02450 J0
G0 Z0.02000

G0 X1.27623 Y1.07920
G1 Z[#50+12*#52]
G2 I-0.02450 J0
G1 Z[#50+11*#52]
G2 I-0.02450 J0
G1 Z[#50+10*#52]
G2 I-0.02450 J0
G1 Z[#50+9*#52]
G2 I-0.02450 J0
G1 Z[#50+8*#52]
G2 I-0.02450 J0
G1 Z[#50+7*#52]
G2 I-0.02450 J0
G1 Z[#50+6*#52]
G2 I-0.02450 J0
G1 Z[#50+5*#52]
G2 I-0.02450 J0
G1 Z[#50+4*#52]
G2 I-0.02450 J0
G1 Z[#50+3*#52]
G2 I-0.02450 J0
G1 Z[#50+2*#52]
G2 I-0.02450 J0
G1 Z[#50+1*#52]
G2 I-0.02450 J0
G0 Z0.02000

G0 X1.27623 Y0.68550
G1 Z[#50+12*#52]
G2 I-0.02450 J0
G1 Z[#50+11*#52]
G2 I-0.02450 J0
G1 Z[#50+10*#52]
G2 I-0.02450 J0
G1 Z[#50+9*#52]
G2 I-0.02450 J0
G1 Z[#50+8*#52]
G2 I-0.02450 J0
G1 Z[#50+7*#52]
G2 I-0.02450 J0
G1 Z[#50+6*#52]
G2 I-0.02450 J0
G1 Z[#50+5*#52]
G2 I-0.02450 J0
G1 Z[#50+4*#52]
G2 I-0.02450 J0
G1 Z[#50+3*#52]
G2 I-0.02450 J0
G1 Z[#50+2*#52]
G2 I-0.02450 J0
G1 Z[#50+1*#52]
G2 I-0.02450 J0
G0 Z0.02000

G0 X1.27623 Y0.29180
G1 Z[#50+12*#52]
G2 I-0.02450 J0
G1 Z[#50+11*#52]
G2 I-0.02450 J0
G1 Z[#50+10*#52]
G2 I-0.02450 J0
G1 Z[#50+9*#52]
G2 I-0.02450 J0
G1 Z[#50+8*#52]
G2 I-0.02450 J0
G1 Z[#50+7*#52]
G2 I-0.02450 J0
G1 Z[#50+6*#52]
G2 I-0.02450 J0
G1 Z[#50+5*#52]
G2 I-0.02450 J0
G1 Z[#50+4*#52]
G2 I-0.02450 J0
G1 Z[#50+3*#52]
G2 I-0.02450 J0
G1 Z[#50+2*#52]
G2 I-0.02450 J0
G1 Z[#50+1*#52]
G2 I-0.02450 J0
G0 Z0.02000

G0 X0.13453 Y1.47290
G1 Z[#50+12*#52]
G2 I-0.02450 J0
G1 Z[#50+11*#52]
G2 I-0.02450 J0
G1 Z[#50+10*#52]
G2 I-0.02450 J0
G1 Z[#50+9*#52]
G2 I-0.02450 J0
G1 Z[#50+8*#52]
G2 I-0.02450 J0
G1 Z[#50+7*#52]
G2 I-0.02450 J0
G1 Z[#50+6*#52]
G2 I-0.02450 J0
G1 Z[#50+5*#52]
G2 I-0.02450 J0
G1 Z[#50+4*#52]
G2 I-0.02450 J0
G1 Z[#50+3*#52]
G2 I-0.02450 J0
G1 Z[#50+2*#52]
G2 I-0.02450 J0
G1 Z[#50+1*#52]
G2 I-0.02450 J0
G0 Z0.02000

G0 X0.13453 Y1.07920
G1 Z[#50+12*#52]
G2 I-0.02450 J0
G1 Z[#50+11*#52]
G2 I-0.02450 J0
G1 Z[#50+10*#52]
G2 I-0.02450 J0
G1 Z[#50+9*#52]
G2 I-0.02450 J0
G1 Z[#50+8*#52]
G2 I-0.02450 J0
G1 Z[#50+7*#52]
G2 I-0.02450 J0
G1 Z[#50+6*#52]
G2 I-0.02450 J0
G1 Z[#50+5*#52]
G2 I-0.02450 J0
G1 Z[#50+4*#52]
G2 I-0.02450 J0
G1 Z[#50+3*#52]
G2 I-0.02450 J0
G1 Z[#50+2*#52]
G2 I-0.02450 J0
G1 Z[#50+1*#52]
G2 I-0.02450 J0
G0 Z0.02000

G0 X0.13453 Y0.68550
G1 Z[#50+12*#52]
G2 I-0.02450 J0
G1 Z[#50+11*#52]
G2 I-0.02450 J0
G1 Z[#50+10*#52]
G2 I-0.02450 J0
G1 Z[#50+9*#52]
G2 I-0.02450 J0
G1 Z[#50+8*#52]
G2 I-0.02450 J0
G1 Z[#50+7*#52]
G2 I-0.02450 J0
G1 Z[#50+6*#52]
G2 I-0.02450 J0
G1 Z[#50+5*#52]
G2 I-0.02450 J0
G1 Z[#50+4*#52]
G2 I-0.02450 J0
G1 Z[#50+3*#52]
G2 I-0.02450 J0
G1 Z[#50+2*#52]
G2 I-0.02450 J0
G1 Z[#50+1*#52]
G2 I-0.02450 J0
G0 Z0.02000

G0 X0.13453 Y0.29180
G1 Z[#50+12*#52]
G2 I-0.02450 J0
G1 Z[#50+11*#52]
G2 I-0.02450 J0
G1 Z[#50+10*#52]
G2 I-0.02450 J0
G1 Z[#50+9*#52]
G2 I-0.02450 J0
G1 Z[#50+8*#52]
G2 I-0.02450 J0
G1 Z[#50+7*#52]
G2 I-0.02450 J0
G1 Z[#50+6*#52]
G2 I-0.02450 J0
G1 Z[#50+5*#52]
G2 I-0.02450 J0
G1 Z[#50+4*#52]
G2 I-0.02450 J0
G1 Z[#50+3*#52]
G2 I-0.02450 J0
G1 Z[#50+2*#52]
G2 I-0.02450 J0
G1 Z[#50+1*#52]
G2 I-0.02450 J0
G0 Z0.02000

G00 Z0.02000 ( All done -- retract )

M9 ( Coolant off. )
M2 ( Program end. )

