( pcb2gcode 1.1.4 )

G94     ( Inches per minute feed rate. )
G20     ( Units == INCHES.             )
G90     ( Absolute coordinates.        )
S10000  ( RPM spindle speed.           )
M3      ( Spindle on clockwise.        )

G64 P0.00500 ( set maximum deviation from commanded toolpath )

G04 P0 ( dwell for no time -- G64 should not smooth over this point )
G00 Z0.02000 ( retract )

G00 X0.00573 Y1.69182 ( rapid move to begin. )
G01 Z-0.01500 F1.75000 ( plunge. )
G04 P0 ( dwell for no time -- G64 should not smooth over this point )
X0.00573 Y1.69182
X0.00573 Y-0.08018
X0.00673 Y-0.08018
X0.00673 Y-0.08218
X0.00773 Y-0.08218
X0.00773 Y-0.08318
X0.00973 Y-0.08318
X0.00973 Y-0.08418
X1.35273 Y-0.08418
X1.35273 Y-0.08318
X1.35373 Y-0.08318
X1.35373 Y-0.08218
X1.35473 Y-0.08218
X1.35473 Y1.78582
X1.35373 Y1.78582
X1.35373 Y1.78782
X1.35273 Y1.78782
X1.35273 Y1.78882
X1.35173 Y1.78882
X1.35173 Y1.78982
X1.35073 Y1.78982
X1.35073 Y1.79082
X1.34973 Y1.79082
X1.34973 Y1.79182
X1.34773 Y1.79182
X1.34773 Y1.79282
X0.00973 Y1.79282
X0.00973 Y1.79182
X0.00773 Y1.79182
X0.00773 Y1.79082
X0.00673 Y1.79082
X0.00673 Y1.78882
X0.00573 Y1.78882
X0.00573 Y1.69182
G01 Z-0.05000 F1.75000 ( plunge. )
G04 P0 ( dwell for no time -- G64 should not smooth over this point )
X0.00573 Y1.69182
X0.00573 Y-0.08018
X0.00673 Y-0.08018
X0.00673 Y-0.08218
X0.00773 Y-0.08218
X0.00773 Y-0.08318
X0.00973 Y-0.08318
X0.00973 Y-0.08418
X1.35273 Y-0.08418
X1.35273 Y-0.08318
X1.35373 Y-0.08318
X1.35373 Y-0.08218
X1.35473 Y-0.08218
X1.35473 Y1.78582
X1.35373 Y1.78582
X1.35373 Y1.78782
X1.35273 Y1.78782
X1.35273 Y1.78882
X1.35173 Y1.78882
X1.35173 Y1.78982
X1.35073 Y1.78982
X1.35073 Y1.79082
X1.34973 Y1.79082
X1.34973 Y1.79182
X1.34773 Y1.79182
X1.34773 Y1.79282
X0.00973 Y1.79282
X0.00973 Y1.79182
X0.00773 Y1.79182
X0.00773 Y1.79082
X0.00673 Y1.79082
X0.00673 Y1.78882
X0.00573 Y1.78882
X0.00573 Y1.69182
G01 Z-0.08500 F1.75000 ( plunge. )
G04 P0 ( dwell for no time -- G64 should not smooth over this point )
X0.00573 Y1.69182
X0.00573 Y-0.08018
X0.00673 Y-0.08018
X0.00673 Y-0.08218
X0.00773 Y-0.08218
X0.00773 Y-0.08318
X0.00973 Y-0.08318
X0.00973 Y-0.08418
X1.35273 Y-0.08418
X1.35273 Y-0.08318
X1.35373 Y-0.08318
X1.35373 Y-0.08218
X1.35473 Y-0.08218
X1.35473 Y1.78582
X1.35373 Y1.78582
X1.35373 Y1.78782
X1.35273 Y1.78782
X1.35273 Y1.78882
X1.35173 Y1.78882
X1.35173 Y1.78982
X1.35073 Y1.78982
X1.35073 Y1.79082
X1.34973 Y1.79082
X1.34973 Y1.79182
X1.34773 Y1.79182
X1.34773 Y1.79282
X0.00973 Y1.79282
X0.00973 Y1.79182
X0.00773 Y1.79182
X0.00773 Y1.79082
X0.00673 Y1.79082
X0.00673 Y1.78882
X0.00573 Y1.78882
X0.00573 Y1.69182

G04 P0 ( dwell for no time -- G64 should not smooth over this point )
G00 Z0.02000 ( retract )

M9 ( Coolant off. )
M2 ( Program end. )

