( pcb2gcode 1.1.4 )

G94     ( Inches per minute feed rate. )
G20     ( Units == INCHES.             )
G90     ( Absolute coordinates.        )
S10000  ( RPM spindle speed.           )
M3      ( Spindle on clockwise.        )

G64 P0.00500 ( set maximum deviation from commanded toolpath )

G04 P0 ( dwell for no time -- G64 should not smooth over this point )
G00 Z0.19685 ( retract )

G00 X0.12360 Y1.67082 ( rapid move to begin. )
G01 Z-0.01969 F1.96850 ( plunge. )
G04 P0 ( dwell for no time -- G64 should not smooth over this point )
X0.12360 Y1.67082
X0.12360 Y1.53982
X0.12460 Y1.53982
X0.12460 Y1.53482
X0.12860 Y1.53482
X0.12860 Y1.53382
X0.13060 Y1.53382
X0.13060 Y1.53282
X0.13360 Y1.53282
X0.13360 Y1.53182
X0.13760 Y1.53182
X0.13760 Y1.53082
X0.13960 Y1.53082
X0.13960 Y1.52982
X0.14160 Y1.52982
X0.14160 Y1.52882
X0.14260 Y1.52882
X0.14260 Y1.52782
X0.14460 Y1.52782
X0.14460 Y1.52682
X0.14660 Y1.52682
X0.14660 Y1.52582
X0.14860 Y1.52582
X0.14860 Y1.52482
X0.14960 Y1.52482
X0.14960 Y1.52382
X0.15060 Y1.52382
X0.15060 Y1.52282
X0.15160 Y1.52282
X0.15160 Y1.52182
X0.15260 Y1.52182
X0.15260 Y1.52082
X0.15460 Y1.52082
X0.15460 Y1.51982
X0.15560 Y1.51982
X0.15560 Y1.51882
X0.15660 Y1.51882
X0.15660 Y1.51782
X0.15760 Y1.51782
X0.15760 Y1.51682
X0.15860 Y1.51682
X0.15860 Y1.51482
X0.15960 Y1.51482
X0.15960 Y1.51382
X0.16060 Y1.51382
X0.16060 Y1.51282
X0.16160 Y1.51282
X0.16160 Y1.51182
X0.16260 Y1.51182
X0.16260 Y1.51082
X0.16360 Y1.51082
X0.16360 Y1.50882
X0.16460 Y1.50882
X0.16460 Y1.50682
X0.16560 Y1.50682
X0.16560 Y1.50482
X0.16660 Y1.50482
X0.16660 Y1.50382
X0.16760 Y1.50382
X0.16760 Y1.50182
X0.16860 Y1.50182
X0.16860 Y1.49982
X0.16960 Y1.49982
X0.16960 Y1.49682
X0.17060 Y1.49682
X0.17060 Y1.49382
X0.17160 Y1.49382
X0.17160 Y1.49082
X0.17260 Y1.49082
X0.17260 Y1.48782
X0.17360 Y1.48782
X0.17360 Y1.48282
X0.17460 Y1.48282
X0.17460 Y1.46382
X0.17360 Y1.46382
X0.17360 Y1.45882
X0.17260 Y1.45882
X0.17260 Y1.45482
X0.17160 Y1.45482
X0.17160 Y1.45182
X0.17060 Y1.45182
X0.17060 Y1.44982
X0.16960 Y1.44982
X0.16960 Y1.44682
X0.16860 Y1.44682
X0.16860 Y1.44482
X0.16760 Y1.44482
X0.16760 Y1.44282
X0.16660 Y1.44282
X0.16660 Y1.44182
X0.16560 Y1.44182
X0.16560 Y1.43982
X0.16460 Y1.43982
X0.16460 Y1.43782
X0.16360 Y1.43782
X0.16360 Y1.43582
X0.16260 Y1.43582
X0.16260 Y1.43482
X0.16160 Y1.43482
X0.16160 Y1.43382
X0.16060 Y1.43382
X0.16060 Y1.43282
X0.15960 Y1.43282
X0.15960 Y1.43182
X0.15860 Y1.43182
X0.15860 Y1.42982
X0.15760 Y1.42982
X0.15760 Y1.42882
X0.15660 Y1.42882
X0.15660 Y1.42782
X0.15560 Y1.42782
X0.15560 Y1.42682
X0.15460 Y1.42682
X0.15460 Y1.42582
X0.15260 Y1.42582
X0.15260 Y1.42482
X0.15160 Y1.42482
X0.15160 Y1.42382
X0.15060 Y1.42382
X0.15060 Y1.42282
X0.14960 Y1.42282
X0.14960 Y1.42182
X0.14860 Y1.42182
X0.14860 Y1.42082
X0.14660 Y1.42082
X0.14660 Y1.41982
X0.14460 Y1.41982
X0.14460 Y1.41882
X0.14260 Y1.41882
X0.14260 Y1.41782
X0.14160 Y1.41782
X0.14160 Y1.41682
X0.13960 Y1.41682
X0.13960 Y1.41582
X0.13760 Y1.41582
X0.13760 Y1.41482
X0.13360 Y1.41482
X0.13360 Y1.41382
X0.13160 Y1.41382
X0.13160 Y1.41282
X0.12860 Y1.41282
X0.12860 Y1.41182
X0.12460 Y1.41182
X0.12460 Y1.40582
X0.12360 Y1.40582
X0.12360 Y1.14582
X0.12460 Y1.14582
X0.12460 Y1.14082
X0.12860 Y1.14082
X0.12860 Y1.13982
X0.13160 Y1.13982
X0.13160 Y1.13882
X0.13360 Y1.13882
X0.13360 Y1.13782
X0.13760 Y1.13782
X0.13760 Y1.13682
X0.13960 Y1.13682
X0.13960 Y1.13582
X0.14160 Y1.13582
X0.14160 Y1.13482
X0.14260 Y1.13482
X0.14260 Y1.13382
X0.14460 Y1.13382
X0.14460 Y1.13282
X0.14660 Y1.13282
X0.14660 Y1.13182
X0.14860 Y1.13182
X0.14860 Y1.13082
X0.14960 Y1.13082
X0.14960 Y1.12982
X0.15060 Y1.12982
X0.15060 Y1.12882
X0.15160 Y1.12882
X0.15160 Y1.12782
X0.15260 Y1.12782
X0.15260 Y1.12682
X0.15460 Y1.12682
X0.15460 Y1.12582
X0.15560 Y1.12582
X0.15560 Y1.12482
X0.15660 Y1.12482
X0.15660 Y1.12382
X0.15760 Y1.12382
X0.15760 Y1.12282
X0.15860 Y1.12282
X0.15860 Y1.12082
X0.15960 Y1.12082
X0.15960 Y1.11982
X0.16060 Y1.11982
X0.16060 Y1.11882
X0.16160 Y1.11882
X0.16160 Y1.11782
X0.16260 Y1.11782
X0.16260 Y1.11682
X0.16360 Y1.11682
X0.16360 Y1.11482
X0.16460 Y1.11482
X0.16460 Y1.11282
X0.16560 Y1.11282
X0.16560 Y1.11082
X0.16660 Y1.11082
X0.16660 Y1.10982
X0.16760 Y1.10982
X0.16760 Y1.10782
X0.16860 Y1.10782
X0.16860 Y1.10582
X0.16960 Y1.10582
X0.16960 Y1.10282
X0.17060 Y1.10282
X0.17060 Y1.09982
X0.17160 Y1.09982
X0.17160 Y1.09682
X0.17260 Y1.09682
X0.17260 Y1.09382
X0.17360 Y1.09382
X0.17360 Y1.08882
X0.17460 Y1.08882
X0.17460 Y1.06982
X0.17360 Y1.06982
X0.17360 Y1.06482
X0.17260 Y1.06482
X0.17260 Y1.06182
X0.17160 Y1.06182
X0.17160 Y1.05882
X0.17060 Y1.05882
X0.17060 Y1.05582
X0.16960 Y1.05582
X0.16960 Y1.05282
X0.16860 Y1.05282
X0.16860 Y1.05082
X0.16760 Y1.05082
X0.16760 Y1.04882
X0.16660 Y1.04882
X0.16660 Y1.04782
X0.16560 Y1.04782
X0.16560 Y1.04582
X0.16460 Y1.04582
X0.16460 Y1.04382
X0.16360 Y1.04382
X0.16360 Y1.04182
X0.16260 Y1.04182
X0.16260 Y1.04082
X0.16160 Y1.04082
X0.16160 Y1.03982
X0.16060 Y1.03982
X0.16060 Y1.03882
X0.15960 Y1.03882
X0.15960 Y1.03782
X0.15860 Y1.03782
X0.15860 Y1.03582
X0.15760 Y1.03582
X0.15760 Y1.03482
X0.15660 Y1.03482
X0.15660 Y1.03382
X0.15560 Y1.03382
X0.15560 Y1.03282
X0.15460 Y1.03282
X0.15460 Y1.03182
X0.15260 Y1.03182
X0.15260 Y1.03082
X0.15160 Y1.03082
X0.15160 Y1.02982
X0.15060 Y1.02982
X0.15060 Y1.02882
X0.14960 Y1.02882
X0.14960 Y1.02782
X0.14860 Y1.02782
X0.14860 Y1.02682
X0.14660 Y1.02682
X0.14660 Y1.02582
X0.14460 Y1.02582
X0.14460 Y1.02482
X0.14260 Y1.02482
X0.14260 Y1.02382
X0.14160 Y1.02382
X0.14160 Y1.02282
X0.13960 Y1.02282
X0.13960 Y1.02182
X0.13760 Y1.02182
X0.13760 Y1.02082
X0.13360 Y1.02082
X0.13360 Y1.01982
X0.13160 Y1.01982
X0.13160 Y1.01882
X0.12860 Y1.01882
X0.12860 Y1.01782
X0.12460 Y1.01782
X0.12460 Y1.01182
X0.12360 Y1.01182
X0.12360 Y0.75282
X0.12460 Y0.75282
X0.12460 Y0.74682
X0.12860 Y0.74682
X0.12860 Y0.74582
X0.13160 Y0.74582
X0.13160 Y0.74482
X0.13360 Y0.74482
X0.13360 Y0.74382
X0.13760 Y0.74382
X0.13760 Y0.74282
X0.13960 Y0.74282
X0.13960 Y0.74182
X0.14160 Y0.74182
X0.14160 Y0.74082
X0.14260 Y0.74082
X0.14260 Y0.73982
X0.14460 Y0.73982
X0.14460 Y0.73882
X0.14660 Y0.73882
X0.14660 Y0.73782
X0.14860 Y0.73782
X0.14860 Y0.73682
X0.14960 Y0.73682
X0.14960 Y0.73582
X0.15060 Y0.73582
X0.15060 Y0.73482
X0.15160 Y0.73482
X0.15160 Y0.73382
X0.15260 Y0.73382
X0.15260 Y0.73282
X0.15460 Y0.73282
X0.15460 Y0.73182
X0.15560 Y0.73182
X0.15560 Y0.73082
X0.15660 Y0.73082
X0.15660 Y0.72982
X0.15760 Y0.72982
X0.15760 Y0.72882
X0.15860 Y0.72882
X0.15860 Y0.72682
X0.15960 Y0.72682
X0.15960 Y0.72582
X0.16060 Y0.72582
X0.16060 Y0.72482
X0.16160 Y0.72482
X0.16160 Y0.72382
X0.16260 Y0.72382
X0.16260 Y0.72282
X0.16360 Y0.72282
X0.16360 Y0.72082
X0.16460 Y0.72082
X0.16460 Y0.71882
X0.16560 Y0.71882
X0.16560 Y0.71682
X0.16660 Y0.71682
X0.16660 Y0.71582
X0.16760 Y0.71582
X0.16760 Y0.71382
X0.16860 Y0.71382
X0.16860 Y0.71182
X0.16960 Y0.71182
X0.16960 Y0.70882
X0.17060 Y0.70882
X0.17060 Y0.70682
X0.17160 Y0.70682
X0.17160 Y0.70382
X0.17260 Y0.70382
X0.17260 Y0.69982
X0.17360 Y0.69982
X0.17360 Y0.69482
X0.17460 Y0.69482
X0.17460 Y0.67682
X0.17360 Y0.67682
X0.17360 Y0.67182
X0.17260 Y0.67182
X0.17260 Y0.66782
X0.17160 Y0.66782
X0.17160 Y0.66482
X0.17060 Y0.66482
X0.17060 Y0.66182
X0.16960 Y0.66182
X0.16960 Y0.65882
X0.16860 Y0.65882
X0.16860 Y0.65682
X0.16760 Y0.65682
X0.16760 Y0.65482
X0.16660 Y0.65482
X0.16660 Y0.65382
X0.16560 Y0.65382
X0.16560 Y0.65182
X0.16460 Y0.65182
X0.16460 Y0.64982
X0.16360 Y0.64982
X0.16360 Y0.64782
X0.16260 Y0.64782
X0.16260 Y0.64682
X0.16160 Y0.64682
X0.16160 Y0.64582
X0.16060 Y0.64582
X0.16060 Y0.64482
X0.15960 Y0.64482
X0.15960 Y0.64382
X0.15860 Y0.64382
X0.15860 Y0.64182
X0.15760 Y0.64182
X0.15760 Y0.64082
X0.15660 Y0.64082
X0.15660 Y0.63982
X0.15560 Y0.63982
X0.15560 Y0.63882
X0.15460 Y0.63882
X0.15460 Y0.63782
X0.15260 Y0.63782
X0.15260 Y0.63682
X0.15160 Y0.63682
X0.15160 Y0.63582
X0.15060 Y0.63582
X0.15060 Y0.63482
X0.14960 Y0.63482
X0.14960 Y0.63382
X0.14860 Y0.63382
X0.14860 Y0.63282
X0.14660 Y0.63282
X0.14660 Y0.63182
X0.14460 Y0.63182
X0.14460 Y0.63082
X0.14260 Y0.63082
X0.14260 Y0.62982
X0.14160 Y0.62982
X0.14160 Y0.62882
X0.13960 Y0.62882
X0.13960 Y0.62782
X0.13760 Y0.62782
X0.13760 Y0.62682
X0.13360 Y0.62682
X0.13360 Y0.62582
X0.13060 Y0.62582
X0.13060 Y0.62482
X0.12860 Y0.62482
X0.12860 Y0.62382
X0.12460 Y0.62382
X0.12460 Y0.61782
X0.12360 Y0.61782
X0.12360 Y0.35882
X0.12460 Y0.35882
X0.12460 Y0.35382
X0.12860 Y0.35382
X0.12860 Y0.35282
X0.13060 Y0.35282
X0.13060 Y0.35182
X0.13360 Y0.35182
X0.13360 Y0.35082
X0.13760 Y0.35082
X0.13760 Y0.34982
X0.13960 Y0.34982
X0.13960 Y0.34882
X0.14160 Y0.34882
X0.14160 Y0.34782
X0.14260 Y0.34782
X0.14260 Y0.34682
X0.14460 Y0.34682
X0.14460 Y0.34582
X0.14660 Y0.34582
X0.14660 Y0.34482
X0.14860 Y0.34482
X0.14860 Y0.34382
X0.14960 Y0.34382
X0.14960 Y0.34282
X0.15060 Y0.34282
X0.15060 Y0.34182
X0.15160 Y0.34182
X0.15160 Y0.34082
X0.15260 Y0.34082
X0.15260 Y0.33982
X0.15460 Y0.33982
X0.15460 Y0.33882
X0.15560 Y0.33882
X0.15560 Y0.33782
X0.15660 Y0.33782
X0.15660 Y0.33682
X0.15760 Y0.33682
X0.15760 Y0.33582
X0.15860 Y0.33582
X0.15860 Y0.33382
X0.15960 Y0.33382
X0.15960 Y0.33282
X0.16060 Y0.33282
X0.16060 Y0.33182
X0.16160 Y0.33182
X0.16160 Y0.33082
X0.16260 Y0.33082
X0.16260 Y0.32982
X0.16360 Y0.32982
X0.16360 Y0.32782
X0.16460 Y0.32782
X0.16460 Y0.32582
X0.16560 Y0.32582
X0.16560 Y0.32382
X0.16660 Y0.32382
X0.16660 Y0.32282
X0.16760 Y0.32282
X0.16760 Y0.32082
X0.16860 Y0.32082
X0.16860 Y0.31882
X0.16960 Y0.31882
X0.16960 Y0.31582
X0.17060 Y0.31582
X0.17060 Y0.31282
X0.17160 Y0.31282
X0.17160 Y0.30982
X0.17260 Y0.30982
X0.17260 Y0.30582
X0.17360 Y0.30582
X0.17360 Y0.30082
X0.17460 Y0.30082
X0.17460 Y0.28282
X0.17360 Y0.28282
X0.17360 Y0.27782
X0.17260 Y0.27782
X0.17260 Y0.27382
X0.17160 Y0.27382
X0.17160 Y0.27082
X0.17060 Y0.27082
X0.17060 Y0.26882
X0.16960 Y0.26882
X0.16960 Y0.26582
X0.16860 Y0.26582
X0.16860 Y0.26382
X0.16760 Y0.26382
X0.16760 Y0.26182
X0.16660 Y0.26182
X0.16660 Y0.26082
X0.16560 Y0.26082
X0.16560 Y0.25882
X0.16460 Y0.25882
X0.16460 Y0.25682
X0.16360 Y0.25682
X0.16360 Y0.25482
X0.16260 Y0.25482
X0.16260 Y0.25382
X0.16160 Y0.25382
X0.16160 Y0.25282
X0.16060 Y0.25282
X0.16060 Y0.25182
X0.15960 Y0.25182
X0.15960 Y0.25082
X0.15860 Y0.25082
X0.15860 Y0.24882
X0.15760 Y0.24882
X0.15760 Y0.24782
X0.15660 Y0.24782
X0.15660 Y0.24682
X0.15560 Y0.24682
X0.15560 Y0.24582
X0.15460 Y0.24582
X0.15460 Y0.24482
X0.15260 Y0.24482
X0.15260 Y0.24382
X0.15160 Y0.24382
X0.15160 Y0.24282
X0.15060 Y0.24282
X0.15060 Y0.24182
X0.14960 Y0.24182
X0.14960 Y0.24082
X0.14860 Y0.24082
X0.14860 Y0.23982
X0.14660 Y0.23982
X0.14660 Y0.23882
X0.14460 Y0.23882
X0.14460 Y0.23782
X0.14260 Y0.23782
X0.14260 Y0.23682
X0.14160 Y0.23682
X0.14160 Y0.23582
X0.13960 Y0.23582
X0.13960 Y0.23482
X0.13760 Y0.23482
X0.13760 Y0.23382
X0.13360 Y0.23382
X0.13360 Y0.23282
X0.13160 Y0.23282
X0.13160 Y0.23182
X0.12860 Y0.23182
X0.12860 Y0.23082
X0.12460 Y0.23082
X0.12460 Y0.22482
X0.12360 Y0.22482
X0.12360 Y0.03582
X0.12460 Y0.03582
X0.12460 Y0.03482
X0.12560 Y0.03482
X0.12560 Y0.03282
X0.12760 Y0.03282
X0.12760 Y0.03182
X1.23760 Y0.03182
X1.23760 Y0.03282
X1.23860 Y0.03282
X1.23860 Y0.03382
X1.23960 Y0.03382
X1.23960 Y0.03582
X1.24060 Y0.03582
X1.24060 Y0.22482
X1.23960 Y0.22482
X1.23960 Y0.23082
X1.23460 Y0.23082
X1.23460 Y0.23182
X1.23160 Y0.23182
X1.23160 Y0.23282
X1.22960 Y0.23282
X1.22960 Y0.23382
X1.22660 Y0.23382
X1.22660 Y0.23482
X1.22460 Y0.23482
X1.22460 Y0.23582
X1.22360 Y0.23582
X1.22360 Y0.23682
X1.22160 Y0.23682
X1.22160 Y0.23782
X1.21960 Y0.23782
X1.21960 Y0.23882
X1.21760 Y0.23882
X1.21760 Y0.23982
X1.21560 Y0.23982
X1.21560 Y0.24082
X1.21460 Y0.24082
X1.21460 Y0.24182
X1.21360 Y0.24182
X1.21360 Y0.24282
X1.21260 Y0.24282
X1.21260 Y0.24382
X1.21160 Y0.24382
X1.21160 Y0.24482
X1.20960 Y0.24482
X1.20960 Y0.24582
X1.20860 Y0.24582
X1.20860 Y0.24682
X1.20760 Y0.24682
X1.20760 Y0.24782
X1.20660 Y0.24782
X1.20660 Y0.24882
X1.20560 Y0.24882
X1.20560 Y0.25082
X1.20460 Y0.25082
X1.20460 Y0.25182
X1.20360 Y0.25182
X1.20360 Y0.25282
X1.20260 Y0.25282
X1.20260 Y0.25382
X1.20160 Y0.25382
X1.20160 Y0.25482
X1.20060 Y0.25482
X1.20060 Y0.25682
X1.19960 Y0.25682
X1.19960 Y0.25882
X1.19860 Y0.25882
X1.19860 Y0.26082
X1.19760 Y0.26082
X1.19760 Y0.26182
X1.19660 Y0.26182
X1.19660 Y0.26382
X1.19560 Y0.26382
X1.19560 Y0.26582
X1.19460 Y0.26582
X1.19460 Y0.26882
X1.19360 Y0.26882
X1.19360 Y0.27082
X1.19260 Y0.27082
X1.19260 Y0.27382
X1.19160 Y0.27382
X1.19160 Y0.27682
X1.19060 Y0.27682
X1.19060 Y0.28282
X1.18960 Y0.28282
X1.18960 Y0.30182
X1.19060 Y0.30182
X1.19060 Y0.30682
X1.19160 Y0.30682
X1.19160 Y0.30982
X1.19260 Y0.30982
X1.19260 Y0.31282
X1.19360 Y0.31282
X1.19360 Y0.31482
X1.19460 Y0.31482
X1.19460 Y0.31882
X1.19560 Y0.31882
X1.19560 Y0.32082
X1.19660 Y0.32082
X1.19660 Y0.32182
X1.19760 Y0.32182
X1.19760 Y0.32382
X1.19860 Y0.32382
X1.19860 Y0.32582
X1.19960 Y0.32582
X1.19960 Y0.32782
X1.20060 Y0.32782
X1.20060 Y0.32982
X1.20160 Y0.32982
X1.20160 Y0.33082
X1.20260 Y0.33082
X1.20260 Y0.33182
X1.20360 Y0.33182
X1.20360 Y0.33282
X1.20460 Y0.33282
X1.20460 Y0.33382
X1.20560 Y0.33382
X1.20560 Y0.33582
X1.20660 Y0.33582
X1.20660 Y0.33682
X1.20760 Y0.33682
X1.20760 Y0.33782
X1.20860 Y0.33782
X1.20860 Y0.33882
X1.20960 Y0.33882
X1.20960 Y0.33982
X1.21160 Y0.33982
X1.21160 Y0.34082
X1.21260 Y0.34082
X1.21260 Y0.34182
X1.21360 Y0.34182
X1.21360 Y0.34282
X1.21460 Y0.34282
X1.21460 Y0.34382
X1.21560 Y0.34382
X1.21560 Y0.34482
X1.21760 Y0.34482
X1.21760 Y0.34582
X1.21960 Y0.34582
X1.21960 Y0.34682
X1.22160 Y0.34682
X1.22160 Y0.34782
X1.22360 Y0.34782
X1.22360 Y0.34882
X1.22460 Y0.34882
X1.22460 Y0.34982
X1.22660 Y0.34982
X1.22660 Y0.35082
X1.23060 Y0.35082
X1.23060 Y0.35182
X1.23260 Y0.35182
X1.23260 Y0.35282
X1.23460 Y0.35282
X1.23460 Y0.35382
X1.23960 Y0.35382
X1.23960 Y0.35982
X1.24060 Y0.35982
X1.24060 Y0.61782
X1.23960 Y0.61782
X1.23960 Y0.62382
X1.23460 Y0.62382
X1.23460 Y0.62482
X1.23260 Y0.62482
X1.23260 Y0.62582
X1.23060 Y0.62582
X1.23060 Y0.62682
X1.22660 Y0.62682
X1.22660 Y0.62782
X1.22460 Y0.62782
X1.22460 Y0.62882
X1.22360 Y0.62882
X1.22360 Y0.62982
X1.22160 Y0.62982
X1.22160 Y0.63082
X1.21960 Y0.63082
X1.21960 Y0.63182
X1.21760 Y0.63182
X1.21760 Y0.63282
X1.21560 Y0.63282
X1.21560 Y0.63382
X1.21460 Y0.63382
X1.21460 Y0.63482
X1.21360 Y0.63482
X1.21360 Y0.63582
X1.21260 Y0.63582
X1.21260 Y0.63682
X1.21160 Y0.63682
X1.21160 Y0.63782
X1.20960 Y0.63782
X1.20960 Y0.63882
X1.20860 Y0.63882
X1.20860 Y0.63982
X1.20760 Y0.63982
X1.20760 Y0.64082
X1.20660 Y0.64082
X1.20660 Y0.64182
X1.20560 Y0.64182
X1.20560 Y0.64382
X1.20460 Y0.64382
X1.20460 Y0.64482
X1.20360 Y0.64482
X1.20360 Y0.64582
X1.20260 Y0.64582
X1.20260 Y0.64682
X1.20160 Y0.64682
X1.20160 Y0.64782
X1.20060 Y0.64782
X1.20060 Y0.64982
X1.19960 Y0.64982
X1.19960 Y0.65182
X1.19860 Y0.65182
X1.19860 Y0.65382
X1.19760 Y0.65382
X1.19760 Y0.65582
X1.19660 Y0.65582
X1.19660 Y0.65682
X1.19560 Y0.65682
X1.19560 Y0.65882
X1.19460 Y0.65882
X1.19460 Y0.66282
X1.19360 Y0.66282
X1.19360 Y0.66482
X1.19260 Y0.66482
X1.19260 Y0.66782
X1.19160 Y0.66782
X1.19160 Y0.67082
X1.19060 Y0.67082
X1.19060 Y0.67582
X1.18960 Y0.67582
X1.18960 Y0.69482
X1.19060 Y0.69482
X1.19060 Y0.70082
X1.19160 Y0.70082
X1.19160 Y0.70382
X1.19260 Y0.70382
X1.19260 Y0.70682
X1.19360 Y0.70682
X1.19360 Y0.70882
X1.19460 Y0.70882
X1.19460 Y0.71182
X1.19560 Y0.71182
X1.19560 Y0.71382
X1.19660 Y0.71382
X1.19660 Y0.71582
X1.19760 Y0.71582
X1.19760 Y0.71682
X1.19860 Y0.71682
X1.19860 Y0.71882
X1.19960 Y0.71882
X1.19960 Y0.72082
X1.20060 Y0.72082
X1.20060 Y0.72282
X1.20160 Y0.72282
X1.20160 Y0.72382
X1.20260 Y0.72382
X1.20260 Y0.72482
X1.20360 Y0.72482
X1.20360 Y0.72582
X1.20460 Y0.72582
X1.20460 Y0.72682
X1.20560 Y0.72682
X1.20560 Y0.72882
X1.20660 Y0.72882
X1.20660 Y0.72982
X1.20760 Y0.72982
X1.20760 Y0.73082
X1.20860 Y0.73082
X1.20860 Y0.73182
X1.20960 Y0.73182
X1.20960 Y0.73282
X1.21160 Y0.73282
X1.21160 Y0.73382
X1.21260 Y0.73382
X1.21260 Y0.73482
X1.21360 Y0.73482
X1.21360 Y0.73582
X1.21460 Y0.73582
X1.21460 Y0.73682
X1.21560 Y0.73682
X1.21560 Y0.73782
X1.21760 Y0.73782
X1.21760 Y0.73882
X1.21960 Y0.73882
X1.21960 Y0.73982
X1.22160 Y0.73982
X1.22160 Y0.74082
X1.22360 Y0.74082
X1.22360 Y0.74182
X1.22460 Y0.74182
X1.22460 Y0.74282
X1.22660 Y0.74282
X1.22660 Y0.74382
X1.22960 Y0.74382
X1.22960 Y0.74482
X1.23160 Y0.74482
X1.23160 Y0.74582
X1.23460 Y0.74582
X1.23460 Y0.74682
X1.23960 Y0.74682
X1.23960 Y0.75282
X1.24060 Y0.75282
X1.24060 Y1.01182
X1.23960 Y1.01182
X1.23960 Y1.01782
X1.23460 Y1.01782
X1.23460 Y1.01882
X1.23160 Y1.01882
X1.23160 Y1.01982
X1.22960 Y1.01982
X1.22960 Y1.02082
X1.22660 Y1.02082
X1.22660 Y1.02182
X1.22460 Y1.02182
X1.22460 Y1.02282
X1.22360 Y1.02282
X1.22360 Y1.02382
X1.22160 Y1.02382
X1.22160 Y1.02482
X1.21960 Y1.02482
X1.21960 Y1.02582
X1.21760 Y1.02582
X1.21760 Y1.02682
X1.21560 Y1.02682
X1.21560 Y1.02782
X1.21460 Y1.02782
X1.21460 Y1.02882
X1.21360 Y1.02882
X1.21360 Y1.02982
X1.21260 Y1.02982
X1.21260 Y1.03082
X1.21160 Y1.03082
X1.21160 Y1.03182
X1.20960 Y1.03182
X1.20960 Y1.03282
X1.20860 Y1.03282
X1.20860 Y1.03382
X1.20760 Y1.03382
X1.20760 Y1.03482
X1.20660 Y1.03482
X1.20660 Y1.03582
X1.20560 Y1.03582
X1.20560 Y1.03782
X1.20460 Y1.03782
X1.20460 Y1.03882
X1.20360 Y1.03882
X1.20360 Y1.03982
X1.20260 Y1.03982
X1.20260 Y1.04082
X1.20160 Y1.04082
X1.20160 Y1.04182
X1.20060 Y1.04182
X1.20060 Y1.04382
X1.19960 Y1.04382
X1.19960 Y1.04582
X1.19860 Y1.04582
X1.19860 Y1.04782
X1.19760 Y1.04782
X1.19760 Y1.04982
X1.19660 Y1.04982
X1.19660 Y1.05082
X1.19560 Y1.05082
X1.19560 Y1.05282
X1.19460 Y1.05282
X1.19460 Y1.05682
X1.19360 Y1.05682
X1.19360 Y1.05882
X1.19260 Y1.05882
X1.19260 Y1.06182
X1.19160 Y1.06182
X1.19160 Y1.06482
X1.19060 Y1.06482
X1.19060 Y1.06982
X1.18960 Y1.06982
X1.18960 Y1.08882
X1.19060 Y1.08882
X1.19060 Y1.09382
X1.19160 Y1.09382
X1.19160 Y1.09682
X1.19260 Y1.09682
X1.19260 Y1.09982
X1.19360 Y1.09982
X1.19360 Y1.10182
X1.19460 Y1.10182
X1.19460 Y1.10582
X1.19560 Y1.10582
X1.19560 Y1.10782
X1.19660 Y1.10782
X1.19660 Y1.10882
X1.19760 Y1.10882
X1.19760 Y1.11082
X1.19860 Y1.11082
X1.19860 Y1.11282
X1.19960 Y1.11282
X1.19960 Y1.11482
X1.20060 Y1.11482
X1.20060 Y1.11682
X1.20160 Y1.11682
X1.20160 Y1.11782
X1.20260 Y1.11782
X1.20260 Y1.11882
X1.20360 Y1.11882
X1.20360 Y1.11982
X1.20460 Y1.11982
X1.20460 Y1.12082
X1.20560 Y1.12082
X1.20560 Y1.12282
X1.20660 Y1.12282
X1.20660 Y1.12382
X1.20760 Y1.12382
X1.20760 Y1.12482
X1.20860 Y1.12482
X1.20860 Y1.12582
X1.20960 Y1.12582
X1.20960 Y1.12682
X1.21160 Y1.12682
X1.21160 Y1.12782
X1.21260 Y1.12782
X1.21260 Y1.12882
X1.21360 Y1.12882
X1.21360 Y1.12982
X1.21460 Y1.12982
X1.21460 Y1.13082
X1.21560 Y1.13082
X1.21560 Y1.13182
X1.21760 Y1.13182
X1.21760 Y1.13282
X1.21960 Y1.13282
X1.21960 Y1.13382
X1.22160 Y1.13382
X1.22160 Y1.13482
X1.22360 Y1.13482
X1.22360 Y1.13582
X1.22460 Y1.13582
X1.22460 Y1.13682
X1.22660 Y1.13682
X1.22660 Y1.13782
X1.22960 Y1.13782
X1.22960 Y1.13882
X1.23160 Y1.13882
X1.23160 Y1.13982
X1.23460 Y1.13982
X1.23460 Y1.14082
X1.23960 Y1.14082
X1.23960 Y1.14682
X1.24060 Y1.14682
X1.24060 Y1.40582
X1.23960 Y1.40582
X1.23960 Y1.41182
X1.23460 Y1.41182
X1.23460 Y1.41282
X1.23160 Y1.41282
X1.23160 Y1.41382
X1.22960 Y1.41382
X1.22960 Y1.41482
X1.22660 Y1.41482
X1.22660 Y1.41582
X1.22460 Y1.41582
X1.22460 Y1.41682
X1.22360 Y1.41682
X1.22360 Y1.41782
X1.22160 Y1.41782
X1.22160 Y1.41882
X1.21960 Y1.41882
X1.21960 Y1.41982
X1.21760 Y1.41982
X1.21760 Y1.42082
X1.21560 Y1.42082
X1.21560 Y1.42182
X1.21460 Y1.42182
X1.21460 Y1.42282
X1.21360 Y1.42282
X1.21360 Y1.42382
X1.21260 Y1.42382
X1.21260 Y1.42482
X1.21160 Y1.42482
X1.21160 Y1.42582
X1.20960 Y1.42582
X1.20960 Y1.42682
X1.20860 Y1.42682
X1.20860 Y1.42782
X1.20760 Y1.42782
X1.20760 Y1.42882
X1.20660 Y1.42882
X1.20660 Y1.42982
X1.20560 Y1.42982
X1.20560 Y1.43182
X1.20460 Y1.43182
X1.20460 Y1.43282
X1.20360 Y1.43282
X1.20360 Y1.43382
X1.20260 Y1.43382
X1.20260 Y1.43482
X1.20160 Y1.43482
X1.20160 Y1.43582
X1.20060 Y1.43582
X1.20060 Y1.43782
X1.19960 Y1.43782
X1.19960 Y1.43982
X1.19860 Y1.43982
X1.19860 Y1.44182
X1.19760 Y1.44182
X1.19760 Y1.44282
X1.19660 Y1.44282
X1.19660 Y1.44482
X1.19560 Y1.44482
X1.19560 Y1.44682
X1.19460 Y1.44682
X1.19460 Y1.44982
X1.19360 Y1.44982
X1.19360 Y1.45182
X1.19260 Y1.45182
X1.19260 Y1.45482
X1.19160 Y1.45482
X1.19160 Y1.45782
X1.19060 Y1.45782
X1.19060 Y1.46382
X1.18960 Y1.46382
X1.18960 Y1.48282
X1.19060 Y1.48282
X1.19060 Y1.48782
X1.19160 Y1.48782
X1.19160 Y1.49082
X1.19260 Y1.49082
X1.19260 Y1.49382
X1.19360 Y1.49382
X1.19360 Y1.49582
X1.19460 Y1.49582
X1.19460 Y1.49982
X1.19560 Y1.49982
X1.19560 Y1.50182
X1.19660 Y1.50182
X1.19660 Y1.50282
X1.19760 Y1.50282
X1.19760 Y1.50482
X1.19860 Y1.50482
X1.19860 Y1.50682
X1.19960 Y1.50682
X1.19960 Y1.50882
X1.20060 Y1.50882
X1.20060 Y1.51082
X1.20160 Y1.51082
X1.20160 Y1.51182
X1.20260 Y1.51182
X1.20260 Y1.51282
X1.20360 Y1.51282
X1.20360 Y1.51382
X1.20460 Y1.51382
X1.20460 Y1.51482
X1.20560 Y1.51482
X1.20560 Y1.51682
X1.20660 Y1.51682
X1.20660 Y1.51782
X1.20760 Y1.51782
X1.20760 Y1.51882
X1.20860 Y1.51882
X1.20860 Y1.51982
X1.20960 Y1.51982
X1.20960 Y1.52082
X1.21160 Y1.52082
X1.21160 Y1.52182
X1.21260 Y1.52182
X1.21260 Y1.52282
X1.21360 Y1.52282
X1.21360 Y1.52382
X1.21460 Y1.52382
X1.21460 Y1.52482
X1.21560 Y1.52482
X1.21560 Y1.52582
X1.21760 Y1.52582
X1.21760 Y1.52682
X1.21960 Y1.52682
X1.21960 Y1.52782
X1.22160 Y1.52782
X1.22160 Y1.52882
X1.22360 Y1.52882
X1.22360 Y1.52982
X1.22460 Y1.52982
X1.22460 Y1.53082
X1.22660 Y1.53082
X1.22660 Y1.53182
X1.23060 Y1.53182
X1.23060 Y1.53282
X1.23260 Y1.53282
X1.23260 Y1.53382
X1.23460 Y1.53382
X1.23460 Y1.53482
X1.23960 Y1.53482
X1.23960 Y1.54082
X1.24060 Y1.54082
X1.24060 Y1.66882
X1.23960 Y1.66882
X1.23960 Y1.67082
X1.23860 Y1.67082
X1.23860 Y1.67182
X1.23560 Y1.67182
X1.23560 Y1.67282
X1.23460 Y1.67282
X1.23460 Y1.67382
X1.23260 Y1.67382
X1.23260 Y1.67482
X0.12860 Y1.67482
X0.12860 Y1.67382
X0.12660 Y1.67382
X0.12660 Y1.67282
X0.12560 Y1.67282
X0.12560 Y1.67182
X0.12360 Y1.67182
X0.12360 Y1.67082
G04 P0 ( dwell for no time -- G64 should not smooth over this point )
G00 Z0.19685 ( retract )

G00 X1.22460 Y1.52982 ( rapid move to begin. )
G01 Z-0.01969 F1.96850 ( plunge. )
G04 P0 ( dwell for no time -- G64 should not smooth over this point )
X1.22460 Y1.52982
X1.22360 Y1.52982
X1.22360 Y1.52882
X1.22160 Y1.52882
X1.22160 Y1.52782
X1.21960 Y1.52782
X1.21960 Y1.52682
X1.21760 Y1.52682
X1.21760 Y1.52582
X1.21560 Y1.52582
X1.21560 Y1.52482
X1.21460 Y1.52482
X1.21460 Y1.52382
X1.21360 Y1.52382
X1.21360 Y1.52282
X1.21260 Y1.52282
X1.21260 Y1.52182
X1.21160 Y1.52182
X1.21160 Y1.52082
X1.20960 Y1.52082
X1.20960 Y1.51982
X1.20860 Y1.51982
X1.20860 Y1.51882
X1.20760 Y1.51882
X1.20760 Y1.51782
X1.20660 Y1.51782
X1.20660 Y1.51682
X1.20560 Y1.51682
X1.20560 Y1.51482
X1.20460 Y1.51482
X1.20460 Y1.51382
X1.20360 Y1.51382
X1.20360 Y1.51282
X1.20260 Y1.51282
X1.20260 Y1.51182
X1.20160 Y1.51182
X1.20160 Y1.51082
X1.20060 Y1.51082
X1.20060 Y1.50882
X1.19960 Y1.50882
X1.19960 Y1.50682
X1.19860 Y1.50682
X1.19860 Y1.50482
X1.19760 Y1.50482
X1.19760 Y1.50282
X1.19660 Y1.50282
X1.19660 Y1.50182
X1.19560 Y1.50182
X1.19560 Y1.49982
X1.19460 Y1.49982
X1.19460 Y1.49582
X1.19360 Y1.49582
X1.19360 Y1.49382
X1.19260 Y1.49382
X1.19260 Y1.49082
X1.19160 Y1.49082
X1.19160 Y1.48782
X1.19060 Y1.48782
X1.19060 Y1.48282
X1.18960 Y1.48282
X1.18960 Y1.46382
X1.19060 Y1.46382
X1.19060 Y1.45782
X1.19160 Y1.45782
X1.19160 Y1.45482
X1.19260 Y1.45482
X1.19260 Y1.45182
X1.19360 Y1.45182
X1.19360 Y1.44982
X1.19460 Y1.44982
X1.19460 Y1.44682
X1.19560 Y1.44682
X1.19560 Y1.44482
X1.19660 Y1.44482
X1.19660 Y1.44282
X1.19760 Y1.44282
X1.19760 Y1.44182
X1.19860 Y1.44182
X1.19860 Y1.43982
X1.19960 Y1.43982
X1.19960 Y1.43782
X1.20060 Y1.43782
X1.20060 Y1.43582
X1.20160 Y1.43582
X1.20160 Y1.43482
X1.20260 Y1.43482
X1.20260 Y1.43382
X1.20360 Y1.43382
X1.20360 Y1.43282
X1.20460 Y1.43282
X1.20460 Y1.43182
X1.20560 Y1.43182
X1.20560 Y1.42982
X1.20660 Y1.42982
X1.20660 Y1.42882
X1.20760 Y1.42882
X1.20760 Y1.42782
X1.20860 Y1.42782
X1.20860 Y1.42682
X1.20960 Y1.42682
X1.20960 Y1.42582
X1.21160 Y1.42582
X1.21160 Y1.42482
X1.21260 Y1.42482
X1.21260 Y1.42382
X1.21360 Y1.42382
X1.21360 Y1.42282
X1.21460 Y1.42282
X1.21460 Y1.42182
X1.21560 Y1.42182
X1.21560 Y1.42082
X1.21760 Y1.42082
X1.21760 Y1.41982
X1.21960 Y1.41982
X1.21960 Y1.41882
X1.22160 Y1.41882
X1.22160 Y1.41782
X1.22360 Y1.41782
X1.22360 Y1.41682
X1.22460 Y1.41682
X1.22460 Y1.41582
X1.22660 Y1.41582
X1.22660 Y1.41482
X1.22960 Y1.41482
X1.22960 Y1.41382
X1.23160 Y1.41382
X1.23160 Y1.41282
X1.23460 Y1.41282
X1.23460 Y1.41182
X1.23960 Y1.41182
X1.23960 Y1.41582
X1.24060 Y1.41582
X1.24060 Y1.53082
X1.23960 Y1.53082
X1.23960 Y1.53482
X1.23460 Y1.53482
X1.23460 Y1.53382
X1.23260 Y1.53382
X1.23260 Y1.53282
X1.23060 Y1.53282
X1.23060 Y1.53182
X1.22660 Y1.53182
X1.22660 Y1.53082
X1.22460 Y1.53082
X1.22460 Y1.52982
G04 P0 ( dwell for no time -- G64 should not smooth over this point )
G00 Z0.19685 ( retract )

G00 X0.12360 Y1.52982 ( rapid move to begin. )
G01 Z-0.01969 F1.96850 ( plunge. )
G04 P0 ( dwell for no time -- G64 should not smooth over this point )
X0.12360 Y1.52982
X0.12360 Y1.41582
X0.12460 Y1.41582
X0.12460 Y1.41182
X0.12860 Y1.41182
X0.12860 Y1.41282
X0.13160 Y1.41282
X0.13160 Y1.41382
X0.13360 Y1.41382
X0.13360 Y1.41482
X0.13760 Y1.41482
X0.13760 Y1.41582
X0.13960 Y1.41582
X0.13960 Y1.41682
X0.14160 Y1.41682
X0.14160 Y1.41782
X0.14260 Y1.41782
X0.14260 Y1.41882
X0.14460 Y1.41882
X0.14460 Y1.41982
X0.14660 Y1.41982
X0.14660 Y1.42082
X0.14860 Y1.42082
X0.14860 Y1.42182
X0.14960 Y1.42182
X0.14960 Y1.42282
X0.15060 Y1.42282
X0.15060 Y1.42382
X0.15160 Y1.42382
X0.15160 Y1.42482
X0.15260 Y1.42482
X0.15260 Y1.42582
X0.15460 Y1.42582
X0.15460 Y1.42682
X0.15560 Y1.42682
X0.15560 Y1.42782
X0.15660 Y1.42782
X0.15660 Y1.42882
X0.15760 Y1.42882
X0.15760 Y1.42982
X0.15860 Y1.42982
X0.15860 Y1.43182
X0.15960 Y1.43182
X0.15960 Y1.43282
X0.16060 Y1.43282
X0.16060 Y1.43382
X0.16160 Y1.43382
X0.16160 Y1.43482
X0.16260 Y1.43482
X0.16260 Y1.43582
X0.16360 Y1.43582
X0.16360 Y1.43782
X0.16460 Y1.43782
X0.16460 Y1.43982
X0.16560 Y1.43982
X0.16560 Y1.44182
X0.16660 Y1.44182
X0.16660 Y1.44282
X0.16760 Y1.44282
X0.16760 Y1.44482
X0.16860 Y1.44482
X0.16860 Y1.44682
X0.16960 Y1.44682
X0.16960 Y1.44982
X0.17060 Y1.44982
X0.17060 Y1.45182
X0.17160 Y1.45182
X0.17160 Y1.45482
X0.17260 Y1.45482
X0.17260 Y1.45882
X0.17360 Y1.45882
X0.17360 Y1.46382
X0.17460 Y1.46382
X0.17460 Y1.48282
X0.17360 Y1.48282
X0.17360 Y1.48782
X0.17260 Y1.48782
X0.17260 Y1.49082
X0.17160 Y1.49082
X0.17160 Y1.49382
X0.17060 Y1.49382
X0.17060 Y1.49682
X0.16960 Y1.49682
X0.16960 Y1.49982
X0.16860 Y1.49982
X0.16860 Y1.50182
X0.16760 Y1.50182
X0.16760 Y1.50382
X0.16660 Y1.50382
X0.16660 Y1.50482
X0.16560 Y1.50482
X0.16560 Y1.50682
X0.16460 Y1.50682
X0.16460 Y1.50882
X0.16360 Y1.50882
X0.16360 Y1.51082
X0.16260 Y1.51082
X0.16260 Y1.51182
X0.16160 Y1.51182
X0.16160 Y1.51282
X0.16060 Y1.51282
X0.16060 Y1.51382
X0.15960 Y1.51382
X0.15960 Y1.51482
X0.15860 Y1.51482
X0.15860 Y1.51682
X0.15760 Y1.51682
X0.15760 Y1.51782
X0.15660 Y1.51782
X0.15660 Y1.51882
X0.15560 Y1.51882
X0.15560 Y1.51982
X0.15460 Y1.51982
X0.15460 Y1.52082
X0.15260 Y1.52082
X0.15260 Y1.52182
X0.15160 Y1.52182
X0.15160 Y1.52282
X0.15060 Y1.52282
X0.15060 Y1.52382
X0.14960 Y1.52382
X0.14960 Y1.52482
X0.14860 Y1.52482
X0.14860 Y1.52582
X0.14660 Y1.52582
X0.14660 Y1.52682
X0.14460 Y1.52682
X0.14460 Y1.52782
X0.14260 Y1.52782
X0.14260 Y1.52882
X0.14160 Y1.52882
X0.14160 Y1.52982
X0.13960 Y1.52982
X0.13960 Y1.53082
X0.13760 Y1.53082
X0.13760 Y1.53182
X0.13360 Y1.53182
X0.13360 Y1.53282
X0.13060 Y1.53282
X0.13060 Y1.53382
X0.12860 Y1.53382
X0.12860 Y1.53482
X0.12460 Y1.53482
X0.12460 Y1.53082
X0.12360 Y1.53082
X0.12360 Y1.52982
G04 P0 ( dwell for no time -- G64 should not smooth over this point )
G00 Z0.19685 ( retract )

G00 X0.61560 Y1.51582 ( rapid move to begin. )
G01 Z-0.01969 F1.96850 ( plunge. )
G04 P0 ( dwell for no time -- G64 should not smooth over this point )
X0.61560 Y1.51582
X0.61460 Y1.51582
X0.61460 Y1.51482
X0.61360 Y1.51482
X0.61360 Y1.51382
X0.61260 Y1.51382
X0.61260 Y1.51282
X0.59760 Y1.51282
X0.59760 Y1.51182
X0.59560 Y1.51182
X0.59560 Y1.51082
X0.59260 Y1.51082
X0.59260 Y1.50982
X0.59160 Y1.50982
X0.59160 Y1.50882
X0.59060 Y1.50882
X0.59060 Y1.50782
X0.58960 Y1.50782
X0.58960 Y1.50682
X0.58860 Y1.50682
X0.58860 Y1.50582
X0.58760 Y1.50582
X0.58760 Y1.50482
X0.58660 Y1.50482
X0.58660 Y1.50182
X0.58560 Y1.50182
X0.58560 Y1.49882
X0.58460 Y1.49882
X0.58460 Y1.49282
X0.58560 Y1.49282
X0.58560 Y1.48982
X0.58660 Y1.48982
X0.58660 Y1.48782
X0.58760 Y1.48782
X0.58760 Y1.48482
X0.58860 Y1.48482
X0.58860 Y1.48382
X0.58960 Y1.48382
X0.58960 Y1.48282
X0.59060 Y1.48282
X0.59060 Y1.48182
X0.59260 Y1.48182
X0.59260 Y1.48082
X0.59460 Y1.48082
X0.59460 Y1.47982
X0.59760 Y1.47982
X0.59760 Y1.47882
X0.61260 Y1.47882
X0.61260 Y1.47782
X0.61360 Y1.47782
X0.61360 Y1.47682
X0.61460 Y1.47682
X0.61460 Y1.47582
X0.61560 Y1.47582
X0.61560 Y1.47482
X0.61660 Y1.47482
X0.61660 Y1.47382
X0.61760 Y1.47382
X0.61760 Y1.47282
X0.61860 Y1.47282
X0.61860 Y1.47182
X0.62060 Y1.47182
X0.62060 Y1.47082
X0.62260 Y1.47082
X0.62260 Y1.46982
X0.62460 Y1.46982
X0.62460 Y1.46882
X0.62660 Y1.46882
X0.62660 Y1.46782
X0.62960 Y1.46782
X0.62960 Y1.46682
X0.64360 Y1.46682
X0.64360 Y1.46782
X0.64660 Y1.46782
X0.64660 Y1.46882
X0.64860 Y1.46882
X0.64860 Y1.46982
X0.65060 Y1.46982
X0.65060 Y1.47082
X0.65260 Y1.47082
X0.65260 Y1.47182
X0.65460 Y1.47182
X0.65460 Y1.47282
X0.65560 Y1.47282
X0.65560 Y1.47382
X0.65660 Y1.47382
X0.65660 Y1.47482
X0.65760 Y1.47482
X0.65760 Y1.47582
X0.65860 Y1.47582
X0.65860 Y1.47682
X0.65960 Y1.47682
X0.65960 Y1.47782
X0.66060 Y1.47782
X0.66060 Y1.47982
X0.66160 Y1.47982
X0.66160 Y1.48182
X0.66260 Y1.48182
X0.66260 Y1.48382
X0.66360 Y1.48382
X0.66360 Y1.48582
X0.66460 Y1.48582
X0.66460 Y1.48882
X0.66560 Y1.48882
X0.66560 Y1.50282
X0.66460 Y1.50282
X0.66460 Y1.50582
X0.66360 Y1.50582
X0.66360 Y1.50782
X0.66260 Y1.50782
X0.66260 Y1.50982
X0.66160 Y1.50982
X0.66160 Y1.51182
X0.66060 Y1.51182
X0.66060 Y1.51282
X0.65960 Y1.51282
X0.65960 Y1.51382
X0.65860 Y1.51382
X0.65860 Y1.51482
X0.65760 Y1.51482
X0.65760 Y1.51582
X0.65660 Y1.51582
X0.65660 Y1.51682
X0.65560 Y1.51682
X0.65560 Y1.51782
X0.65460 Y1.51782
X0.65460 Y1.51882
X0.65360 Y1.51882
X0.65360 Y1.51982
X0.65260 Y1.51982
X0.65260 Y1.52082
X0.65160 Y1.52082
X0.65160 Y1.52182
X0.65060 Y1.52182
X0.65060 Y1.52282
X0.64760 Y1.52282
X0.64760 Y1.52382
X0.64260 Y1.52382
X0.64260 Y1.52482
X0.63760 Y1.52482
X0.63760 Y1.52582
X0.63460 Y1.52582
X0.63460 Y1.52482
X0.63060 Y1.52482
X0.63060 Y1.52382
X0.62460 Y1.52382
X0.62460 Y1.52282
X0.62260 Y1.52282
X0.62260 Y1.52182
X0.62160 Y1.52182
X0.62160 Y1.52082
X0.62060 Y1.52082
X0.62060 Y1.51982
X0.61860 Y1.51982
X0.61860 Y1.51882
X0.61760 Y1.51882
X0.61760 Y1.51782
X0.61660 Y1.51782
X0.61660 Y1.51682
X0.61560 Y1.51682
X0.61560 Y1.51582
G04 P0 ( dwell for no time -- G64 should not smooth over this point )
G00 Z0.19685 ( retract )

G00 X0.34160 Y1.38582 ( rapid move to begin. )
G01 Z-0.01969 F1.96850 ( plunge. )
G04 P0 ( dwell for no time -- G64 should not smooth over this point )
X0.34160 Y1.38582
X0.34060 Y1.38582
X0.34060 Y1.38482
X0.33960 Y1.38482
X0.33960 Y1.38382
X0.33860 Y1.38382
X0.33860 Y1.38282
X0.33760 Y1.38282
X0.33760 Y1.38182
X0.33660 Y1.38182
X0.33660 Y1.38082
X0.33560 Y1.38082
X0.33560 Y1.37982
X0.33460 Y1.37982
X0.33460 Y1.37882
X0.33360 Y1.37882
X0.33360 Y1.37682
X0.33260 Y1.37682
X0.33260 Y1.37482
X0.33160 Y1.37482
X0.33160 Y1.37182
X0.33060 Y1.37182
X0.33060 Y1.36082
X0.33160 Y1.36082
X0.33160 Y1.35782
X0.33260 Y1.35782
X0.33260 Y1.35582
X0.33360 Y1.35582
X0.33360 Y1.35382
X0.33460 Y1.35382
X0.33460 Y1.35182
X0.33560 Y1.35182
X0.33560 Y1.34982
X0.33660 Y1.34982
X0.33660 Y1.34882
X0.33760 Y1.34882
X0.33760 Y1.34782
X0.33960 Y1.34782
X0.33960 Y1.34682
X0.34060 Y1.34682
X0.34060 Y1.34582
X0.34260 Y1.34582
X0.34260 Y1.34482
X0.34360 Y1.34482
X0.34360 Y1.34382
X0.34460 Y1.34382
X0.34460 Y1.34282
X0.34660 Y1.34282
X0.34660 Y1.34182
X0.35060 Y1.34182
X0.35060 Y1.34082
X0.36160 Y1.34082
X0.36160 Y1.34182
X0.36560 Y1.34182
X0.36560 Y1.34282
X0.36760 Y1.34282
X0.36760 Y1.34182
X0.36860 Y1.34182
X0.36860 Y1.34082
X0.36960 Y1.34082
X0.36960 Y1.33982
X0.37060 Y1.33982
X0.37060 Y1.33882
X0.37160 Y1.33882
X0.37160 Y1.33782
X0.37260 Y1.33782
X0.37260 Y1.33682
X0.37360 Y1.33682
X0.37360 Y1.33582
X0.37460 Y1.33582
X0.37460 Y1.33482
X0.37560 Y1.33482
X0.37560 Y1.33382
X0.37660 Y1.33382
X0.37660 Y1.33282
X0.37760 Y1.33282
X0.37760 Y1.33182
X0.37860 Y1.33182
X0.37860 Y1.33082
X0.37960 Y1.33082
X0.37960 Y1.32982
X0.38060 Y1.32982
X0.38060 Y1.32882
X0.38160 Y1.32882
X0.38160 Y1.32782
X0.38260 Y1.32782
X0.38260 Y1.32682
X0.38360 Y1.32682
X0.38360 Y1.32582
X0.38460 Y1.32582
X0.38460 Y1.32482
X0.38560 Y1.32482
X0.38560 Y1.32382
X0.38660 Y1.32382
X0.38660 Y1.32282
X0.38760 Y1.32282
X0.38760 Y1.32182
X0.39060 Y1.32182
X0.39060 Y1.32082
X0.52660 Y1.32082
X0.52660 Y1.31982
X0.52760 Y1.31982
X0.52760 Y1.31882
X0.52860 Y1.31882
X0.52860 Y1.31682
X0.52760 Y1.31682
X0.52760 Y1.31482
X0.52660 Y1.31482
X0.52660 Y1.31082
X0.52560 Y1.31082
X0.52560 Y1.29882
X0.52660 Y1.29882
X0.52660 Y1.29482
X0.52760 Y1.29482
X0.52760 Y1.29282
X0.52860 Y1.29282
X0.52860 Y1.29082
X0.52960 Y1.29082
X0.52960 Y1.28982
X0.53060 Y1.28982
X0.53060 Y1.28882
X0.53160 Y1.28882
X0.53160 Y1.28682
X0.53260 Y1.28682
X0.53260 Y1.28582
X0.53360 Y1.28582
X0.53360 Y1.28482
X0.53460 Y1.28482
X0.53460 Y1.28282
X0.53560 Y1.28282
X0.53560 Y1.28182
X0.53660 Y1.28182
X0.53660 Y1.28082
X0.53860 Y1.28082
X0.53860 Y1.27982
X0.54060 Y1.27982
X0.54060 Y1.27882
X0.54260 Y1.27882
X0.54260 Y1.27782
X0.54560 Y1.27782
X0.54560 Y1.27682
X0.54860 Y1.27682
X0.54860 Y1.27582
X0.55260 Y1.27582
X0.55260 Y1.27482
X0.55760 Y1.27482
X0.55760 Y1.27582
X0.56160 Y1.27582
X0.56160 Y1.27682
X0.56460 Y1.27682
X0.56460 Y1.27782
X0.56760 Y1.27782
X0.56760 Y1.27882
X0.56960 Y1.27882
X0.56960 Y1.27982
X0.57160 Y1.27982
X0.57160 Y1.28082
X0.57360 Y1.28082
X0.57360 Y1.28182
X0.57460 Y1.28182
X0.57460 Y1.28282
X0.57560 Y1.28282
X0.57560 Y1.28482
X0.57660 Y1.28482
X0.57660 Y1.28582
X0.57760 Y1.28582
X0.57760 Y1.28682
X0.57860 Y1.28682
X0.57860 Y1.28882
X0.57960 Y1.28882
X0.57960 Y1.28982
X0.58060 Y1.28982
X0.58060 Y1.29082
X0.58160 Y1.29082
X0.58160 Y1.29282
X0.58260 Y1.29282
X0.58260 Y1.29482
X0.58360 Y1.29482
X0.58360 Y1.29782
X0.58460 Y1.29782
X0.58460 Y1.31182
X0.58360 Y1.31182
X0.58360 Y1.31482
X0.58260 Y1.31482
X0.58260 Y1.31682
X0.58160 Y1.31682
X0.58160 Y1.31882
X0.58060 Y1.31882
X0.58060 Y1.31982
X0.57960 Y1.31982
X0.57960 Y1.32082
X0.57860 Y1.32082
X0.57860 Y1.32282
X0.57760 Y1.32282
X0.57760 Y1.32382
X0.57660 Y1.32382
X0.57660 Y1.32482
X0.57560 Y1.32482
X0.57560 Y1.32582
X0.57460 Y1.32582
X0.57460 Y1.32682
X0.57360 Y1.32682
X0.57360 Y1.32782
X0.57260 Y1.32782
X0.57260 Y1.32882
X0.57160 Y1.32882
X0.57160 Y1.32982
X0.56960 Y1.32982
X0.56960 Y1.33082
X0.56760 Y1.33082
X0.56760 Y1.33182
X0.56460 Y1.33182
X0.56460 Y1.33282
X0.56160 Y1.33282
X0.56160 Y1.33382
X0.54860 Y1.33382
X0.54860 Y1.33282
X0.54560 Y1.33282
X0.54560 Y1.33182
X0.54260 Y1.33182
X0.54260 Y1.33082
X0.54060 Y1.33082
X0.54060 Y1.33182
X0.53960 Y1.33182
X0.53960 Y1.33282
X0.53860 Y1.33282
X0.53860 Y1.33382
X0.53760 Y1.33382
X0.53760 Y1.33482
X0.53660 Y1.33482
X0.53660 Y1.33582
X0.53460 Y1.33582
X0.53460 Y1.33682
X0.53260 Y1.33682
X0.53260 Y1.33782
X0.39560 Y1.33782
X0.39560 Y1.33882
X0.39460 Y1.33882
X0.39460 Y1.33982
X0.39360 Y1.33982
X0.39360 Y1.34082
X0.39260 Y1.34082
X0.39260 Y1.34182
X0.39160 Y1.34182
X0.39160 Y1.34282
X0.39060 Y1.34282
X0.39060 Y1.34382
X0.38960 Y1.34382
X0.38960 Y1.34482
X0.38860 Y1.34482
X0.38860 Y1.34582
X0.38760 Y1.34582
X0.38760 Y1.34682
X0.38660 Y1.34682
X0.38660 Y1.34782
X0.38560 Y1.34782
X0.38560 Y1.34882
X0.38460 Y1.34882
X0.38460 Y1.34982
X0.38360 Y1.34982
X0.38360 Y1.35082
X0.38260 Y1.35082
X0.38260 Y1.35182
X0.38160 Y1.35182
X0.38160 Y1.35282
X0.38060 Y1.35282
X0.38060 Y1.35382
X0.37960 Y1.35382
X0.37960 Y1.35682
X0.38060 Y1.35682
X0.38060 Y1.36082
X0.38160 Y1.36082
X0.38160 Y1.37182
X0.38060 Y1.37182
X0.38060 Y1.37482
X0.37960 Y1.37482
X0.37960 Y1.37682
X0.37860 Y1.37682
X0.37860 Y1.37882
X0.37760 Y1.37882
X0.37760 Y1.37982
X0.37660 Y1.37982
X0.37660 Y1.38182
X0.37560 Y1.38182
X0.37560 Y1.38282
X0.37460 Y1.38282
X0.37460 Y1.38382
X0.37360 Y1.38382
X0.37360 Y1.38482
X0.37260 Y1.38482
X0.37260 Y1.38582
X0.37160 Y1.38582
X0.37160 Y1.38682
X0.37060 Y1.38682
X0.37060 Y1.38782
X0.36860 Y1.38782
X0.36860 Y1.38882
X0.36560 Y1.38882
X0.36560 Y1.38982
X0.36160 Y1.38982
X0.36160 Y1.39082
X0.35760 Y1.39082
X0.35760 Y1.39182
X0.35460 Y1.39182
X0.35460 Y1.39082
X0.35060 Y1.39082
X0.35060 Y1.38982
X0.34660 Y1.38982
X0.34660 Y1.38882
X0.34460 Y1.38882
X0.34460 Y1.38782
X0.34260 Y1.38782
X0.34260 Y1.38682
X0.34160 Y1.38682
X0.34160 Y1.38582
G04 P0 ( dwell for no time -- G64 should not smooth over this point )
G00 Z0.19685 ( retract )

G00 X0.81660 Y1.37082 ( rapid move to begin. )
G01 Z-0.01969 F1.96850 ( plunge. )
G04 P0 ( dwell for no time -- G64 should not smooth over this point )
X0.81660 Y1.37082
X0.81560 Y1.37082
X0.81560 Y1.36982
X0.81460 Y1.36982
X0.81460 Y1.36882
X0.81360 Y1.36882
X0.81360 Y1.36782
X0.81260 Y1.36782
X0.81260 Y1.36682
X0.81160 Y1.36682
X0.81160 Y1.36582
X0.81060 Y1.36582
X0.81060 Y1.36482
X0.80960 Y1.36482
X0.80960 Y1.36382
X0.80860 Y1.36382
X0.80860 Y1.36182
X0.80760 Y1.36182
X0.80760 Y1.35982
X0.80660 Y1.35982
X0.80660 Y1.35682
X0.80560 Y1.35682
X0.80560 Y1.34582
X0.80660 Y1.34582
X0.80660 Y1.34282
X0.80760 Y1.34282
X0.80760 Y1.34082
X0.80860 Y1.34082
X0.80860 Y1.33882
X0.80960 Y1.33882
X0.80960 Y1.33682
X0.81060 Y1.33682
X0.81060 Y1.33482
X0.81160 Y1.33482
X0.81160 Y1.33382
X0.81260 Y1.33382
X0.81260 Y1.33282
X0.81460 Y1.33282
X0.81460 Y1.33182
X0.81560 Y1.33182
X0.81560 Y1.33082
X0.81660 Y1.33082
X0.81660 Y1.32982
X0.81760 Y1.32982
X0.81760 Y1.32882
X0.81860 Y1.32882
X0.81860 Y1.32782
X0.82060 Y1.32782
X0.82060 Y1.32682
X0.82260 Y1.32682
X0.82260 Y1.29282
X0.82360 Y1.29282
X0.82360 Y1.29082
X0.82460 Y1.29082
X0.82460 Y1.28882
X0.82560 Y1.28882
X0.82560 Y1.28782
X0.82660 Y1.28782
X0.82660 Y1.28682
X0.82760 Y1.28682
X0.82760 Y1.28582
X0.82860 Y1.28582
X0.82860 Y1.28482
X0.82960 Y1.28482
X0.82960 Y1.28382
X0.83060 Y1.28382
X0.83060 Y1.28282
X0.83160 Y1.28282
X0.83160 Y1.28182
X0.83260 Y1.28182
X0.83260 Y1.28082
X0.83360 Y1.28082
X0.83360 Y1.27982
X0.83460 Y1.27982
X0.83460 Y1.27882
X0.83560 Y1.27882
X0.83560 Y1.27782
X0.83660 Y1.27782
X0.83660 Y1.27682
X0.83760 Y1.27682
X0.83760 Y1.27582
X0.83860 Y1.27582
X0.83860 Y1.27482
X0.83960 Y1.27482
X0.83960 Y1.27382
X0.84060 Y1.27382
X0.84060 Y1.27282
X0.84160 Y1.27282
X0.84160 Y1.27182
X0.84260 Y1.27182
X0.84260 Y1.27082
X0.84360 Y1.27082
X0.84360 Y1.26982
X0.84460 Y1.26982
X0.84460 Y1.26882
X0.84560 Y1.26882
X0.84560 Y1.26782
X0.84660 Y1.26782
X0.84660 Y1.26682
X0.84760 Y1.26682
X0.84760 Y1.26582
X0.84860 Y1.26582
X0.84860 Y1.26482
X0.84960 Y1.26482
X0.84960 Y1.26382
X0.85060 Y1.26382
X0.85060 Y1.26282
X0.85160 Y1.26282
X0.85160 Y1.26182
X0.85260 Y1.26182
X0.85260 Y1.26082
X0.85360 Y1.26082
X0.85360 Y1.25982
X0.85460 Y1.25982
X0.85460 Y1.25882
X0.85560 Y1.25882
X0.85560 Y1.25782
X0.85660 Y1.25782
X0.85660 Y1.25682
X0.85760 Y1.25682
X0.85760 Y1.25582
X0.85860 Y1.25582
X0.85860 Y1.25482
X0.85960 Y1.25482
X0.85960 Y1.25382
X0.86060 Y1.25382
X0.86060 Y1.25282
X0.86160 Y1.25282
X0.86160 Y1.25182
X0.86260 Y1.25182
X0.86260 Y1.25082
X0.86360 Y1.25082
X0.86360 Y1.24982
X0.86460 Y1.24982
X0.86460 Y1.24882
X0.86560 Y1.24882
X0.86560 Y1.24782
X0.86660 Y1.24782
X0.86660 Y1.24682
X0.86760 Y1.24682
X0.86760 Y1.24582
X0.86860 Y1.24582
X0.86860 Y1.24482
X0.86960 Y1.24482
X0.86960 Y1.24382
X0.87060 Y1.24382
X0.87060 Y1.24282
X0.87160 Y1.24282
X0.87160 Y1.24182
X0.87260 Y1.24182
X0.87260 Y1.24082
X0.87360 Y1.24082
X0.87360 Y1.23982
X0.87460 Y1.23982
X0.87460 Y1.23882
X0.87560 Y1.23882
X0.87560 Y1.23782
X0.87660 Y1.23782
X0.87660 Y1.23682
X0.87760 Y1.23682
X0.87760 Y1.23582
X0.87960 Y1.23582
X0.87960 Y1.23482
X0.88060 Y1.23482
X0.88060 Y1.23382
X0.88160 Y1.23382
X0.88160 Y1.23282
X0.88260 Y1.23282
X0.88260 Y1.23182
X0.88360 Y1.23182
X0.88360 Y1.23082
X0.88460 Y1.23082
X0.88460 Y1.22982
X0.88560 Y1.22982
X0.88560 Y1.22882
X0.88660 Y1.22882
X0.88660 Y1.22782
X0.88760 Y1.22782
X0.88760 Y1.22682
X0.88860 Y1.22682
X0.88860 Y1.22582
X0.88960 Y1.22582
X0.88960 Y1.22482
X0.89060 Y1.22482
X0.89060 Y1.22382
X0.89160 Y1.22382
X0.89160 Y1.22282
X0.89260 Y1.22282
X0.89260 Y1.22182
X0.89360 Y1.22182
X0.89360 Y1.22082
X0.89460 Y1.22082
X0.89460 Y1.21982
X0.89560 Y1.21982
X0.89560 Y1.21782
X0.89460 Y1.21782
X0.89460 Y1.21582
X0.89360 Y1.21582
X0.89360 Y1.21282
X0.89260 Y1.21282
X0.89260 Y1.20982
X0.89160 Y1.20982
X0.89160 Y1.19982
X0.89260 Y1.19982
X0.89260 Y1.19682
X0.89360 Y1.19682
X0.89360 Y1.19382
X0.89460 Y1.19382
X0.89460 Y1.19082
X0.89560 Y1.19082
X0.89560 Y1.18982
X0.89660 Y1.18982
X0.89660 Y1.18882
X0.89760 Y1.18882
X0.89760 Y1.18682
X0.89860 Y1.18682
X0.89860 Y1.18582
X0.89960 Y1.18582
X0.89960 Y1.18482
X0.90060 Y1.18482
X0.90060 Y1.18382
X0.90160 Y1.18382
X0.90160 Y1.18282
X0.90260 Y1.18282
X0.90260 Y1.18182
X0.90360 Y1.18182
X0.90360 Y1.18082
X0.90560 Y1.18082
X0.90560 Y1.17982
X0.90760 Y1.17982
X0.90760 Y1.17882
X0.90960 Y1.17882
X0.90960 Y1.17782
X0.91160 Y1.17782
X0.91160 Y1.17682
X0.91460 Y1.17682
X0.91460 Y1.17582
X0.92860 Y1.17582
X0.92860 Y1.17682
X0.93160 Y1.17682
X0.93160 Y1.17782
X0.93360 Y1.17782
X0.93360 Y1.17882
X0.93560 Y1.17882
X0.93560 Y1.17982
X0.93760 Y1.17982
X0.93760 Y1.18082
X0.93960 Y1.18082
X0.93960 Y1.18182
X0.94060 Y1.18182
X0.94060 Y1.18282
X0.94160 Y1.18282
X0.94160 Y1.18382
X0.94260 Y1.18382
X0.94260 Y1.18482
X0.94360 Y1.18482
X0.94360 Y1.18582
X0.94460 Y1.18582
X0.94460 Y1.18682
X0.94560 Y1.18682
X0.94560 Y1.18882
X0.94660 Y1.18882
X0.94660 Y1.19082
X0.94760 Y1.19082
X0.94760 Y1.19282
X0.94860 Y1.19282
X0.94860 Y1.19482
X0.94960 Y1.19482
X0.94960 Y1.19782
X0.95060 Y1.19782
X0.95060 Y1.21182
X0.94960 Y1.21182
X0.94960 Y1.21482
X0.94860 Y1.21482
X0.94860 Y1.21682
X0.94760 Y1.21682
X0.94760 Y1.21882
X0.94660 Y1.21882
X0.94660 Y1.22082
X0.94560 Y1.22082
X0.94560 Y1.22182
X0.94460 Y1.22182
X0.94460 Y1.22282
X0.94360 Y1.22282
X0.94360 Y1.22382
X0.94260 Y1.22382
X0.94260 Y1.22482
X0.94160 Y1.22482
X0.94160 Y1.22582
X0.94060 Y1.22582
X0.94060 Y1.22682
X0.93960 Y1.22682
X0.93960 Y1.22782
X0.93860 Y1.22782
X0.93860 Y1.22882
X0.93760 Y1.22882
X0.93760 Y1.22982
X0.93660 Y1.22982
X0.93660 Y1.23082
X0.93560 Y1.23082
X0.93560 Y1.23182
X0.93260 Y1.23182
X0.93260 Y1.23282
X0.92760 Y1.23282
X0.92760 Y1.23382
X0.92260 Y1.23382
X0.92260 Y1.23482
X0.91960 Y1.23482
X0.91960 Y1.23382
X0.91560 Y1.23382
X0.91560 Y1.23282
X0.91060 Y1.23282
X0.91060 Y1.23182
X0.90860 Y1.23182
X0.90860 Y1.23082
X0.90560 Y1.23082
X0.90560 Y1.23182
X0.90460 Y1.23182
X0.90460 Y1.23282
X0.90360 Y1.23282
X0.90360 Y1.23382
X0.90260 Y1.23382
X0.90260 Y1.23482
X0.90160 Y1.23482
X0.90160 Y1.23582
X0.90060 Y1.23582
X0.90060 Y1.23682
X0.89960 Y1.23682
X0.89960 Y1.23782
X0.89860 Y1.23782
X0.89860 Y1.23882
X0.89760 Y1.23882
X0.89760 Y1.23982
X0.89660 Y1.23982
X0.89660 Y1.24082
X0.89560 Y1.24082
X0.89560 Y1.24182
X0.89460 Y1.24182
X0.89460 Y1.24282
X0.89360 Y1.24282
X0.89360 Y1.24382
X0.89260 Y1.24382
X0.89260 Y1.24482
X0.89160 Y1.24482
X0.89160 Y1.24582
X0.89060 Y1.24582
X0.89060 Y1.24682
X0.88960 Y1.24682
X0.88960 Y1.24782
X0.88860 Y1.24782
X0.88860 Y1.24882
X0.88760 Y1.24882
X0.88760 Y1.24982
X0.88660 Y1.24982
X0.88660 Y1.25082
X0.88560 Y1.25082
X0.88560 Y1.25182
X0.88460 Y1.25182
X0.88460 Y1.25282
X0.88360 Y1.25282
X0.88360 Y1.25382
X0.88260 Y1.25382
X0.88260 Y1.25482
X0.88160 Y1.25482
X0.88160 Y1.25582
X0.88060 Y1.25582
X0.88060 Y1.25682
X0.87960 Y1.25682
X0.87960 Y1.25782
X0.87860 Y1.25782
X0.87860 Y1.25882
X0.87760 Y1.25882
X0.87760 Y1.25982
X0.87660 Y1.25982
X0.87660 Y1.26082
X0.87560 Y1.26082
X0.87560 Y1.26182
X0.87460 Y1.26182
X0.87460 Y1.26282
X0.87360 Y1.26282
X0.87360 Y1.26382
X0.87260 Y1.26382
X0.87260 Y1.26482
X0.87160 Y1.26482
X0.87160 Y1.26582
X0.87060 Y1.26582
X0.87060 Y1.26682
X0.86960 Y1.26682
X0.86960 Y1.26782
X0.86860 Y1.26782
X0.86860 Y1.26882
X0.86760 Y1.26882
X0.86760 Y1.26982
X0.86660 Y1.26982
X0.86660 Y1.27082
X0.86560 Y1.27082
X0.86560 Y1.27182
X0.86460 Y1.27182
X0.86460 Y1.27282
X0.86360 Y1.27282
X0.86360 Y1.27382
X0.86260 Y1.27382
X0.86260 Y1.27482
X0.86160 Y1.27482
X0.86160 Y1.27582
X0.86060 Y1.27582
X0.86060 Y1.27682
X0.85960 Y1.27682
X0.85960 Y1.27782
X0.85860 Y1.27782
X0.85860 Y1.27882
X0.85760 Y1.27882
X0.85760 Y1.27982
X0.85660 Y1.27982
X0.85660 Y1.28082
X0.85560 Y1.28082
X0.85560 Y1.28182
X0.85460 Y1.28182
X0.85460 Y1.28282
X0.85360 Y1.28282
X0.85360 Y1.28382
X0.85260 Y1.28382
X0.85260 Y1.28482
X0.85160 Y1.28482
X0.85160 Y1.28582
X0.85060 Y1.28582
X0.85060 Y1.28682
X0.84960 Y1.28682
X0.84960 Y1.28782
X0.84860 Y1.28782
X0.84860 Y1.28882
X0.84760 Y1.28882
X0.84760 Y1.28982
X0.84660 Y1.28982
X0.84660 Y1.29082
X0.84560 Y1.29082
X0.84560 Y1.29182
X0.84460 Y1.29182
X0.84460 Y1.29282
X0.84360 Y1.29282
X0.84360 Y1.29382
X0.84260 Y1.29382
X0.84260 Y1.29482
X0.84160 Y1.29482
X0.84160 Y1.29582
X0.84060 Y1.29582
X0.84060 Y1.29682
X0.83960 Y1.29682
X0.83960 Y1.32682
X0.84160 Y1.32682
X0.84160 Y1.32782
X0.84360 Y1.32782
X0.84360 Y1.32882
X0.84460 Y1.32882
X0.84460 Y1.32982
X0.84560 Y1.32982
X0.84560 Y1.33082
X0.84760 Y1.33082
X0.84760 Y1.33182
X0.84860 Y1.33182
X0.84860 Y1.33282
X0.84960 Y1.33282
X0.84960 Y1.33382
X0.85060 Y1.33382
X0.85060 Y1.33482
X0.85160 Y1.33482
X0.85160 Y1.33682
X0.85260 Y1.33682
X0.85260 Y1.33882
X0.85360 Y1.33882
X0.85360 Y1.34082
X0.85460 Y1.34082
X0.85460 Y1.34282
X0.85560 Y1.34282
X0.85560 Y1.34582
X0.85660 Y1.34582
X0.85660 Y1.35682
X0.85560 Y1.35682
X0.85560 Y1.35982
X0.85460 Y1.35982
X0.85460 Y1.36182
X0.85360 Y1.36182
X0.85360 Y1.36382
X0.85260 Y1.36382
X0.85260 Y1.36482
X0.85160 Y1.36482
X0.85160 Y1.36682
X0.85060 Y1.36682
X0.85060 Y1.36782
X0.84960 Y1.36782
X0.84960 Y1.36882
X0.84860 Y1.36882
X0.84860 Y1.36982
X0.84760 Y1.36982
X0.84760 Y1.37082
X0.84660 Y1.37082
X0.84660 Y1.37182
X0.84560 Y1.37182
X0.84560 Y1.37282
X0.84360 Y1.37282
X0.84360 Y1.37382
X0.84060 Y1.37382
X0.84060 Y1.37482
X0.83660 Y1.37482
X0.83660 Y1.37582
X0.83260 Y1.37582
X0.83260 Y1.37682
X0.82960 Y1.37682
X0.82960 Y1.37582
X0.82560 Y1.37582
X0.82560 Y1.37482
X0.82160 Y1.37482
X0.82160 Y1.37382
X0.81860 Y1.37382
X0.81860 Y1.37282
X0.81760 Y1.37282
X0.81760 Y1.37182
X0.81660 Y1.37182
X0.81660 Y1.37082
G04 P0 ( dwell for no time -- G64 should not smooth over this point )
G00 Z0.19685 ( retract )

G00 X0.26360 Y1.35882 ( rapid move to begin. )
G01 Z-0.01969 F1.96850 ( plunge. )
G04 P0 ( dwell for no time -- G64 should not smooth over this point )
X0.26360 Y1.35882
X0.26260 Y1.35882
X0.26260 Y1.35782
X0.26160 Y1.35782
X0.26160 Y1.35582
X0.26060 Y1.35582
X0.26060 Y1.35482
X0.25960 Y1.35482
X0.25960 Y1.35382
X0.25860 Y1.35382
X0.25860 Y1.35182
X0.25760 Y1.35182
X0.25760 Y1.34982
X0.25660 Y1.34982
X0.25660 Y1.34582
X0.25560 Y1.34582
X0.25560 Y1.33282
X0.25460 Y1.33282
X0.25460 Y1.33182
X0.25360 Y1.33182
X0.25360 Y1.33082
X0.25260 Y1.33082
X0.25260 Y1.32982
X0.25060 Y1.32982
X0.25060 Y1.32882
X0.24960 Y1.32882
X0.24960 Y1.32682
X0.24860 Y1.32682
X0.24860 Y1.32582
X0.24760 Y1.32582
X0.24760 Y1.32482
X0.24660 Y1.32482
X0.24660 Y1.32182
X0.24560 Y1.32182
X0.24560 Y1.31882
X0.24460 Y1.31882
X0.24460 Y1.10282
X0.24560 Y1.10282
X0.24560 Y1.09982
X0.24660 Y1.09982
X0.24660 Y1.09782
X0.24760 Y1.09782
X0.24760 Y1.09482
X0.24860 Y1.09482
X0.24860 Y1.09382
X0.24960 Y1.09382
X0.24960 Y1.09282
X0.25060 Y1.09282
X0.25060 Y1.09182
X0.25160 Y1.09182
X0.25160 Y1.09082
X0.25260 Y1.09082
X0.25260 Y1.08982
X0.25360 Y1.08982
X0.25360 Y1.08882
X0.25460 Y1.08882
X0.25460 Y1.08782
X0.25560 Y1.08782
X0.25560 Y1.08682
X0.25660 Y1.08682
X0.25660 Y1.08582
X0.25760 Y1.08582
X0.25760 Y1.08482
X0.25860 Y1.08482
X0.25860 Y1.08382
X0.25960 Y1.08382
X0.25960 Y1.08282
X0.26060 Y1.08282
X0.26060 Y1.08182
X0.26160 Y1.08182
X0.26160 Y1.08082
X0.26260 Y1.08082
X0.26260 Y1.07982
X0.26360 Y1.07982
X0.26360 Y1.07882
X0.26460 Y1.07882
X0.26460 Y1.07782
X0.26560 Y1.07782
X0.26560 Y1.07682
X0.26660 Y1.07682
X0.26660 Y1.07582
X0.26760 Y1.07582
X0.26760 Y1.07482
X0.26860 Y1.07482
X0.26860 Y1.07382
X0.26960 Y1.07382
X0.26960 Y1.07282
X0.27060 Y1.07282
X0.27060 Y1.07182
X0.27160 Y1.07182
X0.27160 Y1.07082
X0.27260 Y1.07082
X0.27260 Y1.06982
X0.27360 Y1.06982
X0.27360 Y1.06882
X0.27460 Y1.06882
X0.27460 Y1.06782
X0.27560 Y1.06782
X0.27560 Y1.06682
X0.27660 Y1.06682
X0.27660 Y1.06582
X0.27760 Y1.06582
X0.27760 Y1.06482
X0.27860 Y1.06482
X0.27860 Y1.06382
X0.27960 Y1.06382
X0.27960 Y1.06282
X0.28060 Y1.06282
X0.28060 Y1.06182
X0.28160 Y1.06182
X0.28160 Y1.06082
X0.28260 Y1.06082
X0.28260 Y1.05982
X0.28360 Y1.05982
X0.28360 Y1.05882
X0.28460 Y1.05882
X0.28460 Y1.05782
X0.28560 Y1.05782
X0.28560 Y1.05682
X0.28660 Y1.05682
X0.28660 Y1.05582
X0.28760 Y1.05582
X0.28760 Y1.05482
X0.28860 Y1.05482
X0.28860 Y1.05382
X0.28960 Y1.05382
X0.28960 Y1.05282
X0.29060 Y1.05282
X0.29060 Y1.05182
X0.29160 Y1.05182
X0.29160 Y1.05082
X0.29260 Y1.05082
X0.29260 Y1.04982
X0.29360 Y1.04982
X0.29360 Y1.04882
X0.29460 Y1.04882
X0.29460 Y1.04782
X0.29560 Y1.04782
X0.29560 Y1.04682
X0.29660 Y1.04682
X0.29660 Y1.04582
X0.29760 Y1.04582
X0.29760 Y1.04482
X0.29860 Y1.04482
X0.29860 Y1.04382
X0.29960 Y1.04382
X0.29960 Y1.04282
X0.30060 Y1.04282
X0.30060 Y1.04182
X0.30160 Y1.04182
X0.30160 Y1.04082
X0.30260 Y1.04082
X0.30260 Y1.03982
X0.30360 Y1.03982
X0.30360 Y1.03882
X0.30460 Y1.03882
X0.30460 Y0.76982
X0.30360 Y0.76982
X0.30360 Y0.76882
X0.30260 Y0.76882
X0.30260 Y0.76782
X0.30160 Y0.76782
X0.30160 Y0.76682
X0.30060 Y0.76682
X0.30060 Y0.76582
X0.29960 Y0.76582
X0.29960 Y0.76482
X0.29860 Y0.76482
X0.29860 Y0.76382
X0.29760 Y0.76382
X0.29760 Y0.76182
X0.29660 Y0.76182
X0.29660 Y0.76082
X0.29560 Y0.76082
X0.29560 Y0.75982
X0.29460 Y0.75982
X0.29460 Y0.75682
X0.29360 Y0.75682
X0.29360 Y0.75382
X0.29260 Y0.75382
X0.29260 Y0.75082
X0.29160 Y0.75082
X0.29160 Y0.74082
X0.29260 Y0.74082
X0.29260 Y0.73782
X0.29360 Y0.73782
X0.29360 Y0.73482
X0.29460 Y0.73482
X0.29460 Y0.73182
X0.29560 Y0.73182
X0.29560 Y0.73082
X0.29660 Y0.73082
X0.29660 Y0.72982
X0.29760 Y0.72982
X0.29760 Y0.72782
X0.29860 Y0.72782
X0.29860 Y0.72682
X0.29960 Y0.72682
X0.29960 Y0.72582
X0.30060 Y0.72582
X0.30060 Y0.72382
X0.30360 Y0.72382
X0.30360 Y0.72282
X0.30760 Y0.72282
X0.30760 Y0.72182
X0.33460 Y0.72182
X0.33460 Y0.72282
X0.33860 Y0.72282
X0.33860 Y0.72382
X0.34160 Y0.72382
X0.34160 Y0.72482
X0.34260 Y0.72482
X0.34260 Y0.72582
X0.34360 Y0.72582
X0.34360 Y0.72682
X0.34460 Y0.72682
X0.34460 Y0.72782
X0.34560 Y0.72782
X0.34560 Y0.72982
X0.34660 Y0.72982
X0.34660 Y0.73182
X0.34760 Y0.73182
X0.34760 Y0.73382
X0.34860 Y0.73382
X0.34860 Y0.73582
X0.34960 Y0.73582
X0.34960 Y0.73882
X0.35060 Y0.73882
X0.35060 Y0.75282
X0.34960 Y0.75282
X0.34960 Y0.75582
X0.34860 Y0.75582
X0.34860 Y0.75782
X0.34760 Y0.75782
X0.34760 Y0.75982
X0.34660 Y0.75982
X0.34660 Y0.76182
X0.34560 Y0.76182
X0.34560 Y0.76282
X0.34460 Y0.76282
X0.34460 Y0.76382
X0.34360 Y0.76382
X0.34360 Y0.76482
X0.34260 Y0.76482
X0.34260 Y0.76582
X0.34160 Y0.76582
X0.34160 Y0.76682
X0.34060 Y0.76682
X0.34060 Y0.76782
X0.33960 Y0.76782
X0.33960 Y0.76882
X0.33860 Y0.76882
X0.33860 Y0.99982
X0.33660 Y0.99982
X0.33660 Y1.00382
X0.33560 Y1.00382
X0.33560 Y1.01182
X0.33460 Y1.01182
X0.33460 Y1.03082
X0.33560 Y1.03082
X0.33560 Y1.03882
X0.33660 Y1.03882
X0.33660 Y1.04182
X0.33860 Y1.04182
X0.33860 Y1.04982
X0.33760 Y1.04982
X0.33760 Y1.05282
X0.33660 Y1.05282
X0.33660 Y1.05382
X0.33560 Y1.05382
X0.33560 Y1.05482
X0.33460 Y1.05482
X0.33460 Y1.05682
X0.33360 Y1.05682
X0.33360 Y1.05782
X0.33260 Y1.05782
X0.33260 Y1.05882
X0.33160 Y1.05882
X0.33160 Y1.05982
X0.33060 Y1.05982
X0.33060 Y1.06082
X0.32960 Y1.06082
X0.32960 Y1.06182
X0.32860 Y1.06182
X0.32860 Y1.06282
X0.32760 Y1.06282
X0.32760 Y1.06382
X0.32660 Y1.06382
X0.32660 Y1.06482
X0.32560 Y1.06482
X0.32560 Y1.06582
X0.32460 Y1.06582
X0.32460 Y1.06682
X0.32360 Y1.06682
X0.32360 Y1.06782
X0.32260 Y1.06782
X0.32260 Y1.06882
X0.32160 Y1.06882
X0.32160 Y1.06982
X0.32060 Y1.06982
X0.32060 Y1.07082
X0.31960 Y1.07082
X0.31960 Y1.07182
X0.31860 Y1.07182
X0.31860 Y1.07282
X0.31760 Y1.07282
X0.31760 Y1.07382
X0.31660 Y1.07382
X0.31660 Y1.07482
X0.31560 Y1.07482
X0.31560 Y1.07582
X0.31460 Y1.07582
X0.31460 Y1.07682
X0.31360 Y1.07682
X0.31360 Y1.07782
X0.31260 Y1.07782
X0.31260 Y1.07882
X0.31160 Y1.07882
X0.31160 Y1.07982
X0.31060 Y1.07982
X0.31060 Y1.08082
X0.30960 Y1.08082
X0.30960 Y1.08182
X0.30860 Y1.08182
X0.30860 Y1.08282
X0.30760 Y1.08282
X0.30760 Y1.08382
X0.30660 Y1.08382
X0.30660 Y1.08482
X0.30560 Y1.08482
X0.30560 Y1.08582
X0.30460 Y1.08582
X0.30460 Y1.08682
X0.30360 Y1.08682
X0.30360 Y1.08782
X0.30260 Y1.08782
X0.30260 Y1.08882
X0.30160 Y1.08882
X0.30160 Y1.08982
X0.30060 Y1.08982
X0.30060 Y1.09082
X0.29960 Y1.09082
X0.29960 Y1.09182
X0.29860 Y1.09182
X0.29860 Y1.09282
X0.29760 Y1.09282
X0.29760 Y1.09382
X0.29660 Y1.09382
X0.29660 Y1.09482
X0.29560 Y1.09482
X0.29560 Y1.09582
X0.29460 Y1.09582
X0.29460 Y1.09682
X0.29360 Y1.09682
X0.29360 Y1.09782
X0.29260 Y1.09782
X0.29260 Y1.09882
X0.29160 Y1.09882
X0.29160 Y1.09982
X0.29060 Y1.09982
X0.29060 Y1.10082
X0.28960 Y1.10082
X0.28960 Y1.10182
X0.28860 Y1.10182
X0.28860 Y1.10282
X0.28760 Y1.10282
X0.28760 Y1.10382
X0.28660 Y1.10382
X0.28660 Y1.10482
X0.28560 Y1.10482
X0.28560 Y1.10582
X0.28460 Y1.10582
X0.28460 Y1.10682
X0.28360 Y1.10682
X0.28360 Y1.10782
X0.28260 Y1.10782
X0.28260 Y1.10882
X0.28160 Y1.10882
X0.28160 Y1.10982
X0.28060 Y1.10982
X0.28060 Y1.11082
X0.27960 Y1.11082
X0.27960 Y1.11182
X0.27860 Y1.11182
X0.27860 Y1.30982
X0.27960 Y1.30982
X0.27960 Y1.31082
X0.28260 Y1.31082
X0.28260 Y1.30982
X0.28760 Y1.30982
X0.28760 Y1.31082
X0.29160 Y1.31082
X0.29160 Y1.31182
X0.29460 Y1.31182
X0.29460 Y1.31282
X0.29760 Y1.31282
X0.29760 Y1.31382
X0.29960 Y1.31382
X0.29960 Y1.31482
X0.30160 Y1.31482
X0.30160 Y1.31582
X0.30360 Y1.31582
X0.30360 Y1.31682
X0.30460 Y1.31682
X0.30460 Y1.31782
X0.30560 Y1.31782
X0.30560 Y1.31982
X0.30660 Y1.31982
X0.30660 Y1.32082
X0.30760 Y1.32082
X0.30760 Y1.32182
X0.30860 Y1.32182
X0.30860 Y1.32382
X0.30960 Y1.32382
X0.30960 Y1.32482
X0.31060 Y1.32482
X0.31060 Y1.32582
X0.31160 Y1.32582
X0.31160 Y1.32782
X0.31260 Y1.32782
X0.31260 Y1.32982
X0.31360 Y1.32982
X0.31360 Y1.33282
X0.31460 Y1.33282
X0.31460 Y1.34682
X0.31360 Y1.34682
X0.31360 Y1.34982
X0.31260 Y1.34982
X0.31260 Y1.35182
X0.31160 Y1.35182
X0.31160 Y1.35382
X0.31060 Y1.35382
X0.31060 Y1.35482
X0.30960 Y1.35482
X0.30960 Y1.35582
X0.30860 Y1.35582
X0.30860 Y1.35782
X0.30760 Y1.35782
X0.30760 Y1.35882
X0.30660 Y1.35882
X0.30660 Y1.35982
X0.30560 Y1.35982
X0.30560 Y1.36082
X0.30460 Y1.36082
X0.30460 Y1.36182
X0.30360 Y1.36182
X0.30360 Y1.36282
X0.30260 Y1.36282
X0.30260 Y1.36382
X0.30160 Y1.36382
X0.30160 Y1.36482
X0.29960 Y1.36482
X0.29960 Y1.36582
X0.29760 Y1.36582
X0.29760 Y1.36682
X0.29460 Y1.36682
X0.29460 Y1.36782
X0.29160 Y1.36782
X0.29160 Y1.36882
X0.27860 Y1.36882
X0.27860 Y1.36782
X0.27560 Y1.36782
X0.27560 Y1.36682
X0.27260 Y1.36682
X0.27260 Y1.36582
X0.27060 Y1.36582
X0.27060 Y1.36482
X0.26860 Y1.36482
X0.26860 Y1.36382
X0.26760 Y1.36382
X0.26760 Y1.36282
X0.26660 Y1.36282
X0.26660 Y1.36182
X0.26560 Y1.36182
X0.26560 Y1.36082
X0.26460 Y1.36082
X0.26460 Y1.35982
X0.26360 Y1.35982
X0.26360 Y1.35882
G04 P0 ( dwell for no time -- G64 should not smooth over this point )
G00 Z0.19685 ( retract )

G00 X0.61160 Y1.27082 ( rapid move to begin. )
G01 Z-0.01969 F1.96850 ( plunge. )
G04 P0 ( dwell for no time -- G64 should not smooth over this point )
X0.61160 Y1.27082
X0.61060 Y1.27082
X0.61060 Y1.26982
X0.60960 Y1.26982
X0.60960 Y1.26882
X0.60860 Y1.26882
X0.60860 Y1.26782
X0.60760 Y1.26782
X0.60760 Y1.26682
X0.60660 Y1.26682
X0.60660 Y1.26582
X0.60560 Y1.26582
X0.60560 Y1.26482
X0.60460 Y1.26482
X0.60460 Y1.26382
X0.60360 Y1.26382
X0.60360 Y1.26182
X0.60260 Y1.26182
X0.60260 Y1.25982
X0.60160 Y1.25982
X0.60160 Y1.25682
X0.60060 Y1.25682
X0.60060 Y1.24582
X0.60160 Y1.24582
X0.60160 Y1.24282
X0.60260 Y1.24282
X0.60260 Y1.24082
X0.60360 Y1.24082
X0.60360 Y1.23882
X0.60460 Y1.23882
X0.60460 Y1.23682
X0.60560 Y1.23682
X0.60560 Y1.23482
X0.60660 Y1.23482
X0.60660 Y1.23382
X0.60760 Y1.23382
X0.60760 Y1.23282
X0.60960 Y1.23282
X0.60960 Y1.23182
X0.61060 Y1.23182
X0.61060 Y1.23082
X0.61160 Y1.23082
X0.61160 Y1.22982
X0.61260 Y1.22982
X0.61260 Y1.22882
X0.61360 Y1.22882
X0.61360 Y1.22782
X0.61660 Y1.22782
X0.61660 Y1.22682
X0.62060 Y1.22682
X0.62060 Y1.22582
X0.63160 Y1.22582
X0.63160 Y1.22682
X0.63560 Y1.22682
X0.63560 Y1.22782
X0.63860 Y1.22782
X0.63860 Y1.22682
X0.63960 Y1.22682
X0.63960 Y1.22582
X0.64060 Y1.22582
X0.64060 Y1.22482
X0.64160 Y1.22482
X0.64160 Y1.22382
X0.64260 Y1.22382
X0.64260 Y1.22282
X0.64360 Y1.22282
X0.64360 Y1.22182
X0.64460 Y1.22182
X0.64460 Y1.22082
X0.64560 Y1.22082
X0.64560 Y1.21982
X0.64660 Y1.21982
X0.64660 Y1.21882
X0.64760 Y1.21882
X0.64760 Y1.21782
X0.64860 Y1.21782
X0.64860 Y1.21682
X0.64960 Y1.21682
X0.64960 Y1.21582
X0.65060 Y1.21582
X0.65060 Y1.21482
X0.65160 Y1.21482
X0.65160 Y1.21382
X0.65260 Y1.21382
X0.65260 Y1.21282
X0.65360 Y1.21282
X0.65360 Y1.21182
X0.65460 Y1.21182
X0.65460 Y1.21082
X0.65560 Y1.21082
X0.65560 Y1.20882
X0.65760 Y1.20882
X0.65760 Y1.20782
X0.71760 Y1.20782
X0.71760 Y1.20682
X0.71860 Y1.20682
X0.71860 Y1.20382
X0.71960 Y1.20382
X0.71960 Y1.20182
X0.72060 Y1.20182
X0.72060 Y1.19982
X0.72160 Y1.19982
X0.72160 Y1.19882
X0.72260 Y1.19882
X0.72260 Y1.19782
X0.72460 Y1.19782
X0.72460 Y1.19682
X0.72560 Y1.19682
X0.72560 Y1.19582
X0.72660 Y1.19582
X0.72660 Y1.19482
X0.72760 Y1.19482
X0.72760 Y1.19382
X0.72860 Y1.19382
X0.72860 Y1.19282
X0.73160 Y1.19282
X0.73160 Y1.19182
X0.73560 Y1.19182
X0.73560 Y1.19082
X0.74660 Y1.19082
X0.74660 Y1.19182
X0.75060 Y1.19182
X0.75060 Y1.19282
X0.75360 Y1.19282
X0.75360 Y1.19382
X0.75460 Y1.19382
X0.75460 Y1.19482
X0.75560 Y1.19482
X0.75560 Y1.19582
X0.75760 Y1.19582
X0.75760 Y1.19682
X0.75960 Y1.19682
X0.75960 Y1.19882
X0.76060 Y1.19882
X0.76060 Y1.19982
X0.76160 Y1.19982
X0.76160 Y1.20182
X0.76260 Y1.20182
X0.76260 Y1.20382
X0.76360 Y1.20382
X0.76360 Y1.20582
X0.76460 Y1.20582
X0.76460 Y1.20782
X0.76560 Y1.20782
X0.76560 Y1.21082
X0.76660 Y1.21082
X0.76660 Y1.22182
X0.76560 Y1.22182
X0.76560 Y1.22482
X0.76460 Y1.22482
X0.76460 Y1.22682
X0.76360 Y1.22682
X0.76360 Y1.22882
X0.76260 Y1.22882
X0.76260 Y1.22982
X0.76160 Y1.22982
X0.76160 Y1.23182
X0.76060 Y1.23182
X0.76060 Y1.23282
X0.75960 Y1.23282
X0.75960 Y1.23382
X0.75860 Y1.23382
X0.75860 Y1.23482
X0.75760 Y1.23482
X0.75760 Y1.23582
X0.75660 Y1.23582
X0.75660 Y1.23682
X0.75560 Y1.23682
X0.75560 Y1.23782
X0.75360 Y1.23782
X0.75360 Y1.23882
X0.75060 Y1.23882
X0.75060 Y1.23982
X0.74660 Y1.23982
X0.74660 Y1.24082
X0.74260 Y1.24082
X0.74260 Y1.24182
X0.73960 Y1.24182
X0.73960 Y1.24082
X0.73560 Y1.24082
X0.73560 Y1.23982
X0.73160 Y1.23982
X0.73160 Y1.23882
X0.72860 Y1.23882
X0.72860 Y1.23782
X0.72760 Y1.23782
X0.72760 Y1.23682
X0.72660 Y1.23682
X0.72660 Y1.23582
X0.72560 Y1.23582
X0.72560 Y1.23482
X0.72460 Y1.23482
X0.72460 Y1.23382
X0.72360 Y1.23382
X0.72360 Y1.23282
X0.72260 Y1.23282
X0.72260 Y1.23182
X0.72160 Y1.23182
X0.72160 Y1.23082
X0.72060 Y1.23082
X0.72060 Y1.22982
X0.71960 Y1.22982
X0.71960 Y1.22882
X0.71860 Y1.22882
X0.71860 Y1.22582
X0.71760 Y1.22582
X0.71760 Y1.22482
X0.66360 Y1.22482
X0.66360 Y1.22582
X0.66260 Y1.22582
X0.66260 Y1.22682
X0.66160 Y1.22682
X0.66160 Y1.22782
X0.66060 Y1.22782
X0.66060 Y1.22882
X0.65960 Y1.22882
X0.65960 Y1.22982
X0.65860 Y1.22982
X0.65860 Y1.23082
X0.65760 Y1.23082
X0.65760 Y1.23182
X0.65660 Y1.23182
X0.65660 Y1.23282
X0.65560 Y1.23282
X0.65560 Y1.23382
X0.65460 Y1.23382
X0.65460 Y1.23482
X0.65360 Y1.23482
X0.65360 Y1.23582
X0.65260 Y1.23582
X0.65260 Y1.23682
X0.65160 Y1.23682
X0.65160 Y1.23782
X0.65060 Y1.23782
X0.65060 Y1.23882
X0.64960 Y1.23882
X0.64960 Y1.24182
X0.65060 Y1.24182
X0.65060 Y1.24582
X0.65160 Y1.24582
X0.65160 Y1.25682
X0.65060 Y1.25682
X0.65060 Y1.25982
X0.64960 Y1.25982
X0.64960 Y1.26182
X0.64860 Y1.26182
X0.64860 Y1.26382
X0.64760 Y1.26382
X0.64760 Y1.26482
X0.64660 Y1.26482
X0.64660 Y1.26682
X0.64560 Y1.26682
X0.64560 Y1.26782
X0.64460 Y1.26782
X0.64460 Y1.26882
X0.64360 Y1.26882
X0.64360 Y1.26982
X0.64260 Y1.26982
X0.64260 Y1.27082
X0.64160 Y1.27082
X0.64160 Y1.27182
X0.64060 Y1.27182
X0.64060 Y1.27282
X0.63860 Y1.27282
X0.63860 Y1.27382
X0.63560 Y1.27382
X0.63560 Y1.27482
X0.63160 Y1.27482
X0.63160 Y1.27582
X0.62760 Y1.27582
X0.62760 Y1.27682
X0.62460 Y1.27682
X0.62460 Y1.27582
X0.62060 Y1.27582
X0.62060 Y1.27482
X0.61660 Y1.27482
X0.61660 Y1.27382
X0.61360 Y1.27382
X0.61360 Y1.27282
X0.61260 Y1.27282
X0.61260 Y1.27182
X0.61160 Y1.27182
X0.61160 Y1.27082
G04 P0 ( dwell for no time -- G64 should not smooth over this point )
G00 Z0.19685 ( retract )

G00 X1.01360 Y1.20882 ( rapid move to begin. )
G01 Z-0.01969 F1.96850 ( plunge. )
G04 P0 ( dwell for no time -- G64 should not smooth over this point )
X1.01360 Y1.20882
X1.01260 Y1.20882
X1.01260 Y1.20782
X1.01160 Y1.20782
X1.01160 Y1.20582
X1.01060 Y1.20582
X1.01060 Y1.20482
X1.00960 Y1.20482
X1.00960 Y1.20382
X1.00860 Y1.20382
X1.00860 Y1.20182
X1.00760 Y1.20182
X1.00760 Y1.19982
X1.00660 Y1.19982
X1.00660 Y1.19582
X1.00560 Y1.19582
X1.00560 Y1.18382
X1.00660 Y1.18382
X1.00660 Y1.17982
X1.00760 Y1.17982
X1.00760 Y1.17782
X1.00860 Y1.17782
X1.00860 Y1.17582
X1.00960 Y1.17582
X1.00960 Y1.17482
X1.01060 Y1.17482
X1.01060 Y1.17382
X1.01160 Y1.17382
X1.01160 Y1.17182
X1.01260 Y1.17182
X1.01260 Y1.17082
X1.01360 Y1.17082
X1.01360 Y1.16982
X1.01460 Y1.16982
X1.01460 Y1.16782
X1.01560 Y1.16782
X1.01560 Y1.16682
X1.01660 Y1.16682
X1.01660 Y1.16582
X1.01860 Y1.16582
X1.01860 Y1.16482
X1.02060 Y1.16482
X1.02060 Y1.16382
X1.02260 Y1.16382
X1.02260 Y1.16282
X1.02560 Y1.16282
X1.02560 Y1.16182
X1.02860 Y1.16182
X1.02860 Y1.16082
X1.03260 Y1.16082
X1.03260 Y1.15982
X1.03760 Y1.15982
X1.03760 Y1.16082
X1.04160 Y1.16082
X1.04160 Y1.16182
X1.04460 Y1.16182
X1.04460 Y1.16282
X1.04760 Y1.16282
X1.04760 Y1.16382
X1.04960 Y1.16382
X1.04960 Y1.16482
X1.05160 Y1.16482
X1.05160 Y1.16582
X1.05360 Y1.16582
X1.05360 Y1.16682
X1.05460 Y1.16682
X1.05460 Y1.16782
X1.05560 Y1.16782
X1.05560 Y1.16982
X1.05660 Y1.16982
X1.05660 Y1.17082
X1.05760 Y1.17082
X1.05760 Y1.17182
X1.05860 Y1.17182
X1.05860 Y1.17382
X1.05960 Y1.17382
X1.05960 Y1.17482
X1.06060 Y1.17482
X1.06060 Y1.17582
X1.06160 Y1.17582
X1.06160 Y1.17782
X1.06260 Y1.17782
X1.06260 Y1.17982
X1.06360 Y1.17982
X1.06360 Y1.18082
X1.08160 Y1.18082
X1.08160 Y1.17982
X1.08260 Y1.17982
X1.08260 Y1.17882
X1.08360 Y1.17882
X1.08360 Y1.17782
X1.08460 Y1.17782
X1.08460 Y1.17682
X1.08560 Y1.17682
X1.08560 Y1.17582
X1.08660 Y1.17582
X1.08660 Y1.17482
X1.08760 Y1.17482
X1.08760 Y1.17382
X1.08860 Y1.17382
X1.08860 Y1.17282
X1.08960 Y1.17282
X1.08960 Y1.17182
X1.09160 Y1.17182
X1.09160 Y1.17082
X1.09260 Y1.17082
X1.09260 Y1.16982
X1.09360 Y1.16982
X1.09360 Y1.16882
X1.09460 Y1.16882
X1.09460 Y1.16782
X1.09560 Y1.16782
X1.09560 Y1.16682
X1.09660 Y1.16682
X1.09660 Y1.16582
X1.09760 Y1.16582
X1.09760 Y1.16482
X1.09860 Y1.16482
X1.09860 Y1.16382
X1.09960 Y1.16382
X1.09960 Y1.16282
X1.10060 Y1.16282
X1.10060 Y1.16182
X1.10160 Y1.16182
X1.10160 Y1.16082
X1.10260 Y1.16082
X1.10260 Y1.15982
X1.10360 Y1.15982
X1.10360 Y1.15882
X1.10460 Y1.15882
X1.10460 Y1.15782
X1.10560 Y1.15782
X1.10560 Y1.15682
X1.10660 Y1.15682
X1.10660 Y1.15582
X1.10760 Y1.15582
X1.10760 Y1.15482
X1.10860 Y1.15482
X1.10860 Y1.15382
X1.10960 Y1.15382
X1.10960 Y1.15282
X1.11060 Y1.15282
X1.11060 Y1.15182
X1.11160 Y1.15182
X1.11160 Y0.84182
X1.11260 Y0.84182
X1.11260 Y0.83982
X1.11360 Y0.83982
X1.11360 Y0.83882
X1.11460 Y0.83882
X1.11460 Y0.83782
X1.11560 Y0.83782
X1.11560 Y0.83682
X1.11660 Y0.83682
X1.11660 Y0.83582
X1.11760 Y0.83582
X1.11760 Y0.83482
X1.11860 Y0.83482
X1.11860 Y0.83382
X1.11960 Y0.83382
X1.11960 Y0.83282
X1.12060 Y0.83282
X1.12060 Y0.83182
X1.12160 Y0.83182
X1.12160 Y0.83082
X1.12260 Y0.83082
X1.12260 Y0.82982
X1.12360 Y0.82982
X1.12360 Y0.82882
X1.12460 Y0.82882
X1.12460 Y0.82782
X1.12560 Y0.82782
X1.12560 Y0.82682
X1.12660 Y0.82682
X1.12660 Y0.82282
X1.12560 Y0.82282
X1.12560 Y0.81982
X1.12460 Y0.81982
X1.12460 Y0.80882
X1.12560 Y0.80882
X1.12560 Y0.80582
X1.12660 Y0.80582
X1.12660 Y0.80482
X1.12760 Y0.80482
X1.12760 Y0.80282
X1.12860 Y0.80282
X1.12860 Y0.80082
X1.12960 Y0.80082
X1.12960 Y0.79882
X1.13060 Y0.79882
X1.13060 Y0.79782
X1.13160 Y0.79782
X1.13160 Y0.79682
X1.13260 Y0.79682
X1.13260 Y0.79582
X1.13360 Y0.79582
X1.13360 Y0.79482
X1.13460 Y0.79482
X1.13460 Y0.79382
X1.13660 Y0.79382
X1.13660 Y0.79282
X1.13760 Y0.79282
X1.13760 Y0.79182
X1.14060 Y0.79182
X1.14060 Y0.79082
X1.14460 Y0.79082
X1.14460 Y0.78982
X1.14860 Y0.78982
X1.14860 Y0.78882
X1.15160 Y0.78882
X1.15160 Y0.78982
X1.15560 Y0.78982
X1.15560 Y0.79082
X1.15960 Y0.79082
X1.15960 Y0.79182
X1.16260 Y0.79182
X1.16260 Y0.79282
X1.16360 Y0.79282
X1.16360 Y0.79382
X1.16560 Y0.79382
X1.16560 Y0.79482
X1.16660 Y0.79482
X1.16660 Y0.79582
X1.16760 Y0.79582
X1.16760 Y0.79682
X1.16860 Y0.79682
X1.16860 Y0.79782
X1.16960 Y0.79782
X1.16960 Y0.79882
X1.17060 Y0.79882
X1.17060 Y0.80082
X1.17160 Y0.80082
X1.17160 Y0.80282
X1.17260 Y0.80282
X1.17260 Y0.80482
X1.17360 Y0.80482
X1.17360 Y0.80582
X1.17460 Y0.80582
X1.17460 Y0.80882
X1.17560 Y0.80882
X1.17560 Y0.81982
X1.17460 Y0.81982
X1.17460 Y0.82282
X1.17360 Y0.82282
X1.17360 Y0.82482
X1.17260 Y0.82482
X1.17260 Y0.82682
X1.17160 Y0.82682
X1.17160 Y0.82882
X1.17060 Y0.82882
X1.17060 Y0.82982
X1.16960 Y0.82982
X1.16960 Y0.83082
X1.16860 Y0.83082
X1.16860 Y0.83182
X1.16760 Y0.83182
X1.16760 Y0.83282
X1.16660 Y0.83282
X1.16660 Y0.83382
X1.16560 Y0.83382
X1.16560 Y0.83482
X1.16360 Y0.83482
X1.16360 Y0.83582
X1.16260 Y0.83582
X1.16260 Y0.83682
X1.16160 Y0.83682
X1.16160 Y0.83782
X1.15960 Y0.83782
X1.15960 Y0.83882
X1.15560 Y0.83882
X1.15560 Y0.83982
X1.14460 Y0.83982
X1.14460 Y0.83882
X1.14160 Y0.83882
X1.14160 Y0.83782
X1.13760 Y0.83782
X1.13760 Y0.83882
X1.13660 Y0.83882
X1.13660 Y0.83982
X1.13560 Y0.83982
X1.13560 Y0.84082
X1.13460 Y0.84082
X1.13460 Y0.84182
X1.13360 Y0.84182
X1.13360 Y0.84282
X1.13260 Y0.84282
X1.13260 Y0.84382
X1.13160 Y0.84382
X1.13160 Y0.84482
X1.13060 Y0.84482
X1.13060 Y0.84582
X1.12960 Y0.84582
X1.12960 Y0.84682
X1.12860 Y0.84682
X1.12860 Y1.15682
X1.12760 Y1.15682
X1.12760 Y1.15882
X1.12660 Y1.15882
X1.12660 Y1.15982
X1.12560 Y1.15982
X1.12560 Y1.16182
X1.12460 Y1.16182
X1.12460 Y1.16282
X1.12360 Y1.16282
X1.12360 Y1.16382
X1.12260 Y1.16382
X1.12260 Y1.16482
X1.12160 Y1.16482
X1.12160 Y1.16582
X1.12060 Y1.16582
X1.12060 Y1.16682
X1.11960 Y1.16682
X1.11960 Y1.16782
X1.11860 Y1.16782
X1.11860 Y1.16882
X1.11760 Y1.16882
X1.11760 Y1.16982
X1.11660 Y1.16982
X1.11660 Y1.17082
X1.11560 Y1.17082
X1.11560 Y1.17182
X1.11460 Y1.17182
X1.11460 Y1.17282
X1.11360 Y1.17282
X1.11360 Y1.17382
X1.11260 Y1.17382
X1.11260 Y1.17482
X1.11160 Y1.17482
X1.11160 Y1.17582
X1.11060 Y1.17582
X1.11060 Y1.17682
X1.10960 Y1.17682
X1.10960 Y1.17782
X1.10860 Y1.17782
X1.10860 Y1.17882
X1.10760 Y1.17882
X1.10760 Y1.17982
X1.10660 Y1.17982
X1.10660 Y1.18082
X1.10560 Y1.18082
X1.10560 Y1.18182
X1.10460 Y1.18182
X1.10460 Y1.18282
X1.10360 Y1.18282
X1.10360 Y1.18382
X1.10260 Y1.18382
X1.10260 Y1.18482
X1.10160 Y1.18482
X1.10160 Y1.18582
X1.10060 Y1.18582
X1.10060 Y1.18682
X1.09960 Y1.18682
X1.09960 Y1.18782
X1.09860 Y1.18782
X1.09860 Y1.18882
X1.09760 Y1.18882
X1.09760 Y1.18982
X1.09660 Y1.18982
X1.09660 Y1.19082
X1.09560 Y1.19082
X1.09560 Y1.19182
X1.09460 Y1.19182
X1.09460 Y1.19282
X1.09360 Y1.19282
X1.09360 Y1.19382
X1.09260 Y1.19382
X1.09260 Y1.19482
X1.09160 Y1.19482
X1.09160 Y1.19582
X1.08960 Y1.19582
X1.08960 Y1.19682
X1.08760 Y1.19682
X1.08760 Y1.19782
X1.06360 Y1.19782
X1.06360 Y1.19982
X1.06260 Y1.19982
X1.06260 Y1.20182
X1.06160 Y1.20182
X1.06160 Y1.20382
X1.06060 Y1.20382
X1.06060 Y1.20482
X1.05960 Y1.20482
X1.05960 Y1.20582
X1.05860 Y1.20582
X1.05860 Y1.20782
X1.05760 Y1.20782
X1.05760 Y1.20882
X1.05660 Y1.20882
X1.05660 Y1.20982
X1.05560 Y1.20982
X1.05560 Y1.21082
X1.05460 Y1.21082
X1.05460 Y1.21182
X1.05360 Y1.21182
X1.05360 Y1.21282
X1.05260 Y1.21282
X1.05260 Y1.21382
X1.05160 Y1.21382
X1.05160 Y1.21482
X1.04960 Y1.21482
X1.04960 Y1.21582
X1.04760 Y1.21582
X1.04760 Y1.21682
X1.04460 Y1.21682
X1.04460 Y1.21782
X1.04160 Y1.21782
X1.04160 Y1.21882
X1.02860 Y1.21882
X1.02860 Y1.21782
X1.02560 Y1.21782
X1.02560 Y1.21682
X1.02260 Y1.21682
X1.02260 Y1.21582
X1.02060 Y1.21582
X1.02060 Y1.21482
X1.01860 Y1.21482
X1.01860 Y1.21382
X1.01760 Y1.21382
X1.01760 Y1.21282
X1.01660 Y1.21282
X1.01660 Y1.21182
X1.01560 Y1.21182
X1.01560 Y1.21082
X1.01460 Y1.21082
X1.01460 Y1.20982
X1.01360 Y1.20982
X1.01360 Y1.20882
G04 P0 ( dwell for no time -- G64 should not smooth over this point )
G00 Z0.19685 ( retract )

G00 X1.22460 Y1.13582 ( rapid move to begin. )
G01 Z-0.01969 F1.96850 ( plunge. )
G04 P0 ( dwell for no time -- G64 should not smooth over this point )
X1.22460 Y1.13582
X1.22360 Y1.13582
X1.22360 Y1.13482
X1.22160 Y1.13482
X1.22160 Y1.13382
X1.21960 Y1.13382
X1.21960 Y1.13282
X1.21760 Y1.13282
X1.21760 Y1.13182
X1.21560 Y1.13182
X1.21560 Y1.13082
X1.21460 Y1.13082
X1.21460 Y1.12982
X1.21360 Y1.12982
X1.21360 Y1.12882
X1.21260 Y1.12882
X1.21260 Y1.12782
X1.21160 Y1.12782
X1.21160 Y1.12682
X1.20960 Y1.12682
X1.20960 Y1.12582
X1.20860 Y1.12582
X1.20860 Y1.12482
X1.20760 Y1.12482
X1.20760 Y1.12382
X1.20660 Y1.12382
X1.20660 Y1.12282
X1.20560 Y1.12282
X1.20560 Y1.12082
X1.20460 Y1.12082
X1.20460 Y1.11982
X1.20360 Y1.11982
X1.20360 Y1.11882
X1.20260 Y1.11882
X1.20260 Y1.11782
X1.20160 Y1.11782
X1.20160 Y1.11682
X1.20060 Y1.11682
X1.20060 Y1.11482
X1.19960 Y1.11482
X1.19960 Y1.11282
X1.19860 Y1.11282
X1.19860 Y1.11082
X1.19760 Y1.11082
X1.19760 Y1.10882
X1.19660 Y1.10882
X1.19660 Y1.10782
X1.19560 Y1.10782
X1.19560 Y1.10582
X1.19460 Y1.10582
X1.19460 Y1.10182
X1.19360 Y1.10182
X1.19360 Y1.09982
X1.19260 Y1.09982
X1.19260 Y1.09682
X1.19160 Y1.09682
X1.19160 Y1.09382
X1.19060 Y1.09382
X1.19060 Y1.08882
X1.18960 Y1.08882
X1.18960 Y1.06982
X1.19060 Y1.06982
X1.19060 Y1.06482
X1.19160 Y1.06482
X1.19160 Y1.06182
X1.19260 Y1.06182
X1.19260 Y1.05882
X1.19360 Y1.05882
X1.19360 Y1.05682
X1.19460 Y1.05682
X1.19460 Y1.05282
X1.19560 Y1.05282
X1.19560 Y1.05082
X1.19660 Y1.05082
X1.19660 Y1.04982
X1.19760 Y1.04982
X1.19760 Y1.04782
X1.19860 Y1.04782
X1.19860 Y1.04582
X1.19960 Y1.04582
X1.19960 Y1.04382
X1.20060 Y1.04382
X1.20060 Y1.04182
X1.20160 Y1.04182
X1.20160 Y1.04082
X1.20260 Y1.04082
X1.20260 Y1.03982
X1.20360 Y1.03982
X1.20360 Y1.03882
X1.20460 Y1.03882
X1.20460 Y1.03782
X1.20560 Y1.03782
X1.20560 Y1.03582
X1.20660 Y1.03582
X1.20660 Y1.03482
X1.20760 Y1.03482
X1.20760 Y1.03382
X1.20860 Y1.03382
X1.20860 Y1.03282
X1.20960 Y1.03282
X1.20960 Y1.03182
X1.21160 Y1.03182
X1.21160 Y1.03082
X1.21260 Y1.03082
X1.21260 Y1.02982
X1.21360 Y1.02982
X1.21360 Y1.02882
X1.21460 Y1.02882
X1.21460 Y1.02782
X1.21560 Y1.02782
X1.21560 Y1.02682
X1.21760 Y1.02682
X1.21760 Y1.02582
X1.21960 Y1.02582
X1.21960 Y1.02482
X1.22160 Y1.02482
X1.22160 Y1.02382
X1.22360 Y1.02382
X1.22360 Y1.02282
X1.22460 Y1.02282
X1.22460 Y1.02182
X1.22660 Y1.02182
X1.22660 Y1.02082
X1.22960 Y1.02082
X1.22960 Y1.01982
X1.23160 Y1.01982
X1.23160 Y1.01882
X1.23460 Y1.01882
X1.23460 Y1.01782
X1.23960 Y1.01782
X1.23960 Y1.02182
X1.24060 Y1.02182
X1.24060 Y1.13682
X1.23960 Y1.13682
X1.23960 Y1.14082
X1.23460 Y1.14082
X1.23460 Y1.13982
X1.23160 Y1.13982
X1.23160 Y1.13882
X1.22960 Y1.13882
X1.22960 Y1.13782
X1.22660 Y1.13782
X1.22660 Y1.13682
X1.22460 Y1.13682
X1.22460 Y1.13582
G04 P0 ( dwell for no time -- G64 should not smooth over this point )
G00 Z0.19685 ( retract )

G00 X0.12360 Y1.13582 ( rapid move to begin. )
G01 Z-0.01969 F1.96850 ( plunge. )
G04 P0 ( dwell for no time -- G64 should not smooth over this point )
X0.12360 Y1.13582
X0.12360 Y1.02182
X0.12460 Y1.02182
X0.12460 Y1.01782
X0.12860 Y1.01782
X0.12860 Y1.01882
X0.13160 Y1.01882
X0.13160 Y1.01982
X0.13360 Y1.01982
X0.13360 Y1.02082
X0.13760 Y1.02082
X0.13760 Y1.02182
X0.13960 Y1.02182
X0.13960 Y1.02282
X0.14160 Y1.02282
X0.14160 Y1.02382
X0.14260 Y1.02382
X0.14260 Y1.02482
X0.14460 Y1.02482
X0.14460 Y1.02582
X0.14660 Y1.02582
X0.14660 Y1.02682
X0.14860 Y1.02682
X0.14860 Y1.02782
X0.14960 Y1.02782
X0.14960 Y1.02882
X0.15060 Y1.02882
X0.15060 Y1.02982
X0.15160 Y1.02982
X0.15160 Y1.03082
X0.15260 Y1.03082
X0.15260 Y1.03182
X0.15460 Y1.03182
X0.15460 Y1.03282
X0.15560 Y1.03282
X0.15560 Y1.03382
X0.15660 Y1.03382
X0.15660 Y1.03482
X0.15760 Y1.03482
X0.15760 Y1.03582
X0.15860 Y1.03582
X0.15860 Y1.03782
X0.15960 Y1.03782
X0.15960 Y1.03882
X0.16060 Y1.03882
X0.16060 Y1.03982
X0.16160 Y1.03982
X0.16160 Y1.04082
X0.16260 Y1.04082
X0.16260 Y1.04182
X0.16360 Y1.04182
X0.16360 Y1.04382
X0.16460 Y1.04382
X0.16460 Y1.04582
X0.16560 Y1.04582
X0.16560 Y1.04782
X0.16660 Y1.04782
X0.16660 Y1.04882
X0.16760 Y1.04882
X0.16760 Y1.05082
X0.16860 Y1.05082
X0.16860 Y1.05282
X0.16960 Y1.05282
X0.16960 Y1.05582
X0.17060 Y1.05582
X0.17060 Y1.05882
X0.17160 Y1.05882
X0.17160 Y1.06182
X0.17260 Y1.06182
X0.17260 Y1.06482
X0.17360 Y1.06482
X0.17360 Y1.06982
X0.17460 Y1.06982
X0.17460 Y1.08882
X0.17360 Y1.08882
X0.17360 Y1.09382
X0.17260 Y1.09382
X0.17260 Y1.09682
X0.17160 Y1.09682
X0.17160 Y1.09982
X0.17060 Y1.09982
X0.17060 Y1.10282
X0.16960 Y1.10282
X0.16960 Y1.10582
X0.16860 Y1.10582
X0.16860 Y1.10782
X0.16760 Y1.10782
X0.16760 Y1.10982
X0.16660 Y1.10982
X0.16660 Y1.11082
X0.16560 Y1.11082
X0.16560 Y1.11282
X0.16460 Y1.11282
X0.16460 Y1.11482
X0.16360 Y1.11482
X0.16360 Y1.11682
X0.16260 Y1.11682
X0.16260 Y1.11782
X0.16160 Y1.11782
X0.16160 Y1.11882
X0.16060 Y1.11882
X0.16060 Y1.11982
X0.15960 Y1.11982
X0.15960 Y1.12082
X0.15860 Y1.12082
X0.15860 Y1.12282
X0.15760 Y1.12282
X0.15760 Y1.12382
X0.15660 Y1.12382
X0.15660 Y1.12482
X0.15560 Y1.12482
X0.15560 Y1.12582
X0.15460 Y1.12582
X0.15460 Y1.12682
X0.15260 Y1.12682
X0.15260 Y1.12782
X0.15160 Y1.12782
X0.15160 Y1.12882
X0.15060 Y1.12882
X0.15060 Y1.12982
X0.14960 Y1.12982
X0.14960 Y1.13082
X0.14860 Y1.13082
X0.14860 Y1.13182
X0.14660 Y1.13182
X0.14660 Y1.13282
X0.14460 Y1.13282
X0.14460 Y1.13382
X0.14260 Y1.13382
X0.14260 Y1.13482
X0.14160 Y1.13482
X0.14160 Y1.13582
X0.13960 Y1.13582
X0.13960 Y1.13682
X0.13760 Y1.13682
X0.13760 Y1.13782
X0.13360 Y1.13782
X0.13360 Y1.13882
X0.13160 Y1.13882
X0.13160 Y1.13982
X0.12860 Y1.13982
X0.12860 Y1.14082
X0.12460 Y1.14082
X0.12460 Y1.13682
X0.12360 Y1.13682
X0.12360 Y1.13582
G04 P0 ( dwell for no time -- G64 should not smooth over this point )
G00 Z0.19685 ( retract )

G00 X0.69160 Y1.08582 ( rapid move to begin. )
G01 Z-0.01969 F1.96850 ( plunge. )
G04 P0 ( dwell for no time -- G64 should not smooth over this point )
X0.69160 Y1.08582
X0.69060 Y1.08582
X0.69060 Y1.08482
X0.68960 Y1.08482
X0.68960 Y1.08382
X0.68860 Y1.08382
X0.68860 Y1.08282
X0.68760 Y1.08282
X0.68760 Y1.08182
X0.68660 Y1.08182
X0.68660 Y1.08082
X0.68560 Y1.08082
X0.68560 Y1.07982
X0.68460 Y1.07982
X0.68460 Y1.07882
X0.68360 Y1.07882
X0.68360 Y1.07682
X0.68260 Y1.07682
X0.68260 Y1.07482
X0.68160 Y1.07482
X0.68160 Y1.07182
X0.68060 Y1.07182
X0.68060 Y1.06082
X0.68160 Y1.06082
X0.68160 Y1.05782
X0.68260 Y1.05782
X0.68260 Y1.05582
X0.68360 Y1.05582
X0.68360 Y1.05382
X0.68460 Y1.05382
X0.68460 Y1.05182
X0.68560 Y1.05182
X0.68560 Y1.04982
X0.68660 Y1.04982
X0.68660 Y1.04882
X0.68760 Y1.04882
X0.68760 Y1.04782
X0.68960 Y1.04782
X0.68960 Y1.04682
X0.69060 Y1.04682
X0.69060 Y1.04582
X0.69160 Y1.04582
X0.69160 Y1.04482
X0.69260 Y1.04482
X0.69260 Y1.04382
X0.69360 Y1.04382
X0.69360 Y1.04282
X0.69660 Y1.04282
X0.69660 Y1.04182
X0.69960 Y1.04182
X0.69960 Y1.03982
X0.70160 Y1.03982
X0.70160 Y1.03882
X0.70260 Y1.03882
X0.70260 Y1.03782
X0.70360 Y1.03782
X0.70360 Y1.03682
X0.70460 Y1.03682
X0.70460 Y1.03582
X0.70560 Y1.03582
X0.70560 Y1.03482
X0.70660 Y1.03482
X0.70660 Y1.03382
X0.70760 Y1.03382
X0.70760 Y1.03282
X0.70860 Y1.03282
X0.70860 Y1.03182
X0.70960 Y1.03182
X0.70960 Y1.03082
X0.71060 Y1.03082
X0.71060 Y1.02982
X0.71160 Y1.02982
X0.71160 Y1.02882
X0.71260 Y1.02882
X0.71260 Y1.02782
X0.71360 Y1.02782
X0.71360 Y1.02682
X0.71460 Y1.02682
X0.71460 Y1.02582
X0.71560 Y1.02582
X0.71560 Y1.02482
X0.71660 Y1.02482
X0.71660 Y1.02382
X0.71760 Y1.02382
X0.71760 Y1.02282
X0.71860 Y1.02282
X0.71860 Y1.02182
X0.71960 Y1.02182
X0.71960 Y1.02082
X0.72060 Y1.02082
X0.72060 Y1.01982
X0.72160 Y1.01982
X0.72160 Y1.01882
X0.72260 Y1.01882
X0.72260 Y1.01782
X0.72360 Y1.01782
X0.72360 Y1.01682
X0.72460 Y1.01682
X0.72460 Y1.01582
X0.72560 Y1.01582
X0.72560 Y1.01482
X0.72660 Y1.01482
X0.72660 Y1.01382
X0.72760 Y1.01382
X0.72760 Y1.01282
X0.72860 Y1.01282
X0.72860 Y1.01182
X0.72960 Y1.01182
X0.72960 Y1.01082
X0.73060 Y1.01082
X0.73060 Y1.00982
X0.73160 Y1.00982
X0.73160 Y1.00882
X0.73260 Y1.00882
X0.73260 Y1.00782
X0.73360 Y1.00782
X0.73360 Y1.00582
X0.73260 Y1.00582
X0.73260 Y1.00482
X0.73160 Y1.00482
X0.73160 Y1.00182
X0.73060 Y1.00182
X0.73060 Y0.99082
X0.73160 Y0.99082
X0.73160 Y0.98782
X0.73260 Y0.98782
X0.73260 Y0.98582
X0.73360 Y0.98582
X0.73360 Y0.98382
X0.73460 Y0.98382
X0.73460 Y0.98182
X0.73560 Y0.98182
X0.73560 Y0.97982
X0.73660 Y0.97982
X0.73660 Y0.97882
X0.73760 Y0.97882
X0.73760 Y0.97782
X0.73960 Y0.97782
X0.73960 Y0.97682
X0.74060 Y0.97682
X0.74060 Y0.97382
X0.74360 Y0.97382
X0.74360 Y0.97282
X0.76860 Y0.97282
X0.76860 Y0.97382
X0.77260 Y0.97382
X0.77260 Y0.97682
X0.77360 Y0.97682
X0.77360 Y0.97782
X0.77460 Y0.97782
X0.77460 Y0.97882
X0.77560 Y0.97882
X0.77560 Y0.97982
X0.77660 Y0.97982
X0.77660 Y0.98182
X0.77760 Y0.98182
X0.77760 Y0.98382
X0.77860 Y0.98382
X0.77860 Y0.98582
X0.77960 Y0.98582
X0.77960 Y0.98782
X0.78060 Y0.98782
X0.78060 Y0.99082
X0.78160 Y0.99082
X0.78160 Y1.00182
X0.78060 Y1.00182
X0.78060 Y1.00482
X0.77960 Y1.00482
X0.77960 Y1.00682
X0.77860 Y1.00682
X0.77860 Y1.00882
X0.77760 Y1.00882
X0.77760 Y1.00982
X0.77660 Y1.00982
X0.77660 Y1.01182
X0.77560 Y1.01182
X0.77560 Y1.01282
X0.77460 Y1.01282
X0.77460 Y1.01382
X0.77360 Y1.01382
X0.77360 Y1.01482
X0.77260 Y1.01482
X0.77260 Y1.01582
X0.77160 Y1.01582
X0.77160 Y1.01682
X0.77060 Y1.01682
X0.77060 Y1.01782
X0.76860 Y1.01782
X0.76860 Y1.01882
X0.76560 Y1.01882
X0.76560 Y1.01982
X0.76160 Y1.01982
X0.76160 Y1.02082
X0.75860 Y1.02082
X0.75860 Y1.02182
X0.75460 Y1.02182
X0.75460 Y1.02082
X0.75060 Y1.02082
X0.75060 Y1.01982
X0.74760 Y1.01982
X0.74760 Y1.01882
X0.74460 Y1.01882
X0.74460 Y1.01982
X0.74360 Y1.01982
X0.74360 Y1.02082
X0.74260 Y1.02082
X0.74260 Y1.02182
X0.74160 Y1.02182
X0.74160 Y1.02282
X0.74060 Y1.02282
X0.74060 Y1.02382
X0.73960 Y1.02382
X0.73960 Y1.02482
X0.73860 Y1.02482
X0.73860 Y1.02582
X0.73760 Y1.02582
X0.73760 Y1.02682
X0.73660 Y1.02682
X0.73660 Y1.02782
X0.73560 Y1.02782
X0.73560 Y1.02882
X0.73460 Y1.02882
X0.73460 Y1.02982
X0.73360 Y1.02982
X0.73360 Y1.03082
X0.73260 Y1.03082
X0.73260 Y1.03182
X0.73160 Y1.03182
X0.73160 Y1.03282
X0.73060 Y1.03282
X0.73060 Y1.03382
X0.72960 Y1.03382
X0.72960 Y1.03482
X0.72860 Y1.03482
X0.72860 Y1.03582
X0.72760 Y1.03582
X0.72760 Y1.03682
X0.72660 Y1.03682
X0.72660 Y1.03782
X0.72560 Y1.03782
X0.72560 Y1.03882
X0.72460 Y1.03882
X0.72460 Y1.03982
X0.72360 Y1.03982
X0.72360 Y1.04082
X0.72260 Y1.04082
X0.72260 Y1.04182
X0.72160 Y1.04182
X0.72160 Y1.04282
X0.72060 Y1.04282
X0.72060 Y1.04482
X0.72160 Y1.04482
X0.72160 Y1.04582
X0.72260 Y1.04582
X0.72260 Y1.04682
X0.72360 Y1.04682
X0.72360 Y1.04782
X0.72460 Y1.04782
X0.72460 Y1.04882
X0.72560 Y1.04882
X0.72560 Y1.04982
X0.72660 Y1.04982
X0.72660 Y1.05182
X0.72760 Y1.05182
X0.72760 Y1.05382
X0.72860 Y1.05382
X0.72860 Y1.05582
X0.72960 Y1.05582
X0.72960 Y1.05782
X0.73060 Y1.05782
X0.73060 Y1.06082
X0.73160 Y1.06082
X0.73160 Y1.07182
X0.73060 Y1.07182
X0.73060 Y1.07482
X0.72960 Y1.07482
X0.72960 Y1.07682
X0.72860 Y1.07682
X0.72860 Y1.07882
X0.72760 Y1.07882
X0.72760 Y1.07982
X0.72660 Y1.07982
X0.72660 Y1.08182
X0.72560 Y1.08182
X0.72560 Y1.08282
X0.72460 Y1.08282
X0.72460 Y1.08382
X0.72360 Y1.08382
X0.72360 Y1.08482
X0.72260 Y1.08482
X0.72260 Y1.08582
X0.72160 Y1.08582
X0.72160 Y1.08682
X0.72060 Y1.08682
X0.72060 Y1.08782
X0.71860 Y1.08782
X0.71860 Y1.08882
X0.71560 Y1.08882
X0.71560 Y1.08982
X0.71160 Y1.08982
X0.71160 Y1.09082
X0.70760 Y1.09082
X0.70760 Y1.09182
X0.70460 Y1.09182
X0.70460 Y1.09082
X0.70060 Y1.09082
X0.70060 Y1.08982
X0.69660 Y1.08982
X0.69660 Y1.08882
X0.69360 Y1.08882
X0.69360 Y1.08782
X0.69260 Y1.08782
X0.69260 Y1.08682
X0.69160 Y1.08682
X0.69160 Y1.08582
G04 P0 ( dwell for no time -- G64 should not smooth over this point )
G00 Z0.19685 ( retract )

G00 X0.42560 Y1.04082 ( rapid move to begin. )
G01 Z-0.01969 F1.96850 ( plunge. )
G04 P0 ( dwell for no time -- G64 should not smooth over this point )
X0.42560 Y1.04082
X0.42460 Y1.04082
X0.42460 Y1.03982
X0.42360 Y1.03982
X0.42360 Y1.03882
X0.42260 Y1.03882
X0.42260 Y1.03782
X0.38460 Y1.03782
X0.38460 Y1.03882
X0.38360 Y1.03882
X0.38360 Y1.03982
X0.38260 Y1.03982
X0.38260 Y1.04082
X0.38160 Y1.04082
X0.38160 Y1.04182
X0.38060 Y1.04182
X0.38060 Y1.04282
X0.37960 Y1.04282
X0.37960 Y1.04382
X0.37860 Y1.04382
X0.37860 Y1.04482
X0.37760 Y1.04482
X0.37760 Y1.04582
X0.37660 Y1.04582
X0.37660 Y1.04682
X0.37560 Y1.04682
X0.37560 Y1.04782
X0.37260 Y1.04782
X0.37260 Y1.04882
X0.36760 Y1.04882
X0.36760 Y1.04982
X0.36260 Y1.04982
X0.36260 Y1.05082
X0.35960 Y1.05082
X0.35960 Y1.04982
X0.35560 Y1.04982
X0.35560 Y1.04882
X0.35060 Y1.04882
X0.35060 Y1.04782
X0.34760 Y1.04782
X0.34760 Y1.04682
X0.34660 Y1.04682
X0.34660 Y1.04582
X0.34560 Y1.04582
X0.34560 Y1.04482
X0.34460 Y1.04482
X0.34460 Y1.04382
X0.34260 Y1.04382
X0.34260 Y1.04282
X0.34160 Y1.04282
X0.34160 Y1.04182
X0.34060 Y1.04182
X0.34060 Y1.04082
X0.33860 Y1.04082
X0.33860 Y1.04182
X0.33660 Y1.04182
X0.33660 Y1.03882
X0.33560 Y1.03882
X0.33560 Y1.03082
X0.33460 Y1.03082
X0.33460 Y1.01182
X0.33560 Y1.01182
X0.33560 Y1.00382
X0.33660 Y1.00382
X0.33660 Y0.99982
X0.33860 Y0.99982
X0.33860 Y1.00082
X0.34060 Y1.00082
X0.34060 Y0.99982
X0.34160 Y0.99982
X0.34160 Y0.99882
X0.34260 Y0.99882
X0.34260 Y0.99782
X0.34360 Y0.99782
X0.34360 Y0.99682
X0.34560 Y0.99682
X0.34560 Y0.99582
X0.34760 Y0.99582
X0.34760 Y0.99482
X0.34960 Y0.99482
X0.34960 Y0.99382
X0.35160 Y0.99382
X0.35160 Y0.99282
X0.35460 Y0.99282
X0.35460 Y0.99182
X0.36860 Y0.99182
X0.36860 Y0.99282
X0.37160 Y0.99282
X0.37160 Y0.99382
X0.37360 Y0.99382
X0.37360 Y0.99482
X0.37560 Y0.99482
X0.37560 Y0.99582
X0.37760 Y0.99582
X0.37760 Y0.99682
X0.37960 Y0.99682
X0.37960 Y0.99782
X0.38060 Y0.99782
X0.38060 Y0.99882
X0.38160 Y0.99882
X0.38160 Y0.99982
X0.38260 Y0.99982
X0.38260 Y1.00082
X0.38360 Y1.00082
X0.38360 Y1.00182
X0.38460 Y1.00182
X0.38460 Y1.00282
X0.38560 Y1.00282
X0.38560 Y1.00382
X0.42260 Y1.00382
X0.42260 Y1.00282
X0.42360 Y1.00282
X0.42360 Y1.00182
X0.42460 Y1.00182
X0.42460 Y1.00082
X0.42560 Y1.00082
X0.42560 Y0.99982
X0.42660 Y0.99982
X0.42660 Y0.99882
X0.42760 Y0.99882
X0.42760 Y0.99782
X0.42860 Y0.99782
X0.42860 Y0.99682
X0.43060 Y0.99682
X0.43060 Y0.99582
X0.43260 Y0.99582
X0.43260 Y0.99482
X0.43460 Y0.99482
X0.43460 Y0.99382
X0.43660 Y0.99382
X0.43660 Y0.99282
X0.43960 Y0.99282
X0.43960 Y0.99182
X0.45360 Y0.99182
X0.45360 Y0.99282
X0.45660 Y0.99282
X0.45660 Y0.99382
X0.45860 Y0.99382
X0.45860 Y0.99482
X0.46060 Y0.99482
X0.46060 Y0.99582
X0.46260 Y0.99582
X0.46260 Y0.99682
X0.46460 Y0.99682
X0.46460 Y0.99782
X0.46560 Y0.99782
X0.46560 Y0.99882
X0.46660 Y0.99882
X0.46660 Y0.99982
X0.46760 Y0.99982
X0.46760 Y1.00082
X0.46860 Y1.00082
X0.46860 Y1.00182
X0.46960 Y1.00182
X0.46960 Y1.00282
X0.47060 Y1.00282
X0.47060 Y1.00482
X0.47160 Y1.00482
X0.47160 Y1.00682
X0.47260 Y1.00682
X0.47260 Y1.00882
X0.47360 Y1.00882
X0.47360 Y1.01082
X0.47460 Y1.01082
X0.47460 Y1.01382
X0.47560 Y1.01382
X0.47560 Y1.02782
X0.47460 Y1.02782
X0.47460 Y1.03082
X0.47360 Y1.03082
X0.47360 Y1.03282
X0.47260 Y1.03282
X0.47260 Y1.03482
X0.47160 Y1.03482
X0.47160 Y1.03682
X0.47060 Y1.03682
X0.47060 Y1.03782
X0.46960 Y1.03782
X0.46960 Y1.03882
X0.46860 Y1.03882
X0.46860 Y1.03982
X0.46760 Y1.03982
X0.46760 Y1.04082
X0.46660 Y1.04082
X0.46660 Y1.04182
X0.46560 Y1.04182
X0.46560 Y1.04282
X0.46460 Y1.04282
X0.46460 Y1.04382
X0.46360 Y1.04382
X0.46360 Y1.04482
X0.46260 Y1.04482
X0.46260 Y1.04582
X0.46160 Y1.04582
X0.46160 Y1.04682
X0.46060 Y1.04682
X0.46060 Y1.04782
X0.45660 Y1.04782
X0.45660 Y1.04882
X0.45260 Y1.04882
X0.45260 Y1.04982
X0.44760 Y1.04982
X0.44760 Y1.05082
X0.44460 Y1.05082
X0.44460 Y1.04982
X0.44060 Y1.04982
X0.44060 Y1.04882
X0.43560 Y1.04882
X0.43560 Y1.04782
X0.43260 Y1.04782
X0.43260 Y1.04682
X0.43160 Y1.04682
X0.43160 Y1.04582
X0.43060 Y1.04582
X0.43060 Y1.04482
X0.42860 Y1.04482
X0.42860 Y1.04382
X0.42760 Y1.04382
X0.42760 Y1.04282
X0.42660 Y1.04282
X0.42660 Y1.04182
X0.42560 Y1.04182
X0.42560 Y1.04082
G04 P0 ( dwell for no time -- G64 should not smooth over this point )
G00 Z0.19685 ( retract )

G00 X1.02660 Y1.02082 ( rapid move to begin. )
G01 Z-0.01969 F1.96850 ( plunge. )
G04 P0 ( dwell for no time -- G64 should not smooth over this point )
X1.02660 Y1.02082
X1.02560 Y1.02082
X1.02560 Y1.01982
X1.02460 Y1.01982
X1.02460 Y1.01882
X1.02360 Y1.01882
X1.02360 Y1.01782
X1.02260 Y1.01782
X1.02260 Y1.01682
X1.02160 Y1.01682
X1.02160 Y1.01582
X1.02060 Y1.01582
X1.02060 Y1.01482
X1.01960 Y1.01482
X1.01960 Y1.01382
X1.01860 Y1.01382
X1.01860 Y1.01182
X1.01760 Y1.01182
X1.01760 Y1.00982
X1.01660 Y1.00982
X1.01660 Y1.00682
X1.01560 Y1.00682
X1.01560 Y0.99582
X1.01660 Y0.99582
X1.01660 Y0.99282
X1.01760 Y0.99282
X1.01760 Y0.99082
X1.01860 Y0.99082
X1.01860 Y0.98882
X1.01960 Y0.98882
X1.01960 Y0.98682
X1.02060 Y0.98682
X1.02060 Y0.98482
X1.02160 Y0.98482
X1.02160 Y0.98382
X1.02260 Y0.98382
X1.02260 Y0.98282
X1.02460 Y0.98282
X1.02460 Y0.98182
X1.02560 Y0.98182
X1.02560 Y0.98082
X1.02660 Y0.98082
X1.02660 Y0.97982
X1.02760 Y0.97982
X1.02760 Y0.97882
X1.02860 Y0.97882
X1.02860 Y0.97782
X1.03060 Y0.97782
X1.03060 Y0.97682
X1.03260 Y0.97682
X1.03260 Y0.85882
X1.03360 Y0.85882
X1.03360 Y0.85582
X1.03260 Y0.85582
X1.03260 Y0.85482
X1.03160 Y0.85482
X1.03160 Y0.85182
X1.03060 Y0.85182
X1.03060 Y0.84082
X1.03160 Y0.84082
X1.03160 Y0.83782
X1.03260 Y0.83782
X1.03260 Y0.83582
X1.03360 Y0.83582
X1.03360 Y0.83382
X1.03460 Y0.83382
X1.03460 Y0.83182
X1.03560 Y0.83182
X1.03560 Y0.82982
X1.03660 Y0.82982
X1.03660 Y0.82882
X1.03760 Y0.82882
X1.03760 Y0.82782
X1.03960 Y0.82782
X1.03960 Y0.82682
X1.04060 Y0.82682
X1.04060 Y0.82582
X1.04160 Y0.82582
X1.04160 Y0.82482
X1.04260 Y0.82482
X1.04260 Y0.82382
X1.04360 Y0.82382
X1.04360 Y0.82282
X1.04660 Y0.82282
X1.04660 Y0.82182
X1.05060 Y0.82182
X1.05060 Y0.82082
X1.06160 Y0.82082
X1.06160 Y0.82182
X1.06560 Y0.82182
X1.06560 Y0.82282
X1.06860 Y0.82282
X1.06860 Y0.82382
X1.06960 Y0.82382
X1.06960 Y0.82482
X1.07060 Y0.82482
X1.07060 Y0.82582
X1.07260 Y0.82582
X1.07260 Y0.82682
X1.07360 Y0.82682
X1.07360 Y0.82782
X1.07460 Y0.82782
X1.07460 Y0.82882
X1.07560 Y0.82882
X1.07560 Y0.82982
X1.07660 Y0.82982
X1.07660 Y0.83182
X1.07760 Y0.83182
X1.07760 Y0.83382
X1.07860 Y0.83382
X1.07860 Y0.83582
X1.07960 Y0.83582
X1.07960 Y0.83782
X1.08060 Y0.83782
X1.08060 Y0.84082
X1.08160 Y0.84082
X1.08160 Y0.85182
X1.08060 Y0.85182
X1.08060 Y0.85482
X1.07960 Y0.85482
X1.07960 Y0.85682
X1.07860 Y0.85682
X1.07860 Y0.85882
X1.07760 Y0.85882
X1.07760 Y0.85982
X1.07660 Y0.85982
X1.07660 Y0.86182
X1.07560 Y0.86182
X1.07560 Y0.86282
X1.07460 Y0.86282
X1.07460 Y0.86382
X1.07360 Y0.86382
X1.07360 Y0.86482
X1.07260 Y0.86482
X1.07260 Y0.86582
X1.07160 Y0.86582
X1.07160 Y0.86682
X1.07060 Y0.86682
X1.07060 Y0.86782
X1.06860 Y0.86782
X1.06860 Y0.86882
X1.06560 Y0.86882
X1.06560 Y0.86982
X1.06160 Y0.86982
X1.06160 Y0.87082
X1.05760 Y0.87082
X1.05760 Y0.87182
X1.05460 Y0.87182
X1.05460 Y0.87082
X1.04960 Y0.87082
X1.04960 Y0.97682
X1.05160 Y0.97682
X1.05160 Y0.97782
X1.05360 Y0.97782
X1.05360 Y0.97882
X1.05460 Y0.97882
X1.05460 Y0.97982
X1.05560 Y0.97982
X1.05560 Y0.98082
X1.05760 Y0.98082
X1.05760 Y0.98182
X1.05860 Y0.98182
X1.05860 Y0.98282
X1.05960 Y0.98282
X1.05960 Y0.98382
X1.06060 Y0.98382
X1.06060 Y0.98482
X1.06160 Y0.98482
X1.06160 Y0.98682
X1.06260 Y0.98682
X1.06260 Y0.98882
X1.06360 Y0.98882
X1.06360 Y0.99082
X1.06460 Y0.99082
X1.06460 Y0.99282
X1.06560 Y0.99282
X1.06560 Y0.99582
X1.06660 Y0.99582
X1.06660 Y1.00682
X1.06560 Y1.00682
X1.06560 Y1.00982
X1.06460 Y1.00982
X1.06460 Y1.01182
X1.06360 Y1.01182
X1.06360 Y1.01382
X1.06260 Y1.01382
X1.06260 Y1.01482
X1.06160 Y1.01482
X1.06160 Y1.01682
X1.06060 Y1.01682
X1.06060 Y1.01782
X1.05960 Y1.01782
X1.05960 Y1.01882
X1.05860 Y1.01882
X1.05860 Y1.01982
X1.05760 Y1.01982
X1.05760 Y1.02082
X1.05660 Y1.02082
X1.05660 Y1.02182
X1.05560 Y1.02182
X1.05560 Y1.02282
X1.05360 Y1.02282
X1.05360 Y1.02382
X1.05060 Y1.02382
X1.05060 Y1.02482
X1.04860 Y1.02482
X1.04860 Y1.02582
X1.04260 Y1.02582
X1.04260 Y1.02682
X1.03960 Y1.02682
X1.03960 Y1.02582
X1.03560 Y1.02582
X1.03560 Y1.02482
X1.03160 Y1.02482
X1.03160 Y1.02382
X1.02860 Y1.02382
X1.02860 Y1.02282
X1.02760 Y1.02282
X1.02760 Y1.02182
X1.02660 Y1.02182
X1.02660 Y1.02082
G04 P0 ( dwell for no time -- G64 should not smooth over this point )
G00 Z0.19685 ( retract )

G00 X0.65660 Y1.01582 ( rapid move to begin. )
G01 Z-0.01969 F1.96850 ( plunge. )
G04 P0 ( dwell for no time -- G64 should not smooth over this point )
X0.65660 Y1.01582
X0.65560 Y1.01582
X0.65560 Y1.01482
X0.65460 Y1.01482
X0.65460 Y1.01382
X0.65360 Y1.01382
X0.65360 Y1.01282
X0.65260 Y1.01282
X0.65260 Y1.01182
X0.65160 Y1.01182
X0.65160 Y1.01082
X0.65060 Y1.01082
X0.65060 Y1.00982
X0.64960 Y1.00982
X0.64960 Y1.00882
X0.64860 Y1.00882
X0.64860 Y1.00682
X0.64760 Y1.00682
X0.64760 Y1.00482
X0.64660 Y1.00482
X0.64660 Y1.00182
X0.64560 Y1.00182
X0.64560 Y0.99082
X0.64660 Y0.99082
X0.64660 Y0.98782
X0.64760 Y0.98782
X0.64760 Y0.98582
X0.64860 Y0.98582
X0.64860 Y0.98382
X0.64960 Y0.98382
X0.64960 Y0.98182
X0.65060 Y0.98182
X0.65060 Y0.97982
X0.65160 Y0.97982
X0.65160 Y0.97882
X0.65260 Y0.97882
X0.65260 Y0.97782
X0.65460 Y0.97782
X0.65460 Y0.97682
X0.65560 Y0.97682
X0.65560 Y0.97582
X0.65660 Y0.97582
X0.65660 Y0.97482
X0.65760 Y0.97482
X0.65760 Y0.97382
X0.65860 Y0.97382
X0.65860 Y0.97282
X0.66160 Y0.97282
X0.66160 Y0.97182
X0.66560 Y0.97182
X0.66560 Y0.97082
X0.67660 Y0.97082
X0.67660 Y0.97182
X0.68060 Y0.97182
X0.68060 Y0.97282
X0.68360 Y0.97282
X0.68360 Y0.97182
X0.68460 Y0.97182
X0.68460 Y0.97082
X0.68560 Y0.97082
X0.68560 Y0.96982
X0.68660 Y0.96982
X0.68660 Y0.96882
X0.68760 Y0.96882
X0.68760 Y0.96782
X0.68860 Y0.96782
X0.68860 Y0.96682
X0.68960 Y0.96682
X0.68960 Y0.96582
X0.69060 Y0.96582
X0.69060 Y0.96482
X0.69160 Y0.96482
X0.69160 Y0.96382
X0.69260 Y0.96382
X0.69260 Y0.96282
X0.69360 Y0.96282
X0.69360 Y0.96182
X0.69460 Y0.96182
X0.69460 Y0.96082
X0.69560 Y0.96082
X0.69560 Y0.95882
X0.69760 Y0.95882
X0.69760 Y0.95782
X0.82260 Y0.95782
X0.82260 Y0.95682
X0.82360 Y0.95682
X0.82360 Y0.95382
X0.82460 Y0.95382
X0.82460 Y0.95182
X0.82560 Y0.95182
X0.82560 Y0.94982
X0.82660 Y0.94982
X0.82660 Y0.94882
X0.82760 Y0.94882
X0.82760 Y0.94782
X0.82960 Y0.94782
X0.82960 Y0.94682
X0.83060 Y0.94682
X0.83060 Y0.94582
X0.83160 Y0.94582
X0.83160 Y0.94482
X0.83260 Y0.94482
X0.83260 Y0.94382
X0.83360 Y0.94382
X0.83360 Y0.94282
X0.83660 Y0.94282
X0.83660 Y0.94182
X0.84060 Y0.94182
X0.84060 Y0.94082
X0.85160 Y0.94082
X0.85160 Y0.94182
X0.85560 Y0.94182
X0.85560 Y0.94282
X0.85860 Y0.94282
X0.85860 Y0.94382
X0.85960 Y0.94382
X0.85960 Y0.94482
X0.86060 Y0.94482
X0.86060 Y0.94582
X0.86260 Y0.94582
X0.86260 Y0.94682
X0.86360 Y0.94682
X0.86360 Y0.94782
X0.86460 Y0.94782
X0.86460 Y0.94882
X0.86560 Y0.94882
X0.86560 Y0.94982
X0.86660 Y0.94982
X0.86660 Y0.95182
X0.86760 Y0.95182
X0.86760 Y0.95382
X0.86860 Y0.95382
X0.86860 Y0.95582
X0.86960 Y0.95582
X0.86960 Y0.95782
X0.87060 Y0.95782
X0.87060 Y0.96082
X0.87160 Y0.96082
X0.87160 Y0.97182
X0.87060 Y0.97182
X0.87060 Y0.97482
X0.86960 Y0.97482
X0.86960 Y0.97682
X0.86860 Y0.97682
X0.86860 Y0.97882
X0.86760 Y0.97882
X0.86760 Y0.97982
X0.86660 Y0.97982
X0.86660 Y0.98182
X0.86560 Y0.98182
X0.86560 Y0.98282
X0.86460 Y0.98282
X0.86460 Y0.98382
X0.86360 Y0.98382
X0.86360 Y0.98482
X0.86260 Y0.98482
X0.86260 Y0.98582
X0.86160 Y0.98582
X0.86160 Y0.98682
X0.86060 Y0.98682
X0.86060 Y0.98782
X0.85860 Y0.98782
X0.85860 Y0.98882
X0.85560 Y0.98882
X0.85560 Y0.98982
X0.85160 Y0.98982
X0.85160 Y0.99082
X0.84760 Y0.99082
X0.84760 Y0.99182
X0.84460 Y0.99182
X0.84460 Y0.99082
X0.84060 Y0.99082
X0.84060 Y0.98982
X0.83660 Y0.98982
X0.83660 Y0.98882
X0.83360 Y0.98882
X0.83360 Y0.98782
X0.83260 Y0.98782
X0.83260 Y0.98682
X0.83160 Y0.98682
X0.83160 Y0.98582
X0.83060 Y0.98582
X0.83060 Y0.98482
X0.82960 Y0.98482
X0.82960 Y0.98382
X0.82860 Y0.98382
X0.82860 Y0.98282
X0.82760 Y0.98282
X0.82760 Y0.98182
X0.82660 Y0.98182
X0.82660 Y0.98082
X0.82560 Y0.98082
X0.82560 Y0.97982
X0.82460 Y0.97982
X0.82460 Y0.97882
X0.82360 Y0.97882
X0.82360 Y0.97582
X0.82260 Y0.97582
X0.82260 Y0.97482
X0.77260 Y0.97482
X0.77260 Y0.97382
X0.76860 Y0.97382
X0.76860 Y0.97282
X0.74360 Y0.97282
X0.74360 Y0.97382
X0.74060 Y0.97382
X0.74060 Y0.97482
X0.70360 Y0.97482
X0.70360 Y0.97582
X0.70260 Y0.97582
X0.70260 Y0.97682
X0.70160 Y0.97682
X0.70160 Y0.97782
X0.70060 Y0.97782
X0.70060 Y0.97882
X0.69960 Y0.97882
X0.69960 Y0.97982
X0.69860 Y0.97982
X0.69860 Y0.98082
X0.69760 Y0.98082
X0.69760 Y0.98182
X0.69660 Y0.98182
X0.69660 Y0.98282
X0.69560 Y0.98282
X0.69560 Y0.98382
X0.69460 Y0.98382
X0.69460 Y0.98682
X0.69560 Y0.98682
X0.69560 Y0.99082
X0.69660 Y0.99082
X0.69660 Y1.00182
X0.69560 Y1.00182
X0.69560 Y1.00482
X0.69460 Y1.00482
X0.69460 Y1.00682
X0.69360 Y1.00682
X0.69360 Y1.00882
X0.69260 Y1.00882
X0.69260 Y1.00982
X0.69160 Y1.00982
X0.69160 Y1.01182
X0.69060 Y1.01182
X0.69060 Y1.01282
X0.68960 Y1.01282
X0.68960 Y1.01382
X0.68860 Y1.01382
X0.68860 Y1.01482
X0.68760 Y1.01482
X0.68760 Y1.01582
X0.68660 Y1.01582
X0.68660 Y1.01682
X0.68560 Y1.01682
X0.68560 Y1.01782
X0.68360 Y1.01782
X0.68360 Y1.01882
X0.68060 Y1.01882
X0.68060 Y1.01982
X0.67660 Y1.01982
X0.67660 Y1.02082
X0.67260 Y1.02082
X0.67260 Y1.02182
X0.66960 Y1.02182
X0.66960 Y1.02082
X0.66560 Y1.02082
X0.66560 Y1.01982
X0.66160 Y1.01982
X0.66160 Y1.01882
X0.65860 Y1.01882
X0.65860 Y1.01782
X0.65760 Y1.01782
X0.65760 Y1.01682
X0.65660 Y1.01682
X0.65660 Y1.01582
G04 P0 ( dwell for no time -- G64 should not smooth over this point )
G00 Z0.19685 ( retract )

G00 X0.21960 Y0.80882 ( rapid move to begin. )
G01 Z-0.01969 F1.96850 ( plunge. )
G04 P0 ( dwell for no time -- G64 should not smooth over this point )
X0.21960 Y0.80882
X0.21760 Y0.80882
X0.21760 Y0.80782
X0.21660 Y0.80782
X0.21660 Y0.80682
X0.21560 Y0.80682
X0.21560 Y0.80582
X0.21460 Y0.80582
X0.21460 Y0.80382
X0.21360 Y0.80382
X0.21360 Y0.80182
X0.21260 Y0.80182
X0.21260 Y0.79982
X0.21160 Y0.79982
X0.21160 Y0.79782
X0.21060 Y0.79782
X0.21060 Y0.79482
X0.20960 Y0.79482
X0.20960 Y0.78382
X0.21060 Y0.78382
X0.21060 Y0.78082
X0.21160 Y0.78082
X0.21160 Y0.77982
X0.21260 Y0.77982
X0.21260 Y0.77782
X0.21360 Y0.77782
X0.21360 Y0.77582
X0.21460 Y0.77582
X0.21460 Y0.77382
X0.21560 Y0.77382
X0.21560 Y0.77282
X0.21660 Y0.77282
X0.21660 Y0.77182
X0.21760 Y0.77182
X0.21760 Y0.77082
X0.21860 Y0.77082
X0.21860 Y0.76982
X0.21960 Y0.76982
X0.21960 Y0.76882
X0.22160 Y0.76882
X0.22160 Y0.76782
X0.22260 Y0.76782
X0.22260 Y0.76682
X0.22460 Y0.76682
X0.22460 Y0.76582
X0.22660 Y0.76582
X0.22660 Y0.74182
X0.22760 Y0.74182
X0.22760 Y0.73982
X0.22860 Y0.73982
X0.22860 Y0.73882
X0.22960 Y0.73882
X0.22960 Y0.73782
X0.23060 Y0.73782
X0.23060 Y0.73682
X0.23160 Y0.73682
X0.23160 Y0.73582
X0.23260 Y0.73582
X0.23260 Y0.73482
X0.23360 Y0.73482
X0.23360 Y0.73382
X0.23460 Y0.73382
X0.23460 Y0.73282
X0.23560 Y0.73282
X0.23560 Y0.73182
X0.23660 Y0.73182
X0.23660 Y0.73082
X0.23760 Y0.73082
X0.23760 Y0.72982
X0.23860 Y0.72982
X0.23860 Y0.72882
X0.23960 Y0.72882
X0.23960 Y0.72782
X0.24060 Y0.72782
X0.24060 Y0.72682
X0.24160 Y0.72682
X0.24160 Y0.72582
X0.24260 Y0.72582
X0.24260 Y0.72482
X0.24360 Y0.72482
X0.24360 Y0.72382
X0.24460 Y0.72382
X0.24460 Y0.72282
X0.24560 Y0.72282
X0.24560 Y0.72182
X0.24660 Y0.72182
X0.24660 Y0.72082
X0.24760 Y0.72082
X0.24760 Y0.71982
X0.24860 Y0.71982
X0.24860 Y0.71882
X0.24960 Y0.71882
X0.24960 Y0.71782
X0.25060 Y0.71782
X0.25060 Y0.71682
X0.25160 Y0.71682
X0.25160 Y0.71582
X0.25260 Y0.71582
X0.25260 Y0.71482
X0.25360 Y0.71482
X0.25360 Y0.71382
X0.25460 Y0.71382
X0.25460 Y0.71282
X0.25560 Y0.71282
X0.25560 Y0.71182
X0.25660 Y0.71182
X0.25660 Y0.71082
X0.25760 Y0.71082
X0.25760 Y0.70982
X0.25860 Y0.70982
X0.25860 Y0.70882
X0.25960 Y0.70882
X0.25960 Y0.70782
X0.26060 Y0.70782
X0.26060 Y0.70682
X0.26360 Y0.70682
X0.26360 Y0.70582
X0.31660 Y0.70582
X0.31660 Y0.70682
X0.32360 Y0.70682
X0.32360 Y0.70782
X0.33660 Y0.70782
X0.33660 Y0.70682
X0.34360 Y0.70682
X0.34360 Y0.70582
X0.34560 Y0.70582
X0.34560 Y0.70482
X0.34660 Y0.70482
X0.34660 Y0.70382
X0.34760 Y0.70382
X0.34760 Y0.70282
X0.34860 Y0.70282
X0.34860 Y0.70182
X0.34960 Y0.70182
X0.34960 Y0.70082
X0.35060 Y0.70082
X0.35060 Y0.69982
X0.35160 Y0.69982
X0.35160 Y0.69882
X0.35460 Y0.69882
X0.35460 Y0.69782
X0.35560 Y0.69782
X0.35560 Y0.69682
X0.35860 Y0.69682
X0.35860 Y0.69582
X0.38660 Y0.69582
X0.38660 Y0.69482
X0.38760 Y0.69482
X0.38760 Y0.69282
X0.38860 Y0.69282
X0.38860 Y0.69082
X0.38960 Y0.69082
X0.38960 Y0.68882
X0.39060 Y0.68882
X0.39060 Y0.68782
X0.39160 Y0.68782
X0.39160 Y0.68682
X0.39260 Y0.68682
X0.39260 Y0.68582
X0.39360 Y0.68582
X0.39360 Y0.68482
X0.39460 Y0.68482
X0.39460 Y0.68382
X0.39660 Y0.68382
X0.39660 Y0.68282
X0.39760 Y0.68282
X0.39760 Y0.68182
X0.40060 Y0.68182
X0.40060 Y0.68082
X0.40460 Y0.68082
X0.40460 Y0.67982
X0.40860 Y0.67982
X0.40860 Y0.67882
X0.41160 Y0.67882
X0.41160 Y0.67982
X0.41560 Y0.67982
X0.41560 Y0.68082
X0.41960 Y0.68082
X0.41960 Y0.68182
X0.42260 Y0.68182
X0.42260 Y0.68282
X0.42360 Y0.68282
X0.42360 Y0.68382
X0.42560 Y0.68382
X0.42560 Y0.68482
X0.42660 Y0.68482
X0.42660 Y0.68582
X0.42760 Y0.68582
X0.42760 Y0.68682
X0.42860 Y0.68682
X0.42860 Y0.68782
X0.42960 Y0.68782
X0.42960 Y0.68882
X0.43060 Y0.68882
X0.43060 Y0.69082
X0.43160 Y0.69082
X0.43160 Y0.69282
X0.43260 Y0.69282
X0.43260 Y0.69482
X0.43360 Y0.69482
X0.43360 Y0.69582
X0.43460 Y0.69582
X0.43460 Y0.69882
X0.43560 Y0.69882
X0.43560 Y0.70982
X0.43460 Y0.70982
X0.43460 Y0.71282
X0.43360 Y0.71282
X0.43360 Y0.71482
X0.43260 Y0.71482
X0.43260 Y0.71682
X0.43160 Y0.71682
X0.43160 Y0.71882
X0.43060 Y0.71882
X0.43060 Y0.71982
X0.42960 Y0.71982
X0.42960 Y0.72082
X0.42860 Y0.72082
X0.42860 Y0.72182
X0.42760 Y0.72182
X0.42760 Y0.72282
X0.42660 Y0.72282
X0.42660 Y0.72382
X0.42560 Y0.72382
X0.42560 Y0.72482
X0.42360 Y0.72482
X0.42360 Y0.72582
X0.42260 Y0.72582
X0.42260 Y0.72682
X0.42160 Y0.72682
X0.42160 Y0.72782
X0.41960 Y0.72782
X0.41960 Y0.72882
X0.41560 Y0.72882
X0.41560 Y0.72982
X0.40460 Y0.72982
X0.40460 Y0.72882
X0.40060 Y0.72882
X0.40060 Y0.72782
X0.39860 Y0.72782
X0.39860 Y0.72682
X0.39760 Y0.72682
X0.39760 Y0.72582
X0.39660 Y0.72582
X0.39660 Y0.72482
X0.39460 Y0.72482
X0.39460 Y0.72382
X0.39260 Y0.72382
X0.39260 Y0.72282
X0.39160 Y0.72282
X0.39160 Y0.72182
X0.39060 Y0.72182
X0.39060 Y0.72082
X0.38960 Y0.72082
X0.38960 Y0.71882
X0.38860 Y0.71882
X0.38860 Y0.71682
X0.38760 Y0.71682
X0.38760 Y0.71382
X0.38660 Y0.71382
X0.38660 Y0.71282
X0.36360 Y0.71282
X0.36360 Y0.71382
X0.36260 Y0.71382
X0.36260 Y0.71482
X0.36160 Y0.71482
X0.36160 Y0.71582
X0.36060 Y0.71582
X0.36060 Y0.71682
X0.35960 Y0.71682
X0.35960 Y0.71782
X0.35860 Y0.71782
X0.35860 Y0.71882
X0.35760 Y0.71882
X0.35760 Y0.71982
X0.35660 Y0.71982
X0.35660 Y0.72082
X0.35460 Y0.72082
X0.35460 Y0.72182
X0.35260 Y0.72182
X0.35260 Y0.72282
X0.34160 Y0.72282
X0.34160 Y0.72382
X0.33860 Y0.72382
X0.33860 Y0.72282
X0.33460 Y0.72282
X0.33460 Y0.72182
X0.30760 Y0.72182
X0.30760 Y0.72282
X0.30360 Y0.72282
X0.30360 Y0.72382
X0.30060 Y0.72382
X0.30060 Y0.72282
X0.26760 Y0.72282
X0.26760 Y0.72382
X0.26660 Y0.72382
X0.26660 Y0.72482
X0.26560 Y0.72482
X0.26560 Y0.72582
X0.26460 Y0.72582
X0.26460 Y0.72682
X0.26360 Y0.72682
X0.26360 Y0.72782
X0.26260 Y0.72782
X0.26260 Y0.72882
X0.26160 Y0.72882
X0.26160 Y0.72982
X0.26060 Y0.72982
X0.26060 Y0.73082
X0.25960 Y0.73082
X0.25960 Y0.73182
X0.25860 Y0.73182
X0.25860 Y0.73282
X0.25760 Y0.73282
X0.25760 Y0.73382
X0.25660 Y0.73382
X0.25660 Y0.73482
X0.25560 Y0.73482
X0.25560 Y0.73582
X0.25460 Y0.73582
X0.25460 Y0.73682
X0.25360 Y0.73682
X0.25360 Y0.73782
X0.25260 Y0.73782
X0.25260 Y0.73882
X0.25160 Y0.73882
X0.25160 Y0.73982
X0.25060 Y0.73982
X0.25060 Y0.74082
X0.24960 Y0.74082
X0.24960 Y0.74182
X0.24860 Y0.74182
X0.24860 Y0.74282
X0.24760 Y0.74282
