( pcb2gcode 1.1.4 )

( This file uses 2 drill bit sizes. )

G94     ( Inches per minute feed rate. )
G20     ( Units == INCHES.             )
G90     ( Absolute coordinates.        )
S10000  ( RPM spindle speed.           )

G00 Z0.19685 ( Retract )
T37
M5      ( Spindle stop.                )
M6      ( Tool change.                 )
(MSG, CHANGE TOOL BIT: to drill size 0.02500 inch)
M0      ( Temporary machine stop.      )
M3      ( Spindle on clockwise.        )

G81 R0.19685 Z0.00000 F0.98425 X0.18130 Y1.59090
X0.18130 Y1.29590
X0.18130 Y0.90590
X0.18130 Y0.49590
X0.18130 Y0.17590
X0.21260 Y0.81460
X0.30630 Y0.84590
X0.32130 Y1.00090
X0.32760 Y1.18960
X0.32820 Y0.58090
X0.35630 Y1.42090
X0.42320 Y0.49670
X0.42320 Y0.33670
X0.42320 Y0.16170
X0.44130 Y1.20490
X0.45220 Y1.32590
X0.45500 Y0.79590
X0.49130 Y1.06590
X0.51630 Y0.96590
X0.53130 Y1.35090
X0.60630 Y0.99590
X0.62130 Y1.21590
X0.65630 Y1.06590
X0.66130 Y0.11590
X0.69130 Y0.99590
X0.72130 Y1.12090
X0.72190 Y0.56590
X0.72630 Y1.49590
X0.73630 Y1.25090
X0.74630 Y0.76590
X0.80760 Y1.30460
X0.84760 Y1.52960
X0.91630 Y1.02090
X0.92130 Y0.50590
X0.95260 Y0.70460
X0.96630 Y1.49590
X1.00130 Y1.02090
X1.00630 Y1.36590
X1.01820 Y0.61220
X1.03260 Y0.68460
X1.04130 Y1.25220
X1.04130 Y0.74590
X1.07760 Y1.33960
X1.12260 Y0.54960
X1.12760 Y0.78960
X1.12760 Y0.68460
X1.18630 Y1.59090
X1.18630 Y1.29090
X1.18630 Y0.90590
X1.18630 Y0.49590
X1.18630 Y0.17590


G00 Z0.19685 ( Retract )
T38
M5      ( Spindle stop.                )
M6      ( Tool change.                 )
(MSG, CHANGE TOOL BIT: to drill size 0.07900 inch)
M0      ( Temporary machine stop.      )
M3      ( Spindle on clockwise.        )

G81 R0.19685 Z0.00000 F0.98425 X0.11000 Y1.47290
X0.11000 Y1.07920
X0.11000 Y0.68550
X0.11000 Y0.29180
X1.25170 Y1.47290
X1.25170 Y1.07920
X1.25170 Y0.68550
X1.25170 Y0.29180


G00 Z0.19685 ( All done -- retract )

M9 ( Coolant off. )
M2 ( Program end. )

