( pcb2gcode 1.1.4 )

G94     ( Inches per minute feed rate. )
G20     ( Units == INCHES.             )
G90     ( Absolute coordinates.        )
S10000  ( RPM spindle speed.           )
M3      ( Spindle on clockwise.        )

G64 P0.00500 ( set maximum deviation from commanded toolpath )

G04 P0 ( dwell for no time -- G64 should not smooth over this point )
G00 Z0.19685 ( retract )

G00 X0.39500 Y1.67082 ( rapid move to begin. )
G01 Z-0.01969 F1.96850 ( plunge. )
G04 P0 ( dwell for no time -- G64 should not smooth over this point )
X0.39500 Y1.67082
X0.39500 Y1.55282
X0.21300 Y1.55282
X0.21300 Y1.55382
X0.21200 Y1.55382
X0.21200 Y1.55482
X0.21000 Y1.55482
X0.21000 Y1.55582
X0.12300 Y1.55582
X0.12300 Y1.56082
X0.12200 Y1.56082
X0.12200 Y1.66882
X0.12300 Y1.66882
X0.12300 Y1.67082
X0.12400 Y1.67082
X0.12400 Y1.67182
X0.12700 Y1.67182
X0.12700 Y1.67282
X0.12800 Y1.67282
X0.12800 Y1.67382
X0.13000 Y1.67382
X0.13000 Y1.67482
X0.39500 Y1.67482
X0.39500 Y1.67082
G04 P0 ( dwell for no time -- G64 should not smooth over this point )
G00 Z0.19685 ( retract )

G00 X0.55300 Y1.67082 ( rapid move to begin. )
G01 Z-0.01969 F1.96850 ( plunge. )
G04 P0 ( dwell for no time -- G64 should not smooth over this point )
X0.55300 Y1.67082
X0.55300 Y1.40082
X0.55400 Y1.40082
X0.55400 Y1.39882
X0.55600 Y1.39882
X0.55600 Y1.39782
X0.62100 Y1.39782
X0.62100 Y1.39882
X0.62400 Y1.39882
X0.62400 Y1.40082
X0.62500 Y1.40082
X0.62500 Y1.41782
X0.62600 Y1.41782
X0.62600 Y1.41882
X0.62700 Y1.41882
X0.62700 Y1.41982
X0.62800 Y1.41982
X0.62800 Y1.42082
X0.62900 Y1.42082
X0.62900 Y1.42182
X0.63000 Y1.42182
X0.63000 Y1.42282
X0.63600 Y1.42282
X0.63600 Y1.42182
X0.63700 Y1.42182
X0.63700 Y1.42082
X0.63800 Y1.42082
X0.63800 Y1.41982
X0.63900 Y1.41982
X0.63900 Y1.41482
X0.64000 Y1.41482
X0.64000 Y1.41082
X0.64300 Y1.41082
X0.64300 Y1.40982
X0.64700 Y1.40982
X0.64700 Y1.40882
X0.70200 Y1.40882
X0.70200 Y1.40782
X0.70300 Y1.40782
X0.70300 Y1.40382
X0.70200 Y1.40382
X0.70200 Y1.40082
X0.70100 Y1.40082
X0.70100 Y1.39782
X0.70000 Y1.39782
X0.70000 Y1.39682
X0.69900 Y1.39682
X0.69900 Y1.39582
X0.69800 Y1.39582
X0.69800 Y1.39482
X0.69700 Y1.39482
X0.69700 Y1.39382
X0.69600 Y1.39382
X0.69600 Y1.39282
X0.69500 Y1.39282
X0.69500 Y1.39182
X0.69400 Y1.39182
X0.69400 Y1.39082
X0.69300 Y1.39082
X0.69300 Y1.38982
X0.69200 Y1.38982
X0.69200 Y1.38882
X0.69100 Y1.38882
X0.69100 Y1.38782
X0.69000 Y1.38782
X0.69000 Y1.38682
X0.68900 Y1.38682
X0.68900 Y1.38582
X0.68800 Y1.38582
X0.68800 Y1.38482
X0.68700 Y1.38482
X0.68700 Y1.38382
X0.68600 Y1.38382
X0.68600 Y1.38282
X0.68500 Y1.38282
X0.68500 Y1.38182
X0.68400 Y1.38182
X0.68400 Y1.38082
X0.68300 Y1.38082
X0.68300 Y1.37982
X0.68200 Y1.37982
X0.68200 Y1.37882
X0.68100 Y1.37882
X0.68100 Y1.37782
X0.68000 Y1.37782
X0.68000 Y1.37682
X0.67900 Y1.37682
X0.67900 Y1.37582
X0.67800 Y1.37582
X0.67800 Y1.37482
X0.67700 Y1.37482
X0.67700 Y1.37382
X0.67600 Y1.37382
X0.67600 Y1.37282
X0.67500 Y1.37282
X0.67500 Y1.37182
X0.67400 Y1.37182
X0.67400 Y1.37082
X0.67300 Y1.37082
X0.67300 Y1.36982
X0.67200 Y1.36982
X0.67200 Y1.36882
X0.67100 Y1.36882
X0.67100 Y1.36782
X0.67000 Y1.36782
X0.67000 Y1.36682
X0.66900 Y1.36682
X0.66900 Y1.36582
X0.66800 Y1.36582
X0.66800 Y1.36482
X0.66700 Y1.36482
X0.66700 Y1.36382
X0.66600 Y1.36382
X0.66600 Y1.36282
X0.66500 Y1.36282
X0.66500 Y1.36182
X0.66400 Y1.36182
X0.66400 Y1.36082
X0.66300 Y1.36082
X0.66300 Y1.35982
X0.66200 Y1.35982
X0.66200 Y1.35882
X0.66100 Y1.35882
X0.66100 Y1.35782
X0.65800 Y1.35782
X0.65800 Y1.35682
X0.55300 Y1.35682
X0.55300 Y1.35882
X0.55200 Y1.35882
X0.55200 Y1.36182
X0.55100 Y1.36182
X0.55100 Y1.36282
X0.55000 Y1.36282
X0.55000 Y1.36382
X0.54900 Y1.36382
X0.54900 Y1.36582
X0.54800 Y1.36582
X0.54800 Y1.36682
X0.54700 Y1.36682
X0.54700 Y1.36782
X0.54600 Y1.36782
X0.54600 Y1.36882
X0.54400 Y1.36882
X0.54400 Y1.36982
X0.54300 Y1.36982
X0.54300 Y1.37082
X0.54200 Y1.37082
X0.54200 Y1.37182
X0.53900 Y1.37182
X0.53900 Y1.37282
X0.53500 Y1.37282
X0.53500 Y1.37382
X0.52800 Y1.37382
X0.52800 Y1.37282
X0.52400 Y1.37282
X0.52400 Y1.37182
X0.52100 Y1.37182
X0.52100 Y1.37082
X0.51900 Y1.37082
X0.51900 Y1.36982
X0.51800 Y1.36982
X0.51800 Y1.36882
X0.51700 Y1.36882
X0.51700 Y1.36782
X0.51600 Y1.36782
X0.51600 Y1.36682
X0.51500 Y1.36682
X0.51500 Y1.36582
X0.51400 Y1.36582
X0.51400 Y1.36482
X0.51300 Y1.36482
X0.51300 Y1.36282
X0.51200 Y1.36282
X0.51200 Y1.36182
X0.51100 Y1.36182
X0.51100 Y1.35982
X0.51000 Y1.35982
X0.51000 Y1.35682
X0.50900 Y1.35682
X0.50900 Y1.34582
X0.51000 Y1.34582
X0.51000 Y1.34282
X0.51100 Y1.34282
X0.51100 Y1.34082
X0.51200 Y1.34082
X0.51200 Y1.33882
X0.51300 Y1.33882
X0.51300 Y1.33682
X0.51400 Y1.33682
X0.51400 Y1.33582
X0.51500 Y1.33582
X0.51500 Y1.33482
X0.51600 Y1.33482
X0.51600 Y1.33382
X0.51700 Y1.33382
X0.51700 Y1.33282
X0.51900 Y1.33282
X0.51900 Y1.33182
X0.52000 Y1.33182
X0.52000 Y1.33082
X0.52100 Y1.33082
X0.52100 Y1.32982
X0.52600 Y1.32982
X0.52600 Y1.32882
X0.52900 Y1.32882
X0.52900 Y1.32782
X0.53000 Y1.32782
X0.53000 Y1.32682
X0.53100 Y1.32682
X0.53100 Y1.32582
X0.53200 Y1.32582
X0.53200 Y1.32382
X0.53000 Y1.32382
X0.53000 Y1.32282
X0.52900 Y1.32282
X0.52900 Y1.32182
X0.51500 Y1.32182
X0.51500 Y1.32282
X0.51200 Y1.32282
X0.51200 Y1.32382
X0.51100 Y1.32382
X0.51100 Y1.32482
X0.51000 Y1.32482
X0.51000 Y1.32582
X0.50900 Y1.32582
X0.50900 Y1.32682
X0.50800 Y1.32682
X0.50800 Y1.32782
X0.50700 Y1.32782
X0.50700 Y1.32882
X0.50600 Y1.32882
X0.50600 Y1.32982
X0.50500 Y1.32982
X0.50500 Y1.33082
X0.50400 Y1.33082
X0.50400 Y1.33182
X0.50300 Y1.33182
X0.50300 Y1.33282
X0.50200 Y1.33282
X0.50200 Y1.33382
X0.50100 Y1.33382
X0.50100 Y1.33482
X0.50000 Y1.33482
X0.50000 Y1.33582
X0.49900 Y1.33582
X0.49900 Y1.33682
X0.49800 Y1.33682
X0.49800 Y1.33982
X0.49700 Y1.33982
X0.49700 Y1.36282
X0.49600 Y1.36282
X0.49600 Y1.36382
X0.49500 Y1.36382
X0.49500 Y1.36582
X0.49400 Y1.36582
X0.49400 Y1.36682
X0.49300 Y1.36682
X0.49300 Y1.36782
X0.49200 Y1.36782
X0.49200 Y1.36882
X0.49100 Y1.36882
X0.49100 Y1.36982
X0.49000 Y1.36982
X0.49000 Y1.37082
X0.48900 Y1.37082
X0.48900 Y1.37182
X0.48800 Y1.37182
X0.48800 Y1.37282
X0.48700 Y1.37282
X0.48700 Y1.37382
X0.48600 Y1.37382
X0.48600 Y1.37482
X0.48400 Y1.37482
X0.48400 Y1.37582
X0.48300 Y1.37582
X0.48300 Y1.37682
X0.34900 Y1.37682
X0.34900 Y1.37582
X0.34800 Y1.37582
X0.34800 Y1.37482
X0.34700 Y1.37482
X0.34700 Y1.37382
X0.34600 Y1.37382
X0.34600 Y1.37282
X0.34500 Y1.37282
X0.34500 Y1.37182
X0.34400 Y1.37182
X0.34400 Y1.37082
X0.34300 Y1.37082
X0.34300 Y1.36982
X0.34200 Y1.36982
X0.34200 Y1.36882
X0.34100 Y1.36882
X0.34100 Y1.36782
X0.34000 Y1.36782
X0.34000 Y1.36682
X0.33900 Y1.36682
X0.33900 Y1.36582
X0.33800 Y1.36582
X0.33800 Y1.36482
X0.33700 Y1.36482
X0.33700 Y1.36382
X0.33600 Y1.36382
X0.33600 Y1.29682
X0.33500 Y1.29682
X0.33500 Y1.29382
X0.33400 Y1.29382
X0.33400 Y1.29282
X0.33300 Y1.29282
X0.33300 Y1.29182
X0.33200 Y1.29182
X0.33200 Y1.29082
X0.32900 Y1.29082
X0.32900 Y1.28982
X0.30500 Y1.28982
X0.30500 Y1.28882
X0.30300 Y1.28882
X0.30300 Y1.28782
X0.30200 Y1.28782
X0.30200 Y1.28682
X0.30100 Y1.28682
X0.30100 Y1.28582
X0.30000 Y1.28582
X0.30000 Y1.28482
X0.29900 Y1.28482
X0.29900 Y1.28382
X0.29800 Y1.28382
X0.29800 Y1.28282
X0.29700 Y1.28282
X0.29700 Y1.28182
X0.29600 Y1.28182
X0.29600 Y1.28082
X0.29500 Y1.28082
X0.29500 Y1.27982
X0.29400 Y1.27982
X0.29400 Y1.27882
X0.29300 Y1.27882
X0.29300 Y1.27782
X0.29200 Y1.27782
X0.29200 Y1.27682
X0.29100 Y1.27682
X0.29100 Y1.27582
X0.29000 Y1.27582
X0.29000 Y1.27482
X0.28900 Y1.27482
X0.28900 Y1.27382
X0.28800 Y1.27382
X0.28800 Y1.27282
X0.28700 Y1.27282
X0.28700 Y1.27182
X0.28600 Y1.27182
X0.28600 Y1.27082
X0.28500 Y1.27082
X0.28500 Y1.26982
X0.28400 Y1.26982
X0.28400 Y1.26782
X0.28300 Y1.26782
X0.28300 Y1.26682
X0.28200 Y1.26682
X0.28200 Y1.17682
X0.28300 Y1.17682
X0.28300 Y1.17582
X0.28400 Y1.17582
X0.28400 Y1.17482
X0.28500 Y1.17482
X0.28500 Y1.17382
X0.28600 Y1.17382
X0.28600 Y1.17282
X0.28700 Y1.17282
X0.28700 Y1.17182
X0.28800 Y1.17182
X0.28800 Y1.17082
X0.28900 Y1.17082
X0.28900 Y1.16982
X0.29000 Y1.16982
X0.29000 Y1.16882
X0.29100 Y1.16882
X0.29100 Y1.16782
X0.29200 Y1.16782
X0.29200 Y1.16682
X0.29300 Y1.16682
X0.29300 Y1.16582
X0.29400 Y1.16582
X0.29400 Y1.16482
X0.29500 Y1.16482
X0.29500 Y1.16382
X0.29600 Y1.16382
X0.29600 Y1.16282
X0.29700 Y1.16282
X0.29700 Y1.16182
X0.29800 Y1.16182
X0.29800 Y1.16082
X0.29900 Y1.16082
X0.29900 Y1.15982
X0.30000 Y1.15982
X0.30000 Y1.15882
X0.30100 Y1.15882
X0.30100 Y1.15782
X0.30200 Y1.15782
X0.30200 Y1.15682
X0.30300 Y1.15682
X0.30300 Y1.15582
X0.30400 Y1.15582
X0.30400 Y1.15482
X0.30500 Y1.15482
X0.30500 Y1.15382
X0.34600 Y1.15382
X0.34600 Y1.15482
X0.35000 Y1.15482
X0.35000 Y1.15582
X0.35300 Y1.15582
X0.35300 Y1.13482
X0.35400 Y1.13482
X0.35400 Y1.13282
X0.35600 Y1.13282
X0.35600 Y1.13182
X0.36300 Y1.13182
X0.36300 Y1.12882
X0.36200 Y1.12882
X0.36200 Y1.12582
X0.36100 Y1.12582
X0.36100 Y1.12282
X0.36000 Y1.12282
X0.36000 Y1.12182
X0.35900 Y1.12182
X0.35900 Y1.12082
X0.35800 Y1.12082
X0.35800 Y1.11982
X0.35700 Y1.11982
X0.35700 Y1.11882
X0.35600 Y1.11882
X0.35600 Y1.11782
X0.35500 Y1.11782
X0.35500 Y1.11682
X0.35400 Y1.11682
X0.35400 Y1.11582
X0.35300 Y1.11582
X0.35300 Y1.11482
X0.35200 Y1.11482
X0.35200 Y1.11382
X0.35100 Y1.11382
X0.35100 Y1.11282
X0.35000 Y1.11282
X0.35000 Y1.11182
X0.34900 Y1.11182
X0.34900 Y1.11082
X0.34800 Y1.11082
X0.34800 Y1.10982
X0.34700 Y1.10982
X0.34700 Y1.10882
X0.34600 Y1.10882
X0.34600 Y1.10782
X0.34500 Y1.10782
X0.34500 Y1.10682
X0.34400 Y1.10682
X0.34400 Y1.10582
X0.34300 Y1.10582
X0.34300 Y1.10482
X0.34200 Y1.10482
X0.34200 Y1.10382
X0.34100 Y1.10382
X0.34100 Y1.10282
X0.34000 Y1.10282
X0.34000 Y1.10182
X0.33900 Y1.10182
X0.33900 Y1.10082
X0.33800 Y1.10082
X0.33800 Y1.09982
X0.33700 Y1.09982
X0.33700 Y1.09882
X0.33600 Y1.09882
X0.33600 Y1.09782
X0.33500 Y1.09782
X0.33500 Y1.09682
X0.33400 Y1.09682
X0.33400 Y1.09582
X0.33300 Y1.09582
X0.33300 Y1.09482
X0.33200 Y1.09482
X0.33200 Y1.09382
X0.32900 Y1.09382
X0.32900 Y1.09282
X0.32600 Y1.09282
X0.32600 Y1.09182
X0.32300 Y1.09182
X0.32300 Y1.09082
X0.26800 Y1.09082
X0.26800 Y1.08982
X0.26500 Y1.08982
X0.26500 Y1.08682
X0.26400 Y1.08682
X0.26400 Y1.03482
X0.26500 Y1.03482
X0.26500 Y1.03182
X0.26800 Y1.03182
X0.26800 Y1.03082
X0.31400 Y1.03082
X0.31400 Y1.02982
X0.31500 Y1.02982
X0.31500 Y1.02282
X0.31400 Y1.02282
X0.31400 Y1.02182
X0.31100 Y1.02182
X0.31100 Y1.02082
X0.30900 Y1.02082
X0.30900 Y1.01982
X0.30800 Y1.01982
X0.30800 Y1.01882
X0.30700 Y1.01882
X0.30700 Y1.01782
X0.30600 Y1.01782
X0.30600 Y1.01682
X0.30500 Y1.01682
X0.30500 Y1.01582
X0.30400 Y1.01582
X0.30400 Y1.01482
X0.30300 Y1.01482
X0.30300 Y1.01282
X0.30200 Y1.01282
X0.30200 Y1.01182
X0.30100 Y1.01182
X0.30100 Y1.00982
X0.30000 Y1.00982
X0.30000 Y1.00682
X0.29900 Y1.00682
X0.29900 Y0.99582
X0.30000 Y0.99582
X0.30000 Y0.99282
X0.30100 Y0.99282
X0.30100 Y0.99082
X0.30200 Y0.99082
X0.30200 Y0.98882
X0.30300 Y0.98882
X0.30300 Y0.98682
X0.30400 Y0.98682
X0.30400 Y0.98582
X0.30500 Y0.98582
X0.30500 Y0.98482
X0.30600 Y0.98482
X0.30600 Y0.98382
X0.30700 Y0.98382
X0.30700 Y0.98282
X0.30900 Y0.98282
X0.30900 Y0.98182
X0.31000 Y0.98182
X0.31000 Y0.98082
X0.31100 Y0.98082
X0.31100 Y0.97882
X0.31200 Y0.97882
X0.31200 Y0.97782
X0.31300 Y0.97782
X0.31300 Y0.97582
X0.31400 Y0.97582
X0.31400 Y0.97382
X0.31300 Y0.97382
X0.31300 Y0.97282
X0.26800 Y0.97282
X0.26800 Y0.97182
X0.26500 Y0.97182
X0.26500 Y0.96882
X0.26400 Y0.96882
X0.26400 Y0.91582
X0.26500 Y0.91582
X0.26500 Y0.91382
X0.26800 Y0.91382
X0.26800 Y0.91282
X0.30700 Y0.91282
X0.30700 Y0.91182
X0.30800 Y0.91182
X0.30800 Y0.90982
X0.30700 Y0.90982
X0.30700 Y0.87682
X0.30800 Y0.87682
X0.30800 Y0.87282
X0.30900 Y0.87282
X0.30900 Y0.87082
X0.30800 Y0.87082
X0.30800 Y0.86982
X0.30700 Y0.86982
X0.30700 Y0.86882
X0.30300 Y0.86882
X0.30300 Y0.86782
X0.29900 Y0.86782
X0.29900 Y0.86682
X0.29600 Y0.86682
X0.29600 Y0.86582
X0.29400 Y0.86582
X0.29400 Y0.86482
X0.29300 Y0.86482
X0.29300 Y0.86382
X0.29200 Y0.86382
X0.29200 Y0.86282
X0.29100 Y0.86282
X0.29100 Y0.86182
X0.29000 Y0.86182
X0.29000 Y0.86082
X0.28900 Y0.86082
X0.28900 Y0.85982
X0.28800 Y0.85982
X0.28800 Y0.85782
X0.28700 Y0.85782
X0.28700 Y0.85682
X0.28600 Y0.85682
X0.28600 Y0.85482
X0.28500 Y0.85482
X0.28500 Y0.85182
X0.28400 Y0.85182
X0.28400 Y0.84082
X0.28500 Y0.84082
X0.28500 Y0.83582
X0.28400 Y0.83582
X0.28400 Y0.83282
X0.28300 Y0.83282
X0.28300 Y0.83182
X0.28200 Y0.83182
X0.28200 Y0.83082
X0.28100 Y0.83082
X0.28100 Y0.82982
X0.28000 Y0.82982
X0.28000 Y0.82882
X0.27900 Y0.82882
X0.27900 Y0.82782
X0.27800 Y0.82782
X0.27800 Y0.82682
X0.27700 Y0.82682
X0.27700 Y0.82582
X0.27600 Y0.82582
X0.27600 Y0.82482
X0.27500 Y0.82482
X0.27500 Y0.82382
X0.27400 Y0.82382
X0.27400 Y0.82282
X0.27300 Y0.82282
X0.27300 Y0.82182
X0.27200 Y0.82182
X0.27200 Y0.82082
X0.27100 Y0.82082
X0.27100 Y0.81982
X0.27000 Y0.81982
X0.27000 Y0.81882
X0.26900 Y0.81882
X0.26900 Y0.81782
X0.26800 Y0.81782
X0.26800 Y0.81682
X0.26700 Y0.81682
X0.26700 Y0.55782
X0.26600 Y0.55782
X0.26600 Y0.55482
X0.26500 Y0.55482
X0.26500 Y0.55382
X0.26400 Y0.55382
X0.26400 Y0.55282
X0.26300 Y0.55282
X0.26300 Y0.55182
X0.26200 Y0.55182
X0.26200 Y0.55082
X0.26100 Y0.55082
X0.26100 Y0.54982
X0.26000 Y0.54982
X0.26000 Y0.54882
X0.25900 Y0.54882
X0.25900 Y0.54782
X0.25800 Y0.54782
X0.25800 Y0.54682
X0.25700 Y0.54682
X0.25700 Y0.54582
X0.25600 Y0.54582
X0.25600 Y0.54482
X0.25500 Y0.54482
X0.25500 Y0.54382
X0.25400 Y0.54382
X0.25400 Y0.54282
X0.25300 Y0.54282
X0.25300 Y0.54182
X0.25200 Y0.54182
X0.25200 Y0.54082
X0.25100 Y0.54082
X0.25100 Y0.53982
X0.25000 Y0.53982
X0.25000 Y0.53882
X0.24900 Y0.53882
X0.24900 Y0.53782
X0.24800 Y0.53782
X0.24800 Y0.53682
X0.24700 Y0.53682
X0.24700 Y0.53582
X0.24600 Y0.53582
X0.24600 Y0.53482
X0.24500 Y0.53482
X0.24500 Y0.53382
X0.24400 Y0.53382
X0.24400 Y0.53282
X0.24300 Y0.53282
X0.24300 Y0.53182
X0.24200 Y0.53182
X0.24200 Y0.53082
X0.24100 Y0.53082
X0.24100 Y0.52982
X0.24000 Y0.52982
X0.24000 Y0.52882
X0.23900 Y0.52882
X0.23900 Y0.52782
X0.23800 Y0.52782
X0.23800 Y0.52682
X0.23700 Y0.52682
X0.23700 Y0.52582
X0.23600 Y0.52582
X0.23600 Y0.52482
X0.23500 Y0.52482
X0.23500 Y0.52382
X0.23400 Y0.52382
X0.23400 Y0.52282
X0.23300 Y0.52282
X0.23300 Y0.52182
X0.23200 Y0.52182
X0.23200 Y0.52082
X0.23100 Y0.52082
X0.23100 Y0.51982
X0.23000 Y0.51982
X0.23000 Y0.51882
X0.22900 Y0.51882
X0.22900 Y0.51782
X0.22800 Y0.51782
X0.22800 Y0.51682
X0.22700 Y0.51682
X0.22700 Y0.41782
X0.22600 Y0.41782
X0.22600 Y0.41482
X0.22500 Y0.41482
X0.22500 Y0.41382
X0.22400 Y0.41382
X0.22400 Y0.41282
X0.22300 Y0.41282
X0.22300 Y0.41182
X0.22200 Y0.41182
X0.22200 Y0.41082
X0.22100 Y0.41082
X0.22100 Y0.40982
X0.22000 Y0.40982
X0.22000 Y0.40882
X0.21900 Y0.40882
X0.21900 Y0.40782
X0.21800 Y0.40782
X0.21800 Y0.40682
X0.21700 Y0.40682
X0.21700 Y0.40582
X0.21600 Y0.40582
X0.21600 Y0.40482
X0.21500 Y0.40482
X0.21500 Y0.40382
X0.21400 Y0.40382
X0.21400 Y0.40282
X0.21300 Y0.40282
X0.21300 Y0.40182
X0.21200 Y0.40182
X0.21200 Y0.40082
X0.21100 Y0.40082
X0.21100 Y0.39982
X0.21000 Y0.39982
X0.21000 Y0.39882
X0.20900 Y0.39882
X0.20900 Y0.39782
X0.20800 Y0.39782
X0.20800 Y0.39682
X0.20700 Y0.39682
X0.20700 Y0.39582
X0.20600 Y0.39582
X0.20600 Y0.39482
X0.20500 Y0.39482
X0.20500 Y0.39382
X0.20400 Y0.39382
X0.20400 Y0.39282
X0.20300 Y0.39282
X0.20300 Y0.39182
X0.20200 Y0.39182
X0.20200 Y0.39082
X0.20100 Y0.39082
X0.20100 Y0.38982
X0.20000 Y0.38982
X0.20000 Y0.38882
X0.19900 Y0.38882
X0.19900 Y0.38782
X0.19800 Y0.38782
X0.19800 Y0.38682
X0.19700 Y0.38682
X0.19700 Y0.38582
X0.19600 Y0.38582
X0.19600 Y0.38482
X0.19500 Y0.38482
X0.19500 Y0.38382
X0.19400 Y0.38382
X0.19400 Y0.38282
X0.19300 Y0.38282
X0.19300 Y0.38182
X0.19200 Y0.38182
X0.19200 Y0.38082
X0.19100 Y0.38082
X0.19100 Y0.37982
X0.19000 Y0.37982
X0.19000 Y0.37882
X0.18900 Y0.37882
X0.18900 Y0.37782
X0.18600 Y0.37782
X0.18600 Y0.37682
X0.18300 Y0.37682
X0.18300 Y0.37582
X0.18000 Y0.37582
X0.18000 Y0.37482
X0.12300 Y0.37482
X0.12300 Y0.37982
X0.12200 Y0.37982
X0.12200 Y0.59782
X0.12300 Y0.59782
X0.12300 Y0.60282
X0.21000 Y0.60282
X0.21000 Y0.60382
X0.21200 Y0.60382
X0.21200 Y0.60582
X0.21300 Y0.60582
X0.21300 Y0.76482
X0.21200 Y0.76482
X0.21200 Y0.76782
X0.20900 Y0.76782
X0.20900 Y0.76882
X0.18100 Y0.76882
X0.18100 Y0.77182
X0.18200 Y0.77182
X0.18200 Y0.77482
X0.18300 Y0.77482
X0.18300 Y0.77782
X0.18400 Y0.77782
X0.18400 Y0.77882
X0.18500 Y0.77882
X0.18500 Y0.77982
X0.18600 Y0.77982
X0.18600 Y0.78082
X0.18700 Y0.78082
X0.18700 Y0.78182
X0.18800 Y0.78182
X0.18800 Y0.78282
X0.18900 Y0.78282
X0.18900 Y0.78382
X0.19000 Y0.78382
X0.19000 Y0.78482
X0.19100 Y0.78482
X0.19100 Y0.78582
X0.19200 Y0.78582
X0.19200 Y0.78682
X0.19300 Y0.78682
X0.19300 Y0.78782
X0.19400 Y0.78782
X0.19400 Y0.78882
X0.19500 Y0.78882
X0.19500 Y0.78982
X0.19600 Y0.78982
X0.19600 Y0.79082
X0.19700 Y0.79082
X0.19700 Y0.79182
X0.19800 Y0.79182
X0.19800 Y0.79282
X0.19900 Y0.79282
X0.19900 Y0.79382
X0.20500 Y0.79382
X0.20500 Y0.79282
X0.20900 Y0.79282
X0.20900 Y0.79182
X0.21600 Y0.79182
X0.21600 Y0.79282
X0.22000 Y0.79282
X0.22000 Y0.79382
X0.22300 Y0.79382
X0.22300 Y0.79482
X0.22400 Y0.79482
X0.22400 Y0.79582
X0.22600 Y0.79582
X0.22600 Y0.79682
X0.22700 Y0.79682
X0.22700 Y0.79782
X0.22800 Y0.79782
X0.22800 Y0.79882
X0.22900 Y0.79882
X0.22900 Y0.79982
X0.23000 Y0.79982
X0.23000 Y0.80082
X0.23100 Y0.80082
X0.23100 Y0.80282
X0.23200 Y0.80282
X0.23200 Y0.80482
X0.23300 Y0.80482
X0.23300 Y0.80682
X0.23400 Y0.80682
X0.23400 Y0.80882
X0.23500 Y0.80882
X0.23500 Y0.81982
X0.23400 Y0.81982
X0.23400 Y0.82282
X0.23300 Y0.82282
X0.23300 Y0.82482
X0.23200 Y0.82482
X0.23200 Y0.82682
X0.23100 Y0.82682
X0.23100 Y0.82882
X0.23000 Y0.82882
X0.23000 Y0.82982
X0.22900 Y0.82982
X0.22900 Y0.83082
X0.22800 Y0.83082
X0.22800 Y0.83182
X0.22600 Y0.83182
X0.22600 Y0.83282
X0.22400 Y0.83282
X0.22400 Y0.83382
X0.22300 Y0.83382
X0.22300 Y0.83482
X0.22200 Y0.83482
X0.22200 Y0.83582
X0.21800 Y0.83582
X0.21800 Y0.83682
X0.20700 Y0.83682
X0.20700 Y0.83582
X0.20300 Y0.83582
X0.20300 Y0.83482
X0.20200 Y0.83482
X0.20200 Y0.83382
X0.20100 Y0.83382
X0.20100 Y0.83282
X0.19900 Y0.83282
X0.19900 Y0.83182
X0.19800 Y0.83182
X0.19800 Y0.83082
X0.19700 Y0.83082
X0.19700 Y0.82982
X0.19600 Y0.82982
X0.19600 Y0.82882
X0.19500 Y0.82882
X0.19500 Y0.82782
X0.19400 Y0.82782
X0.19400 Y0.82682
X0.19300 Y0.82682
X0.19300 Y0.82482
X0.19200 Y0.82482
X0.19200 Y0.82282
X0.19100 Y0.82282
X0.19100 Y0.81982
X0.19000 Y0.81982
X0.19000 Y0.80882
X0.19100 Y0.80882
X0.19100 Y0.79982
X0.19000 Y0.79982
X0.19000 Y0.79882
X0.18900 Y0.79882
X0.18900 Y0.79782
X0.18800 Y0.79782
X0.18800 Y0.79682
X0.18700 Y0.79682
X0.18700 Y0.79582
X0.18600 Y0.79582
X0.18600 Y0.79482
X0.18500 Y0.79482
X0.18500 Y0.79382
X0.18400 Y0.79382
X0.18400 Y0.79282
X0.18300 Y0.79282
X0.18300 Y0.79182
X0.18200 Y0.79182
X0.18200 Y0.79082
X0.18100 Y0.79082
X0.18100 Y0.78982
X0.18000 Y0.78982
X0.18000 Y0.78882
X0.17900 Y0.78882
X0.17900 Y0.78782
X0.17800 Y0.78782
X0.17800 Y0.78682
X0.17700 Y0.78682
X0.17700 Y0.78582
X0.17600 Y0.78582
X0.17600 Y0.78482
X0.17500 Y0.78482
X0.17500 Y0.78382
X0.17400 Y0.78382
X0.17400 Y0.78282
X0.17300 Y0.78282
X0.17300 Y0.78182
X0.17200 Y0.78182
X0.17200 Y0.78082
X0.17100 Y0.78082
X0.17100 Y0.77982
X0.17000 Y0.77982
X0.17000 Y0.77882
X0.16900 Y0.77882
X0.16900 Y0.77782
X0.16800 Y0.77782
X0.16800 Y0.77682
X0.16700 Y0.77682
X0.16700 Y0.77582
X0.16600 Y0.77582
X0.16600 Y0.77482
X0.16500 Y0.77482
X0.16500 Y0.77382
X0.16400 Y0.77382
X0.16400 Y0.77282
X0.16300 Y0.77282
X0.16300 Y0.77182
X0.16000 Y0.77182
X0.16000 Y0.77082
X0.15700 Y0.77082
X0.15700 Y0.76982
X0.15400 Y0.76982
X0.15400 Y0.76882
X0.12300 Y0.76882
X0.12300 Y0.77382
X0.12200 Y0.77382
X0.12200 Y0.99082
X0.12300 Y0.99082
X0.12300 Y0.99982
X0.12200 Y0.99982
X0.12200 Y1.20382
X0.12300 Y1.20382
X0.12300 Y1.21082
X0.12200 Y1.21082
X0.12200 Y1.38482
X0.12300 Y1.38482
X0.12300 Y1.38982
X0.20900 Y1.38982
X0.20900 Y1.39082
X0.21200 Y1.39082
X0.21200 Y1.39282
X0.21300 Y1.39282
X0.21300 Y1.51882
X0.39500 Y1.51882
X0.39500 Y1.40082
X0.39600 Y1.40082
X0.39600 Y1.39882
X0.39900 Y1.39882
X0.39900 Y1.39782
X0.46400 Y1.39782
X0.46400 Y1.39882
X0.46600 Y1.39882
X0.46600 Y1.40082
X0.46700 Y1.40082
X0.46700 Y1.67482
X0.55300 Y1.67482
X0.55300 Y1.67082
G04 P0 ( dwell for no time -- G64 should not smooth over this point )
G00 Z0.19685 ( retract )

G00 X1.23900 Y1.67082 ( rapid move to begin. )
G01 Z-0.01969 F1.96850 ( plunge. )
G04 P0 ( dwell for no time -- G64 should not smooth over this point )
X1.23900 Y1.67082
X1.23900 Y1.56082
X1.23800 Y1.56082
X1.23800 Y1.55582
X1.15200 Y1.55582
X1.15200 Y1.55482
X1.15000 Y1.55482
X1.15000 Y1.55182
X1.14900 Y1.55182
X1.14900 Y1.42382
X1.14800 Y1.42382
X1.14800 Y1.42082
X1.14700 Y1.42082
X1.14700 Y1.41782
X1.14600 Y1.41782
X1.14600 Y1.41482
X1.14500 Y1.41482
X1.14500 Y1.41382
X1.14400 Y1.41382
X1.14400 Y1.41282
X1.14300 Y1.41282
X1.14300 Y1.41182
X1.14200 Y1.41182
X1.14200 Y1.41082
X1.14100 Y1.41082
X1.14100 Y1.40982
X1.14000 Y1.40982
X1.14000 Y1.40882
X1.13900 Y1.40882
X1.13900 Y1.40782
X1.13800 Y1.40782
X1.13800 Y1.40682
X1.13700 Y1.40682
X1.13700 Y1.40582
X1.13600 Y1.40582
X1.13600 Y1.40482
X1.13500 Y1.40482
X1.13500 Y1.40382
X1.13400 Y1.40382
X1.13400 Y1.40282
X1.13300 Y1.40282
X1.13300 Y1.40182
X1.13200 Y1.40182
X1.13200 Y1.40082
X1.13100 Y1.40082
X1.13100 Y1.39982
X1.13000 Y1.39982
X1.13000 Y1.39882
X1.12900 Y1.39882
X1.12900 Y1.39782
X1.12800 Y1.39782
X1.12800 Y1.39682
X1.12700 Y1.39682
X1.12700 Y1.39582
X1.12600 Y1.39582
X1.12600 Y1.39482
X1.12500 Y1.39482
X1.12500 Y1.39382
X1.12400 Y1.39382
X1.12400 Y1.39282
X1.12300 Y1.39282
X1.12300 Y1.39182
X1.12200 Y1.39182
X1.12200 Y1.39082
X1.11900 Y1.39082
X1.11900 Y1.38982
X1.02200 Y1.38982
X1.02200 Y1.38882
X1.02100 Y1.38882
X1.02100 Y1.38782
X1.02000 Y1.38782
X1.02000 Y1.38682
X1.01300 Y1.38682
X1.01300 Y1.38782
X1.01000 Y1.38782
X1.01000 Y1.38882
X1.00300 Y1.38882
X1.00300 Y1.38782
X0.99900 Y1.38782
X0.99900 Y1.38682
X0.99600 Y1.38682
X0.99600 Y1.38582
X0.99400 Y1.38582
X0.99400 Y1.38482
X0.99300 Y1.38482
X0.99300 Y1.38382
X0.99200 Y1.38382
X0.99200 Y1.38282
X0.99100 Y1.38282
X0.99100 Y1.38182
X0.99000 Y1.38182
X0.99000 Y1.38082
X0.98900 Y1.38082
X0.98900 Y1.37982
X0.98800 Y1.37982
X0.98800 Y1.37782
X0.98700 Y1.37782
X0.98700 Y1.37682
X0.98600 Y1.37682
X0.98600 Y1.37482
X0.98500 Y1.37482
X0.98500 Y1.37182
X0.98400 Y1.37182
X0.98400 Y1.36082
X0.98500 Y1.36082
X0.98500 Y1.35782
X0.98600 Y1.35782
X0.98600 Y1.35582
X0.98700 Y1.35582
X0.98700 Y1.35382
X0.98800 Y1.35382
X0.98800 Y1.35182
X0.98900 Y1.35182
X0.98900 Y1.35082
X0.99000 Y1.35082
X0.99000 Y1.34982
X0.99100 Y1.34982
X0.99100 Y1.34882
X0.99200 Y1.34882
X0.99200 Y1.34782
X0.99400 Y1.34782
X0.99400 Y1.34682
X0.99500 Y1.34682
X0.99500 Y1.34582
X0.99600 Y1.34582
X0.99600 Y1.34482
X1.00100 Y1.34482
X1.00100 Y1.34382
X1.01200 Y1.34382
X1.01200 Y1.34482
X1.01700 Y1.34482
X1.01700 Y1.34582
X1.01800 Y1.34582
X1.01800 Y1.34682
X1.01900 Y1.34682
X1.01900 Y1.34782
X1.02000 Y1.34782
X1.02000 Y1.34882
X1.02100 Y1.34882
X1.02100 Y1.34982
X1.02300 Y1.34982
X1.02300 Y1.35082
X1.02400 Y1.35082
X1.02400 Y1.35182
X1.02500 Y1.35182
X1.02500 Y1.35382
X1.02600 Y1.35382
X1.02600 Y1.35582
X1.02700 Y1.35582
X1.02700 Y1.35782
X1.02800 Y1.35782
X1.02800 Y1.36082
X1.02900 Y1.36082
X1.02900 Y1.37182
X1.02800 Y1.37182
X1.02800 Y1.37882
X1.12500 Y1.37882
X1.12500 Y1.37982
X1.12600 Y1.37982
X1.12600 Y1.38082
X1.12800 Y1.38082
X1.12800 Y1.38182
X1.12900 Y1.38182
X1.12900 Y1.38282
X1.13000 Y1.38282
X1.13000 Y1.38382
X1.13100 Y1.38382
X1.13100 Y1.38482
X1.13200 Y1.38482
X1.13200 Y1.38582
X1.13300 Y1.38582
X1.13300 Y1.38682
X1.13400 Y1.38682
X1.13400 Y1.38782
X1.13500 Y1.38782
X1.13500 Y1.38882
X1.13600 Y1.38882
X1.13600 Y1.38982
X1.13700 Y1.38982
X1.13700 Y1.39082
X1.13800 Y1.39082
X1.13800 Y1.39182
X1.13900 Y1.39182
X1.13900 Y1.39282
X1.14000 Y1.39282
X1.14000 Y1.39382
X1.14200 Y1.39382
X1.14200 Y1.39482
X1.14500 Y1.39482
X1.14500 Y1.39582
X1.14900 Y1.39582
X1.14900 Y1.39282
X1.15000 Y1.39282
X1.15000 Y1.39082
X1.15200 Y1.39082
X1.15200 Y1.38982
X1.23800 Y1.38982
X1.23800 Y1.38482
X1.23900 Y1.38482
X1.23900 Y1.16782
X1.23800 Y1.16782
X1.23800 Y1.16282
X1.15300 Y1.16282
X1.15300 Y1.16182
X1.15000 Y1.16182
X1.15000 Y1.15882
X1.14900 Y1.15882
X1.14900 Y0.99982
X1.15000 Y0.99982
X1.15000 Y0.99682
X1.15200 Y0.99682
X1.15200 Y0.99582
X1.15500 Y0.99582
X1.15500 Y0.99382
X1.15400 Y0.99382
X1.15400 Y0.99082
X1.15300 Y0.99082
X1.15300 Y0.98782
X1.15200 Y0.98782
X1.15200 Y0.98682
X1.15100 Y0.98682
X1.15100 Y0.98582
X1.15000 Y0.98582
X1.15000 Y0.98482
X1.14900 Y0.98482
X1.14900 Y0.98382
X1.14800 Y0.98382
X1.14800 Y0.98282
X1.14700 Y0.98282
X1.14700 Y0.98182
X1.14600 Y0.98182
X1.14600 Y0.98082
X1.14500 Y0.98082
X1.14500 Y0.97982
X1.14400 Y0.97982
X1.14400 Y0.97882
X1.14300 Y0.97882
X1.14300 Y0.97782
X1.14200 Y0.97782
X1.14200 Y0.97682
X1.14100 Y0.97682
X1.14100 Y0.97582
X1.14000 Y0.97582
X1.14000 Y0.97482
X1.13900 Y0.97482
X1.13900 Y0.97382
X1.13800 Y0.97382
X1.13800 Y0.97282
X1.13700 Y0.97282
X1.13700 Y0.97182
X1.13600 Y0.97182
X1.13600 Y0.97082
X1.13500 Y0.97082
X1.13500 Y0.96982
X1.13400 Y0.96982
X1.13400 Y0.96882
X1.13300 Y0.96882
X1.13300 Y0.96782
X1.13200 Y0.96782
X1.13200 Y0.96682
X1.13100 Y0.96682
X1.13100 Y0.96582
X1.13000 Y0.96582
X1.13000 Y0.96482
X1.12900 Y0.96482
X1.12900 Y0.96382
X1.12800 Y0.96382
X1.12800 Y0.96282
X1.12700 Y0.96282
X1.12700 Y0.96182
X1.12600 Y0.96182
X1.12600 Y0.96082
X1.12500 Y0.96082
X1.12500 Y0.95982
X1.12400 Y0.95982
X1.12400 Y0.95782
X1.12300 Y0.95782
X1.12300 Y0.95682
X1.12200 Y0.95682
X1.12200 Y0.81082
X1.11800 Y0.81082
X1.11800 Y0.80982
X1.11700 Y0.80982
X1.11700 Y0.80882
X1.11600 Y0.80882
X1.11600 Y0.80782
X1.11400 Y0.80782
X1.11400 Y0.80682
X1.11300 Y0.80682
X1.11300 Y0.80582
X1.11200 Y0.80582
X1.11200 Y0.80482
X1.11100 Y0.80482
X1.11100 Y0.80382
X1.11000 Y0.80382
X1.11000 Y0.80282
X1.10900 Y0.80282
X1.10900 Y0.80182
X1.10800 Y0.80182
X1.10800 Y0.79982
X1.10700 Y0.79982
X1.10700 Y0.79782
X1.10600 Y0.79782
X1.10600 Y0.79482
X1.10500 Y0.79482
X1.10500 Y0.78382
X1.10600 Y0.78382
X1.10600 Y0.78182
X1.10700 Y0.78182
X1.10700 Y0.77982
X1.10800 Y0.77982
X1.10800 Y0.77782
X1.10900 Y0.77782
X1.10900 Y0.77582
X1.11000 Y0.77582
X1.11000 Y0.77482
X1.11100 Y0.77482
X1.11100 Y0.77382
X1.11200 Y0.77382
X1.11200 Y0.77282
X1.11300 Y0.77282
X1.11300 Y0.77182
X1.11400 Y0.77182
X1.11400 Y0.77082
X1.11600 Y0.77082
X1.11600 Y0.76982
X1.11700 Y0.76982
X1.11700 Y0.76882
X1.12000 Y0.76882
X1.12000 Y0.76782
X1.12400 Y0.76782
X1.12400 Y0.76682
X1.13100 Y0.76682
X1.13100 Y0.76782
X1.13500 Y0.76782
X1.13500 Y0.76882
X1.13800 Y0.76882
X1.13800 Y0.76982
X1.13900 Y0.76982
X1.13900 Y0.77082
X1.14000 Y0.77082
X1.14000 Y0.77182
X1.14200 Y0.77182
X1.14200 Y0.77282
X1.14500 Y0.77282
X1.14500 Y0.77182
X1.14600 Y0.77182
X1.14600 Y0.77082
X1.14700 Y0.77082
X1.14700 Y0.76982
X1.14800 Y0.76982
X1.14800 Y0.76882
X1.14900 Y0.76882
X1.14900 Y0.76782
X1.15000 Y0.76782
X1.15000 Y0.76282
X1.14900 Y0.76282
X1.14900 Y0.70082
X1.14600 Y0.70082
X1.14600 Y0.70182
X1.14300 Y0.70182
X1.14300 Y0.70282
X1.13900 Y0.70282
X1.13900 Y0.70382
X1.13800 Y0.70382
X1.13800 Y0.70482
X1.13700 Y0.70482
X1.13700 Y0.70582
X1.13300 Y0.70582
X1.13300 Y0.70682
X1.12200 Y0.70682
X1.12200 Y0.70582
X1.11800 Y0.70582
X1.11800 Y0.70482
X1.11700 Y0.70482
X1.11700 Y0.70382
X1.11600 Y0.70382
X1.11600 Y0.70282
X1.11400 Y0.70282
X1.11400 Y0.70182
X1.11300 Y0.70182
X1.11300 Y0.70082
X1.11200 Y0.70082
X1.11200 Y0.69982
X1.11100 Y0.69982
X1.11100 Y0.69882
X1.11000 Y0.69882
X1.11000 Y0.69782
X1.10900 Y0.69782
X1.10900 Y0.69682
X1.10800 Y0.69682
X1.10800 Y0.69482
X1.10700 Y0.69482
X1.10700 Y0.69282
X1.10600 Y0.69282
X1.10600 Y0.68982
X1.10500 Y0.68982
X1.10500 Y0.67882
X1.10600 Y0.67882
X1.10600 Y0.67682
X1.10700 Y0.67682
X1.10700 Y0.67482
X1.10800 Y0.67482
X1.10800 Y0.67282
X1.10900 Y0.67282
X1.10900 Y0.67082
X1.11000 Y0.67082
X1.11000 Y0.66982
X1.11100 Y0.66982
X1.11100 Y0.66882
X1.11200 Y0.66882
X1.11200 Y0.66782
X1.11300 Y0.66782
X1.11300 Y0.66682
X1.11400 Y0.66682
X1.11400 Y0.66582
X1.11600 Y0.66582
X1.11600 Y0.66482
X1.11700 Y0.66482
X1.11700 Y0.66382
X1.12000 Y0.66382
X1.12000 Y0.66282
X1.12400 Y0.66282
X1.12400 Y0.66182
X1.13100 Y0.66182
X1.13100 Y0.66282
X1.13500 Y0.66282
X1.13500 Y0.66382
X1.13800 Y0.66382
X1.13800 Y0.66482
X1.13900 Y0.66482
X1.13900 Y0.66582
X1.14300 Y0.66582
X1.14300 Y0.66682
X1.14600 Y0.66682
X1.14600 Y0.66782
X1.14900 Y0.66782
X1.14900 Y0.60582
X1.15000 Y0.60582
X1.15000 Y0.60382
X1.15200 Y0.60382
X1.15200 Y0.60282
X1.23800 Y0.60282
X1.23800 Y0.59782
X1.23900 Y0.59782
X1.23900 Y0.37982
X1.23800 Y0.37982
X1.23800 Y0.37482
X1.16000 Y0.37482
X1.16000 Y0.37582
X1.15700 Y0.37582
X1.15700 Y0.37682
X1.15400 Y0.37682
X1.15400 Y0.37782
X1.15100 Y0.37782
X1.15100 Y0.37882
X1.15000 Y0.37882
X1.15000 Y0.37982
X1.14900 Y0.37982
X1.14900 Y0.38082
X1.14800 Y0.38082
X1.14800 Y0.38182
X1.14700 Y0.38182
X1.14700 Y0.38282
X1.14600 Y0.38282
X1.14600 Y0.38382
X1.14500 Y0.38382
X1.14500 Y0.38482
X1.14400 Y0.38482
X1.14400 Y0.38582
X1.14300 Y0.38582
X1.14300 Y0.38682
X1.14200 Y0.38682
X1.14200 Y0.38782
X1.14100 Y0.38782
X1.14100 Y0.38882
X1.14000 Y0.38882
X1.14000 Y0.38982
X1.13900 Y0.38982
X1.13900 Y0.39082
X1.13800 Y0.39082
X1.13800 Y0.39182
X1.13700 Y0.39182
X1.13700 Y0.39282
X1.13600 Y0.39282
X1.13600 Y0.39382
X1.13500 Y0.39382
X1.13500 Y0.39482
X1.13400 Y0.39482
X1.13400 Y0.39582
X1.13300 Y0.39582
X1.13300 Y0.39682
X1.13200 Y0.39682
X1.13200 Y0.39782
X1.13100 Y0.39782
X1.13100 Y0.39882
X1.13000 Y0.39882
X1.13000 Y0.39982
X1.12900 Y0.39982
X1.12900 Y0.40282
X1.12800 Y0.40282
X1.12800 Y0.52782
X1.13100 Y0.52782
X1.13100 Y0.52882
X1.13300 Y0.52882
X1.13300 Y0.52982
X1.13400 Y0.52982
X1.13400 Y0.53082
X1.13600 Y0.53082
X1.13600 Y0.53182
X1.13700 Y0.53182
X1.13700 Y0.53282
X1.13800 Y0.53282
X1.13800 Y0.53382
X1.13900 Y0.53382
X1.13900 Y0.53482
X1.14000 Y0.53482
X1.14000 Y0.53582
X1.14100 Y0.53582
X1.14100 Y0.53782
X1.14200 Y0.53782
X1.14200 Y0.53982
X1.14300 Y0.53982
X1.14300 Y0.54182
X1.14400 Y0.54182
X1.14400 Y0.54382
X1.14500 Y0.54382
X1.14500 Y0.55482
X1.14400 Y0.55482
X1.14400 Y0.55782
X1.14300 Y0.55782
X1.14300 Y0.55982
X1.14200 Y0.55982
X1.14200 Y0.56182
X1.14100 Y0.56182
X1.14100 Y0.56382
X1.14000 Y0.56382
X1.14000 Y0.56482
X1.13900 Y0.56482
X1.13900 Y0.56582
X1.13800 Y0.56582
X1.13800 Y0.56682
X1.13600 Y0.56682
X1.13600 Y0.56782
X1.13400 Y0.56782
X1.13400 Y0.56882
X1.13300 Y0.56882
X1.13300 Y0.56982
X1.13200 Y0.56982
X1.13200 Y0.57082
X1.12800 Y0.57082
X1.12800 Y0.57182
X1.11700 Y0.57182
X1.11700 Y0.57082
X1.11300 Y0.57082
X1.11300 Y0.56982
X1.11200 Y0.56982
X1.11200 Y0.56882
X1.11100 Y0.56882
X1.11100 Y0.56782
X1.10900 Y0.56782
X1.10900 Y0.56682
X1.10800 Y0.56682
X1.10800 Y0.56582
X1.10700 Y0.56582
X1.10700 Y0.56482
X1.10600 Y0.56482
X1.10600 Y0.56382
X1.10500 Y0.56382
X1.10500 Y0.56282
X1.10400 Y0.56282
X1.10400 Y0.56182
X1.10300 Y0.56182
X1.10300 Y0.55982
X1.10200 Y0.55982
X1.10200 Y0.55782
X1.10100 Y0.55782
X1.10100 Y0.55482
X1.10000 Y0.55482
X1.10000 Y0.54382
X1.10100 Y0.54382
X1.10100 Y0.54182
X1.10200 Y0.54182
X1.10200 Y0.53982
X1.10300 Y0.53982
X1.10300 Y0.53782
X1.10400 Y0.53782
X1.10400 Y0.53582
X1.10500 Y0.53582
X1.10500 Y0.53482
X1.10600 Y0.53482
X1.10600 Y0.53382
X1.10700 Y0.53382
X1.10700 Y0.53282
X1.10800 Y0.53282
X1.10800 Y0.53182
X1.10900 Y0.53182
X1.10900 Y0.53082
X1.11100 Y0.53082
X1.11100 Y0.52982
X1.11200 Y0.52982
X1.11200 Y0.52882
X1.11400 Y0.52882
X1.11400 Y0.52782
X1.11700 Y0.52782
X1.11700 Y0.39682
X1.11800 Y0.39682
X1.11800 Y0.39582
X1.11900 Y0.39582
X1.11900 Y0.39482
X1.12000 Y0.39482
X1.12000 Y0.39382
X1.12100 Y0.39382
X1.12100 Y0.39282
X1.12200 Y0.39282
X1.12200 Y0.39182
X1.12300 Y0.39182
X1.12300 Y0.39082
X1.12400 Y0.39082
X1.12400 Y0.38982
X1.12500 Y0.38982
X1.12500 Y0.38882
X1.12600 Y0.38882
X1.12600 Y0.38782
X1.12700 Y0.38782
X1.12700 Y0.38682
X1.12800 Y0.38682
X1.12800 Y0.38582
X1.12900 Y0.38582
X1.12900 Y0.38482
X1.13000 Y0.38482
X1.13000 Y0.38382
X1.13100 Y0.38382
X1.13100 Y0.38282
X1.13200 Y0.38282
X1.13200 Y0.38182
X1.13300 Y0.38182
X1.13300 Y0.38082
X1.13400 Y0.38082
X1.13400 Y0.37982
X1.13500 Y0.37982
X1.13500 Y0.37882
X1.13600 Y0.37882
X1.13600 Y0.37782
X1.13700 Y0.37782
X1.13700 Y0.37682
X1.13800 Y0.37682
X1.13800 Y0.37582
X1.13900 Y0.37582
X1.13900 Y0.37482
X1.14000 Y0.37482
X1.14000 Y0.37382
X1.14100 Y0.37382
X1.14100 Y0.37282
X1.14200 Y0.37282
X1.14200 Y0.37182
X1.14300 Y0.37182
X1.14300 Y0.37082
X1.14400 Y0.37082
X1.14400 Y0.36982
X1.14500 Y0.36982
X1.14500 Y0.36882
X1.14600 Y0.36882
X1.14600 Y0.36682
X1.14700 Y0.36682
X1.14700 Y0.36382
X1.14800 Y0.36382
X1.14800 Y0.36082
X1.14900 Y0.36082
X1.14900 Y0.21182
X1.15000 Y0.21182
X1.15000 Y0.20982
X1.15200 Y0.20982
X1.15200 Y0.20882
X1.23800 Y0.20882
X1.23800 Y0.20382
X1.23900 Y0.20382
X1.23900 Y0.03582
X1.23800 Y0.03582
X1.23800 Y0.03482
X1.23700 Y0.03482
X1.23700 Y0.03282
X1.23500 Y0.03282
X1.23500 Y0.03182
X0.67300 Y0.03182
X0.67300 Y0.03582
X0.67400 Y0.03582
X0.67400 Y0.03882
X0.67500 Y0.03882
X0.67500 Y0.04082
X0.67600 Y0.04082
X0.67600 Y0.04182
X0.67700 Y0.04182
X0.67700 Y0.04282
X0.67800 Y0.04282
X0.67800 Y0.04382
X0.67900 Y0.04382
X0.67900 Y0.04482
X0.68000 Y0.04482
X0.68000 Y0.04582
X0.68100 Y0.04582
X0.68100 Y0.04682
X0.68200 Y0.04682
X0.68200 Y0.04782
X0.68300 Y0.04782
X0.68300 Y0.04882
X0.68400 Y0.04882
X0.68400 Y0.04982
X0.68500 Y0.04982
X0.68500 Y0.05082
X0.68600 Y0.05082
X0.68600 Y0.05182
X0.68700 Y0.05182
X0.68700 Y0.05282
X0.68800 Y0.05282
X0.68800 Y0.05382
X0.68900 Y0.05382
X0.68900 Y0.05482
X0.69000 Y0.05482
X0.69000 Y0.05582
X0.69100 Y0.05582
X0.69100 Y0.05682
X0.69200 Y0.05682
X0.69200 Y0.05782
X0.69300 Y0.05782
X0.69300 Y0.05882
X0.69400 Y0.05882
X0.69400 Y0.05982
X0.69500 Y0.05982
X0.69500 Y0.06082
X0.69600 Y0.06082
X0.69600 Y0.06182
X0.69700 Y0.06182
X0.69700 Y0.06282
X0.69800 Y0.06282
X0.69800 Y0.06382
X0.69900 Y0.06382
X0.69900 Y0.06482
X0.70000 Y0.06482
X0.70000 Y0.06582
X0.70100 Y0.06582
X0.70100 Y0.06682
X0.70200 Y0.06682
X0.70200 Y0.06782
X0.70300 Y0.06782
X0.70300 Y0.06882
X0.70400 Y0.06882
X0.70400 Y0.06982
X0.70500 Y0.06982
X0.70500 Y0.07082
X0.70600 Y0.07082
X0.70600 Y0.07182
X0.70700 Y0.07182
X0.70700 Y0.07282
X0.70800 Y0.07282
X0.70800 Y0.07382
X0.70900 Y0.07382
X0.70900 Y0.07482
X0.71000 Y0.07482
X0.71000 Y0.07582
X0.71100 Y0.07582
X0.71100 Y0.07682
X0.71200 Y0.07682
X0.71200 Y0.07782
X0.71300 Y0.07782
X0.71300 Y0.07882
X0.71400 Y0.07882
X0.71400 Y0.07982
X0.71500 Y0.07982
X0.71500 Y0.08082
X0.71600 Y0.08082
X0.71600 Y0.08182
X0.71700 Y0.08182
X0.71700 Y0.08282
X0.71800 Y0.08282
X0.71800 Y0.08382
X0.71900 Y0.08382
X0.71900 Y0.08482
X0.72000 Y0.08482
X0.72000 Y0.08582
X0.72100 Y0.08582
X0.72100 Y0.08682
X0.72200 Y0.08682
X0.72200 Y0.08782
X0.72300 Y0.08782
X0.72300 Y0.08882
X0.72400 Y0.08882
X0.72400 Y0.08982
X0.72500 Y0.08982
X0.72500 Y0.09082
X0.72600 Y0.09082
X0.72600 Y0.09182
X0.72700 Y0.09182
X0.72700 Y0.09282
X0.72800 Y0.09282
X0.72800 Y0.09382
X0.72900 Y0.09382
X0.72900 Y0.09482
X0.73000 Y0.09482
X0.73000 Y0.09582
X0.73100 Y0.09582
X0.73100 Y0.09682
X0.73200 Y0.09682
X0.73200 Y0.09782
X0.73300 Y0.09782
X0.73300 Y0.09882
X0.73400 Y0.09882
X0.73400 Y0.09982
X0.73500 Y0.09982
X0.73500 Y0.10082
X0.73600 Y0.10082
X0.73600 Y0.10182
X0.73700 Y0.10182
X0.73700 Y0.10282
X0.73800 Y0.10282
X0.73800 Y0.10382
X0.73900 Y0.10382
X0.73900 Y0.10482
X0.74000 Y0.10482
X0.74000 Y0.10582
X0.74100 Y0.10582
X0.74100 Y0.10682
X0.74200 Y0.10682
X0.74200 Y0.10782
X0.74300 Y0.10782
X0.74300 Y0.10882
X0.74400 Y0.10882
X0.74400 Y0.10982
X0.74500 Y0.10982
X0.74500 Y0.11082
X0.74600 Y0.11082
X0.74600 Y0.11182
X0.74700 Y0.11182
X0.74700 Y0.11282
X0.74800 Y0.11282
X0.74800 Y0.11382
X0.74900 Y0.11382
X0.74900 Y0.11482
X0.75000 Y0.11482
X0.75000 Y0.11582
X0.75100 Y0.11582
X0.75100 Y0.11682
X0.75200 Y0.11682
X0.75200 Y0.11782
X0.75300 Y0.11782
X0.75300 Y0.11882
X0.75400 Y0.11882
X0.75400 Y0.11982
X0.75500 Y0.11982
X0.75500 Y0.12082
X0.75600 Y0.12082
X0.75600 Y0.12182
X0.75700 Y0.12182
X0.75700 Y0.12282
X0.75800 Y0.12282
X0.75800 Y0.12382
X0.75900 Y0.12382
X0.75900 Y0.12482
X0.76000 Y0.12482
X0.76000 Y0.12582
X0.76100 Y0.12582
X0.76100 Y0.12682
X0.76200 Y0.12682
X0.76200 Y0.12782
X0.76300 Y0.12782
X0.76300 Y0.12882
X0.76400 Y0.12882
X0.76400 Y0.12982
X0.76500 Y0.12982
X0.76500 Y0.13082
X0.76600 Y0.13082
X0.76600 Y0.13182
X0.76700 Y0.13182
X0.76700 Y0.13282
X0.76800 Y0.13282
X0.76800 Y0.13382
X0.76900 Y0.13382
X0.76900 Y0.13482
X0.77000 Y0.13482
X0.77000 Y0.13582
X0.77100 Y0.13582
X0.77100 Y0.13682
X0.77200 Y0.13682
X0.77200 Y0.13782
X0.77300 Y0.13782
X0.77300 Y0.13882
X0.77400 Y0.13882
X0.77400 Y0.13982
X0.77500 Y0.13982
X0.77500 Y0.14082
X0.77600 Y0.14082
X0.77600 Y0.14182
X0.77700 Y0.14182
X0.77700 Y0.14282
X0.77800 Y0.14282
X0.77800 Y0.14382
X0.77900 Y0.14382
X0.77900 Y0.14482
X0.78000 Y0.14482
X0.78000 Y0.14582
X0.78100 Y0.14582
X0.78100 Y0.14682
X0.78200 Y0.14682
X0.78200 Y0.14782
X0.78300 Y0.14782
X0.78300 Y0.14882
X0.78400 Y0.14882
X0.78400 Y0.14982
X0.78500 Y0.14982
X0.78500 Y0.15082
X0.78600 Y0.15082
X0.78600 Y0.15182
X0.78700 Y0.15182
X0.78700 Y0.15282
X0.78800 Y0.15282
X0.78800 Y0.15382
X0.78900 Y0.15382
X0.78900 Y0.15482
X0.79000 Y0.15482
X0.79000 Y0.15582
X0.79100 Y0.15582
X0.79100 Y0.15682
X0.79200 Y0.15682
X0.79200 Y0.15782
X0.79300 Y0.15782
X0.79300 Y0.15882
X0.79400 Y0.15882
X0.79400 Y0.15982
X0.79500 Y0.15982
X0.79500 Y0.16082
X0.79600 Y0.16082
X0.79600 Y0.16182
X0.79700 Y0.16182
X0.79700 Y0.16282
X0.79800 Y0.16282
X0.79800 Y0.16382
X0.79900 Y0.16382
X0.79900 Y0.16482
X0.80000 Y0.16482
X0.80000 Y0.16582
X0.80100 Y0.16582
X0.80100 Y0.16682
X0.80200 Y0.16682
X0.80200 Y0.16782
X0.80300 Y0.16782
X0.80300 Y0.16882
X0.80400 Y0.16882
X0.80400 Y0.16982
X0.80500 Y0.16982
X0.80500 Y0.17082
X0.80600 Y0.17082
X0.80600 Y0.17182
X0.80700 Y0.17182
X0.80700 Y0.17282
X0.80800 Y0.17282
X0.80800 Y0.17382
X0.80900 Y0.17382
X0.80900 Y0.17482
X0.81000 Y0.17482
X0.81000 Y0.17582
X0.81100 Y0.17582
X0.81100 Y0.17682
X0.81200 Y0.17682
X0.81200 Y0.17782
X0.81300 Y0.17782
X0.81300 Y0.17882
X0.81400 Y0.17882
X0.81400 Y0.17982
X0.81500 Y0.17982
X0.81500 Y0.18082
X0.81600 Y0.18082
X0.81600 Y0.18182
X0.81700 Y0.18182
X0.81700 Y0.18282
X0.81800 Y0.18282
X0.81800 Y0.18382
X0.81900 Y0.18382
X0.81900 Y0.18482
X0.82000 Y0.18482
X0.82000 Y0.18582
X0.82100 Y0.18582
X0.82100 Y0.18682
X0.82200 Y0.18682
X0.82200 Y0.18782
X0.82300 Y0.18782
X0.82300 Y0.18882
X0.82400 Y0.18882
X0.82400 Y0.18982
X0.82500 Y0.18982
X0.82500 Y0.19082
X0.82600 Y0.19082
X0.82600 Y0.19182
X0.82700 Y0.19182
X0.82700 Y0.19282
X0.82900 Y0.19282
X0.82900 Y0.19382
X0.83700 Y0.19382
X0.83700 Y0.19282
X0.93000 Y0.19282
X0.93000 Y0.19382
X0.95600 Y0.19382
X0.95600 Y0.18782
X0.95700 Y0.18782
X0.95700 Y0.18482
X0.96000 Y0.18482
X0.96000 Y0.18382
X1.04100 Y0.18382
X1.04100 Y0.15682
X1.04000 Y0.15682
X1.04000 Y0.15382
X1.03900 Y0.15382
X1.03900 Y0.15282
X1.03800 Y0.15282
X1.03800 Y0.15182
X1.03700 Y0.15182
X1.03700 Y0.15082
X1.03600 Y0.15082
X1.03600 Y0.14982
X1.03500 Y0.14982
X1.03500 Y0.14882
X1.03400 Y0.14882
X1.03400 Y0.14782
X1.03300 Y0.14782
X1.03300 Y0.14682
X1.03200 Y0.14682
X1.03200 Y0.14582
X1.03100 Y0.14582
X1.03100 Y0.14482
X1.03000 Y0.14482
X1.03000 Y0.14382
X1.02900 Y0.14382
X1.02900 Y0.14282
X1.02800 Y0.14282
X1.02800 Y0.14182
X1.02700 Y0.14182
X1.02700 Y0.14082
X1.02600 Y0.14082
X1.02600 Y0.13982
X1.02500 Y0.13982
X1.02500 Y0.13882
X1.02400 Y0.13882
X1.02400 Y0.13782
X1.02300 Y0.13782
X1.02300 Y0.13682
X1.02200 Y0.13682
X1.02200 Y0.13582
X1.02100 Y0.13582
X1.02100 Y0.13482
X1.02000 Y0.13482
X1.02000 Y0.13382
X1.01900 Y0.13382
X1.01900 Y0.13282
X1.01800 Y0.13282
X1.01800 Y0.13182
X1.01700 Y0.13182
X1.01700 Y0.13082
X1.01600 Y0.13082
X1.01600 Y0.12982
X1.01500 Y0.12982
X1.01500 Y0.12882
X1.01400 Y0.12882
X1.01400 Y0.12782
X1.01300 Y0.12782
X1.01300 Y0.12682
X1.01000 Y0.12682
X1.01000 Y0.12582
X0.96000 Y0.12582
X0.96000 Y0.12482
X0.95700 Y0.12482
X0.95700 Y0.12182
X0.95600 Y0.12182
X0.95600 Y0.10782
X0.95100 Y0.10782
X0.95100 Y0.10882
X0.94800 Y0.10882
X0.94800 Y0.10982
X0.94600 Y0.10982
X0.94600 Y0.11082
X0.94500 Y0.11082
X0.94500 Y0.11182
X0.94400 Y0.11182
X0.94400 Y0.11282
X0.94300 Y0.11282
X0.94300 Y0.11382
X0.94200 Y0.11382
X0.94200 Y0.11482
X0.94100 Y0.11482
X0.94100 Y0.11582
X0.94000 Y0.11582
X0.94000 Y0.11682
X0.93900 Y0.11682
X0.93900 Y0.11782
X0.93800 Y0.11782
X0.93800 Y0.11882
X0.93700 Y0.11882
X0.93700 Y0.11982
X0.93600 Y0.11982
X0.93600 Y0.12082
X0.93500 Y0.12082
X0.93500 Y0.12182
X0.93400 Y0.12182
X0.93400 Y0.12282
X0.93300 Y0.12282
X0.93300 Y0.12382
X0.93200 Y0.12382
X0.93200 Y0.12482
X0.93100 Y0.12482
X0.93100 Y0.12582
X0.93000 Y0.12582
X0.93000 Y0.12682
X0.92900 Y0.12682
X0.92900 Y0.12782
X0.92800 Y0.12782
X0.92800 Y0.12882
X0.92700 Y0.12882
X0.92700 Y0.12982
X0.92600 Y0.12982
X0.92600 Y0.13082
X0.92500 Y0.13082
X0.92500 Y0.13182
X0.92400 Y0.13182
X0.92400 Y0.13282
X0.92300 Y0.13282
X0.92300 Y0.13382
X0.92200 Y0.13382
X0.92200 Y0.13482
X0.92100 Y0.13482
X0.92100 Y0.13582
X0.92000 Y0.13582
X0.92000 Y0.13682
X0.91900 Y0.13682
X0.91900 Y0.13882
X0.91800 Y0.13882
X0.91800 Y0.14282
X0.91900 Y0.14282
X0.91900 Y0.14382
X0.92600 Y0.14382
X0.92600 Y0.14482
X0.92700 Y0.14482
X0.92700 Y0.14582
X0.92800 Y0.14582
X0.92800 Y0.16582
X0.92700 Y0.16582
X0.92700 Y0.16782
X0.92400 Y0.16782
X0.92400 Y0.16882
X0.84200 Y0.16882
X0.84200 Y0.16782
X0.83900 Y0.16782
X0.83900 Y0.16482
X0.83800 Y0.16482
X0.83800 Y0.14582
X0.83900 Y0.14582
X0.83900 Y0.14482
X0.84000 Y0.14482
X0.84000 Y0.14382
X0.87800 Y0.14382
X0.87800 Y0.14282
X0.88000 Y0.14282
X0.88000 Y0.14182
X0.88100 Y0.14182
X0.88100 Y0.14082
X0.88200 Y0.14082
X0.88200 Y0.13982
X0.88300 Y0.13982
X0.88300 Y0.13882
X0.88400 Y0.13882
X0.88400 Y0.13782
X0.88500 Y0.13782
X0.88500 Y0.13682
X0.88600 Y0.13682
X0.88600 Y0.13582
X0.88700 Y0.13582
X0.88700 Y0.13482
X0.88800 Y0.13482
X0.88800 Y0.13382
X0.88900 Y0.13382
X0.88900 Y0.13282
X0.89000 Y0.13282
X0.89000 Y0.13182
X0.89100 Y0.13182
X0.89100 Y0.13082
X0.89200 Y0.13082
X0.89200 Y0.12982
X0.89300 Y0.12982
X0.89300 Y0.12882
X0.89400 Y0.12882
X0.89400 Y0.12782
X0.89500 Y0.12782
X0.89500 Y0.12682
X0.89600 Y0.12682
X0.89600 Y0.12582
X0.89700 Y0.12582
X0.89700 Y0.12482
X0.89800 Y0.12482
X0.89800 Y0.12382
X0.89900 Y0.12382
X0.89900 Y0.12282
X0.90000 Y0.12282
X0.90000 Y0.12182
X0.90100 Y0.12182
X0.90100 Y0.12082
X0.90200 Y0.12082
X0.90200 Y0.11982
X0.90300 Y0.11982
X0.90300 Y0.11882
X0.90400 Y0.11882
X0.90400 Y0.11782
X0.90500 Y0.11782
X0.90500 Y0.11682
X0.90600 Y0.11682
X0.90600 Y0.11582
X0.90700 Y0.11582
X0.90700 Y0.11482
X0.90800 Y0.11482
X0.90800 Y0.11382
X0.90900 Y0.11382
X0.90900 Y0.11282
X0.91000 Y0.11282
X0.91000 Y0.11182
X0.91100 Y0.11182
X0.91100 Y0.11082
X0.91200 Y0.11082
X0.91200 Y0.10982
X0.91300 Y0.10982
X0.91300 Y0.10882
X0.91400 Y0.10882
X0.91400 Y0.10782
X0.91500 Y0.10782
X0.91500 Y0.10682
X0.91600 Y0.10682
X0.91600 Y0.10582
X0.91700 Y0.10582
X0.91700 Y0.10482
X0.91800 Y0.10482
X0.91800 Y0.10382
X0.91900 Y0.10382
X0.91900 Y0.10282
X0.92000 Y0.10282
X0.92000 Y0.10182
X0.92100 Y0.10182
X0.92100 Y0.10082
X0.92200 Y0.10082
X0.92200 Y0.09982
X0.92300 Y0.09982
X0.92300 Y0.09882
X0.92400 Y0.09882
X0.92400 Y0.09782
X0.92500 Y0.09782
X0.92500 Y0.09682
X0.92600 Y0.09682
X0.92600 Y0.09582
X0.92700 Y0.09582
X0.92700 Y0.09482
X0.92800 Y0.09482
X0.92800 Y0.09382
X0.92900 Y0.09382
X0.92900 Y0.09282
X0.93000 Y0.09282
X0.93000 Y0.09182
X0.93100 Y0.09182
X0.93100 Y0.09082
X0.93200 Y0.09082
X0.93200 Y0.08982
X0.93300 Y0.08982
X0.93300 Y0.08882
X0.93400 Y0.08882
X0.93400 Y0.08782
X0.93500 Y0.08782
X0.93500 Y0.08682
X0.93600 Y0.08682
X0.93600 Y0.08582
X0.93800 Y0.08582
X0.93800 Y0.08482
X0.94100 Y0.08482
X0.94100 Y0.08382
X0.95600 Y0.08382
X0.95600 Y0.06982
X0.95700 Y0.06982
X0.95700 Y0.06682
X0.96000 Y0.06682
X0.96000 Y0.06582
X1.03700 Y0.06582
X1.03700 Y0.06682
X1.03900 Y0.06682
X1.03900 Y0.06982
X1.04000 Y0.06982
X1.04000 Y0.11782
X1.04100 Y0.11782
X1.04100 Y0.12082
X1.04200 Y0.12082
X1.04200 Y0.12182
X1.04300 Y0.12182
X1.04300 Y0.12282
X1.04400 Y0.12282
X1.04400 Y0.12382
X1.04500 Y0.12382
X1.04500 Y0.12482
X1.04600 Y0.12482
X1.04600 Y0.12582
X1.04700 Y0.12582
X1.04700 Y0.12682
X1.04800 Y0.12682
X1.04800 Y0.12782
X1.04900 Y0.12782
X1.04900 Y0.12882
X1.05000 Y0.12882
X1.05000 Y0.12982
X1.05100 Y0.12982
X1.05100 Y0.13082
X1.05200 Y0.13082
X1.05200 Y0.13182
X1.05300 Y0.13182
X1.05300 Y0.13282
X1.05400 Y0.13282
X1.05400 Y0.13382
X1.05500 Y0.13382
X1.05500 Y0.13482
X1.05600 Y0.13482
X1.05600 Y0.13582
X1.05700 Y0.13582
X1.05700 Y0.13682
X1.05800 Y0.13682
X1.05800 Y0.13782
X1.05900 Y0.13782
X1.05900 Y0.13882
X1.06000 Y0.13882
X1.06000 Y0.13982
X1.06100 Y0.13982
X1.06100 Y0.14082
X1.06200 Y0.14082
X1.06200 Y0.14182
X1.06300 Y0.14182
X1.06300 Y0.14282
X1.06400 Y0.14282
X1.06400 Y0.14582
X1.06500 Y0.14582
X1.06500 Y0.15182
X1.06600 Y0.15182
X1.06600 Y0.25882
X1.06500 Y0.25882
X1.06500 Y0.32282
X1.06400 Y0.32282
X1.06400 Y0.32482
X1.06300 Y0.32482
X1.06300 Y0.32582
X1.06200 Y0.32582
X1.06200 Y0.32682
X1.06100 Y0.32682
X1.06100 Y0.32782
X1.06000 Y0.32782
X1.06000 Y0.32882
X1.05900 Y0.32882
X1.05900 Y0.32982
X1.05800 Y0.32982
X1.05800 Y0.33082
X1.05600 Y0.33082
X1.05600 Y0.33182
X0.98000 Y0.33182
X0.98000 Y0.33082
X0.97800 Y0.33082
X0.97800 Y0.32982
X0.97700 Y0.32982
X0.97700 Y0.32882
X0.97600 Y0.32882
X0.97600 Y0.32782
X0.97300 Y0.32782
X0.97300 Y0.32682
X0.97100 Y0.32682
X0.97100 Y0.32582
X0.96900 Y0.32582
X0.96900 Y0.32682
X0.96800 Y0.32682
X0.96800 Y0.32782
X0.96700 Y0.32782
X0.96700 Y0.32882
X0.96600 Y0.32882
X0.96600 Y0.32982
X0.96500 Y0.32982
X0.96500 Y0.33082
X0.96400 Y0.33082
X0.96400 Y0.33182
X0.96300 Y0.33182
X0.96300 Y0.33282
X0.96200 Y0.33282
X0.96200 Y0.33382
X0.96100 Y0.33382
X0.96100 Y0.33482
X0.96000 Y0.33482
X0.96000 Y0.33582
X0.95900 Y0.33582
X0.95900 Y0.33682
X0.95800 Y0.33682
X0.95800 Y0.33782
X0.95700 Y0.33782
X0.95700 Y0.33882
X0.95600 Y0.33882
X0.95600 Y0.33982
X0.95500 Y0.33982
X0.95500 Y0.34082
X0.95400 Y0.34082
X0.95400 Y0.34182
X0.95300 Y0.34182
X0.95300 Y0.34282
X0.95200 Y0.34282
X0.95200 Y0.34382
X0.95100 Y0.34382
X0.95100 Y0.34482
X0.95000 Y0.34482
X0.95000 Y0.34582
X0.94900 Y0.34582
X0.94900 Y0.34682
X0.94800 Y0.34682
X0.94800 Y0.34782
X0.94700 Y0.34782
X0.94700 Y0.34882
X0.94600 Y0.34882
X0.94600 Y0.34982
X0.94500 Y0.34982
X0.94500 Y0.35082
X0.94400 Y0.35082
X0.94400 Y0.35182
X0.94300 Y0.35182
X0.94300 Y0.35282
X0.94200 Y0.35282
X0.94200 Y0.35382
X0.94100 Y0.35382
X0.94100 Y0.35482
X0.94000 Y0.35482
X0.94000 Y0.35582
X0.93900 Y0.35582
X0.93900 Y0.35682
X0.93800 Y0.35682
X0.93800 Y0.35782
X0.93700 Y0.35782
X0.93700 Y0.35882
X0.93600 Y0.35882
X0.93600 Y0.35982
X0.93500 Y0.35982
X0.93500 Y0.36082
X0.93400 Y0.36082
X0.93400 Y0.36182
X0.93300 Y0.36182
X0.93300 Y0.36282
X0.93200 Y0.36282
X0.93200 Y0.36382
X0.93100 Y0.36382
X0.93100 Y0.36482
X0.93000 Y0.36482
X0.93000 Y0.36582
X0.92900 Y0.36582
X0.92900 Y0.36682
X0.92800 Y0.36682
X0.92800 Y0.36882
X0.92200 Y0.36882
X0.92200 Y0.36982
X0.88300 Y0.36982
X0.88300 Y0.36882
X0.84400 Y0.36882
X0.84400 Y0.36782
X0.83800 Y0.36782
X0.83800 Y0.36882
X0.83700 Y0.36882
X0.83700 Y0.36982
X0.83600 Y0.36982
X0.83600 Y0.37082
X0.83500 Y0.37082
X0.83500 Y0.37182
X0.83400 Y0.37182
X0.83400 Y0.37382
X0.83500 Y0.37382
X0.83500 Y0.37682
X0.83800 Y0.37682
X0.83800 Y0.37782
X0.83900 Y0.37782
X0.83900 Y0.37882
X0.84000 Y0.37882
X0.84000 Y0.37982
X0.84100 Y0.37982
X0.84100 Y0.38082
X0.84200 Y0.38082
X0.84200 Y0.38182
X0.84300 Y0.38182
X0.84300 Y0.38282
X0.84400 Y0.38282
X0.84400 Y0.38382
X0.84500 Y0.38382
X0.84500 Y0.38482
X0.84600 Y0.38482
X0.84600 Y0.38582
X0.84700 Y0.38582
X0.84700 Y0.38682
X0.84800 Y0.38682
X0.84800 Y0.38782
X0.84900 Y0.38782
X0.84900 Y0.38882
X0.85000 Y0.38882
X0.85000 Y0.38982
X0.85100 Y0.38982
X0.85100 Y0.39082
X0.85200 Y0.39082
X0.85200 Y0.39182
X0.85300 Y0.39182
X0.85300 Y0.39282
X0.88700 Y0.39282
X0.88700 Y0.39382
X0.92600 Y0.39382
X0.92600 Y0.39482
X0.92700 Y0.39482
X0.92700 Y0.39582
X0.92800 Y0.39582
X0.92800 Y0.41582
X0.92700 Y0.41582
X0.92700 Y0.41782
X0.92400 Y0.41782
X0.92400 Y0.41882
X0.88300 Y0.41882
X0.88300 Y0.41982
X0.84800 Y0.41982
X0.84800 Y0.41882
X0.84200 Y0.41882
X0.84200 Y0.41782
X0.83900 Y0.41782
X0.83900 Y0.41582
X0.83800 Y0.41582
X0.83800 Y0.41282
X0.83700 Y0.41282
X0.83700 Y0.41082
X0.83600 Y0.41082
X0.83600 Y0.40982
X0.83500 Y0.40982
X0.83500 Y0.40882
X0.83400 Y0.40882
X0.83400 Y0.40782
X0.83300 Y0.40782
X0.83300 Y0.40682
X0.83200 Y0.40682
X0.83200 Y0.40582
X0.83100 Y0.40582
X0.83100 Y0.40482
X0.83000 Y0.40482
X0.83000 Y0.40382
X0.82900 Y0.40382
X0.82900 Y0.40282
X0.82800 Y0.40282
X0.82800 Y0.40182
X0.82700 Y0.40182
X0.82700 Y0.40082
X0.82600 Y0.40082
X0.82600 Y0.39982
X0.82500 Y0.39982
X0.82500 Y0.39882
X0.82400 Y0.39882
X0.82400 Y0.39782
X0.82300 Y0.39782
X0.82300 Y0.39682
X0.82200 Y0.39682
X0.82200 Y0.39582
X0.82100 Y0.39582
X0.82100 Y0.39482
X0.82000 Y0.39482
X0.82000 Y0.39382
X0.81900 Y0.39382
X0.81900 Y0.39282
X0.81800 Y0.39282
X0.81800 Y0.39182
X0.81700 Y0.39182
X0.81700 Y0.39082
X0.81600 Y0.39082
X0.81600 Y0.38982
X0.81500 Y0.38982
X0.81500 Y0.38882
X0.81400 Y0.38882
X0.81400 Y0.38782
X0.81300 Y0.38782
X0.81300 Y0.38682
X0.81200 Y0.38682
X0.81200 Y0.38582
X0.81100 Y0.38582
X0.81100 Y0.38482
X0.81000 Y0.38482
X0.81000 Y0.38382
X0.80900 Y0.38382
X0.80900 Y0.38182
X0.80800 Y0.38182
X0.80800 Y0.38082
X0.80700 Y0.38082
X0.80700 Y0.37482
X0.80600 Y0.37482
X0.80600 Y0.22682
X0.80700 Y0.22682
X0.80700 Y0.22082
X0.80800 Y0.22082
X0.80800 Y0.21882
X0.80900 Y0.21882
X0.80900 Y0.21782
X0.81000 Y0.21782
X0.81000 Y0.21482
X0.81100 Y0.21482
X0.81100 Y0.21182
X0.81000 Y0.21182
X0.81000 Y0.20882
X0.80900 Y0.20882
X0.80900 Y0.20782
X0.80800 Y0.20782
X0.80800 Y0.20682
X0.80700 Y0.20682
X0.80700 Y0.20582
X0.80600 Y0.20582
X0.80600 Y0.20482
X0.80500 Y0.20482
X0.80500 Y0.20382
X0.80400 Y0.20382
X0.80400 Y0.20282
X0.80300 Y0.20282
X0.80300 Y0.20182
X0.80200 Y0.20182
X0.80200 Y0.20082
X0.80100 Y0.20082
X0.80100 Y0.19982
X0.80000 Y0.19982
X0.80000 Y0.19882
X0.79900 Y0.19882
X0.79900 Y0.19782
X0.79800 Y0.19782
X0.79800 Y0.19682
X0.79700 Y0.19682
X0.79700 Y0.19582
X0.79600 Y0.19582
X0.79600 Y0.19482
X0.79500 Y0.19482
X0.79500 Y0.19382
X0.79400 Y0.19382
X0.79400 Y0.19282
X0.79300 Y0.19282
X0.79300 Y0.19182
X0.79200 Y0.19182
X0.79200 Y0.19082
X0.79100 Y0.19082
X0.79100 Y0.18982
X0.79000 Y0.18982
X0.79000 Y0.18882
X0.78900 Y0.18882
X0.78900 Y0.18782
X0.78800 Y0.18782
X0.78800 Y0.18682
X0.78700 Y0.18682
X0.78700 Y0.18582
X0.78600 Y0.18582
X0.78600 Y0.18482
X0.78500 Y0.18482
X0.78500 Y0.18382
X0.78400 Y0.18382
X0.78400 Y0.18282
X0.78300 Y0.18282
X0.78300 Y0.18182
X0.78200 Y0.18182
X0.78200 Y0.18082
X0.78100 Y0.18082
X0.78100 Y0.17982
X0.78000 Y0.17982
X0.78000 Y0.17882
X0.77900 Y0.17882
X0.77900 Y0.17782
X0.77800 Y0.17782
X0.77800 Y0.17682
X0.77700 Y0.17682
X0.77700 Y0.17582
X0.77600 Y0.17582
X0.77600 Y0.17482
X0.77500 Y0.17482
X0.77500 Y0.17382
X0.77400 Y0.17382
X0.77400 Y0.17282
X0.77300 Y0.17282
X0.77300 Y0.17182
X0.77200 Y0.17182
X0.77200 Y0.17082
X0.77100 Y0.17082
X0.77100 Y0.16982
X0.77000 Y0.16982
X0.77000 Y0.16882
X0.76900 Y0.16882
X0.76900 Y0.16782
X0.76800 Y0.16782
X0.76800 Y0.16682
X0.76700 Y0.16682
X0.76700 Y0.16582
X0.76600 Y0.16582
X0.76600 Y0.16482
X0.76500 Y0.16482
X0.76500 Y0.16382
X0.76400 Y0.16382
X0.76400 Y0.16282
X0.76300 Y0.16282
X0.76300 Y0.16182
X0.76200 Y0.16182
X0.76200 Y0.16082
X0.76100 Y0.16082
X0.76100 Y0.15982
X0.76000 Y0.15982
X0.76000 Y0.15882
X0.75900 Y0.15882
X0.75900 Y0.15782
X0.75800 Y0.15782
X0.75800 Y0.15682
X0.75700 Y0.15682
X0.75700 Y0.15582
X0.75600 Y0.15582
X0.75600 Y0.15482
X0.75500 Y0.15482
X0.75500 Y0.15382
X0.75400 Y0.15382
X0.75400 Y0.15282
X0.75300 Y0.15282
X0.75300 Y0.15182
X0.75200 Y0.15182
X0.75200 Y0.15082
X0.75100 Y0.15082
X0.75100 Y0.14982
X0.75000 Y0.14982
X0.75000 Y0.14882
X0.74900 Y0.14882
X0.74900 Y0.14782
X0.74800 Y0.14782
X0.74800 Y0.14682
X0.74700 Y0.14682
X0.74700 Y0.14582
X0.74600 Y0.14582
X0.74600 Y0.14482
X0.74500 Y0.14482
X0.74500 Y0.14382
X0.74400 Y0.14382
X0.74400 Y0.14282
X0.74300 Y0.14282
X0.74300 Y0.14182
X0.74200 Y0.14182
X0.74200 Y0.14082
X0.74100 Y0.14082
X0.74100 Y0.13982
X0.74000 Y0.13982
X0.74000 Y0.13882
X0.73900 Y0.13882
X0.73900 Y0.13782
X0.73800 Y0.13782
X0.73800 Y0.13682
X0.73700 Y0.13682
X0.73700 Y0.13582
X0.73600 Y0.13582
X0.73600 Y0.13482
X0.73500 Y0.13482
X0.73500 Y0.13382
X0.73400 Y0.13382
X0.73400 Y0.13282
X0.73300 Y0.13282
X0.73300 Y0.13182
X0.73200 Y0.13182
X0.73200 Y0.13082
X0.73100 Y0.13082
X0.73100 Y0.12982
X0.73000 Y0.12982
X0.73000 Y0.12882
X0.72900 Y0.12882
X0.72900 Y0.12782
X0.72800 Y0.12782
X0.72800 Y0.12682
X0.72700 Y0.12682
X0.72700 Y0.12582
X0.72600 Y0.12582
X0.72600 Y0.12482
X0.72500 Y0.12482
X0.72500 Y0.12382
X0.72400 Y0.12382
X0.72400 Y0.12282
X0.72300 Y0.12282
X0.72300 Y0.12182
X0.72200 Y0.12182
X0.72200 Y0.12082
X0.72100 Y0.12082
X0.72100 Y0.11982
X0.72000 Y0.11982
X0.72000 Y0.11882
X0.71900 Y0.11882
X0.71900 Y0.11782
X0.71800 Y0.11782
X0.71800 Y0.11682
X0.71700 Y0.11682
X0.71700 Y0.11582
X0.71600 Y0.11582
X0.71600 Y0.11482
X0.71500 Y0.11482
X0.71500 Y0.11382
X0.71400 Y0.11382
X0.71400 Y0.11282
X0.71300 Y0.11282
X0.71300 Y0.11182
X0.71200 Y0.11182
X0.71200 Y0.11082
X0.71100 Y0.11082
X0.71100 Y0.10982
X0.71000 Y0.10982
X0.71000 Y0.10882
X0.70900 Y0.10882
X0.70900 Y0.10782
X0.70800 Y0.10782
X0.70800 Y0.10682
X0.70700 Y0.10682
X0.70700 Y0.10582
X0.70600 Y0.10582
X0.70600 Y0.10482
X0.70500 Y0.10482
X0.70500 Y0.10382
X0.70400 Y0.10382
X0.70400 Y0.10282
X0.70300 Y0.10282
X0.70300 Y0.10182
X0.70200 Y0.10182
X0.70200 Y0.10082
X0.70100 Y0.10082
X0.70100 Y0.09982
X0.70000 Y0.09982
X0.70000 Y0.09882
X0.69900 Y0.09882
X0.69900 Y0.09782
X0.69800 Y0.09782
X0.69800 Y0.09682
X0.69700 Y0.09682
X0.69700 Y0.09582
X0.69600 Y0.09582
X0.69600 Y0.09482
X0.69500 Y0.09482
X0.69500 Y0.09382
X0.69400 Y0.09382
X0.69400 Y0.09282
X0.69300 Y0.09282
X0.69300 Y0.09182
X0.69200 Y0.09182
X0.69200 Y0.09082
X0.69100 Y0.09082
X0.69100 Y0.08982
X0.69000 Y0.08982
X0.69000 Y0.08882
X0.68900 Y0.08882
X0.68900 Y0.08782
X0.68800 Y0.08782
X0.68800 Y0.08682
X0.68700 Y0.08682
X0.68700 Y0.08582
X0.68600 Y0.08582
X0.68600 Y0.08482
X0.68500 Y0.08482
X0.68500 Y0.08382
X0.68400 Y0.08382
X0.68400 Y0.08282
X0.68300 Y0.08282
X0.68300 Y0.08182
X0.68200 Y0.08182
X0.68200 Y0.08082
X0.68100 Y0.08082
X0.68100 Y0.07982
X0.68000 Y0.07982
X0.68000 Y0.07882
X0.67900 Y0.07882
X0.67900 Y0.07782
X0.67800 Y0.07782
X0.67800 Y0.07682
X0.67700 Y0.07682
X0.67700 Y0.07582
X0.67600 Y0.07582
X0.67600 Y0.07482
X0.67500 Y0.07482
X0.67500 Y0.07382
X0.67400 Y0.07382
X0.67400 Y0.07282
X0.67300 Y0.07282
X0.67300 Y0.07182
X0.67200 Y0.07182
X0.67200 Y0.07082
X0.67100 Y0.07082
X0.67100 Y0.06982
X0.67000 Y0.06982
X0.67000 Y0.06882
X0.66900 Y0.06882
X0.66900 Y0.06782
X0.66800 Y0.06782
X0.66800 Y0.06682
X0.66700 Y0.06682
X0.66700 Y0.06582
X0.66600 Y0.06582
X0.66600 Y0.06482
X0.66500 Y0.06482
X0.66500 Y0.06382
X0.66400 Y0.06382
X0.66400 Y0.06282
X0.66300 Y0.06282
X0.66300 Y0.06182
X0.66200 Y0.06182
X0.66200 Y0.06082
X0.66100 Y0.06082
X0.66100 Y0.05982
X0.66000 Y0.05982
X0.66000 Y0.05882
X0.65900 Y0.05882
X0.65900 Y0.05782
X0.65800 Y0.05782
X0.65800 Y0.05682
X0.65700 Y0.05682
X0.65700 Y0.05582
X0.65600 Y0.05582
X0.65600 Y0.05482
X0.65500 Y0.05482
X0.65500 Y0.05382
X0.65200 Y0.05382
X0.65200 Y0.05282
X0.60100 Y0.05282
X0.60100 Y0.05382
X0.60000 Y0.05382
X0.60000 Y0.05482
X0.59900 Y0.05482
X0.59900 Y0.05582
X0.59800 Y0.05582
X0.59800 Y0.05682
X0.59700 Y0.05682
X0.59700 Y0.05882
X0.59800 Y0.05882
X0.59800 Y0.05982
X0.59900 Y0.05982
X0.59900 Y0.06082
X0.60000 Y0.06082
X0.60000 Y0.06182
X0.60100 Y0.06182
X0.60100 Y0.06282
X0.60200 Y0.06282
X0.60200 Y0.06382
X0.60400 Y0.06382
X0.60400 Y0.06582
X0.60500 Y0.06582
X0.60500 Y0.11482
X0.60600 Y0.11482
X0.60600 Y0.11782
X0.60700 Y0.11782
X0.60700 Y0.11882
X0.60800 Y0.11882
X0.60800 Y0.11982
X0.60900 Y0.11982
X0.60900 Y0.12082
X0.61000 Y0.12082
X0.61000 Y0.12182
X0.61100 Y0.12182
X0.61100 Y0.12282
X0.61200 Y0.12282
X0.61200 Y0.12382
X0.61300 Y0.12382
X0.61300 Y0.12482
X0.61400 Y0.12482
X0.61400 Y0.12582
X0.61500 Y0.12582
X0.61500 Y0.12682
X0.61600 Y0.12682
X0.61600 Y0.12782
X0.61700 Y0.12782
X0.61700 Y0.12882
X0.61800 Y0.12882
X0.61800 Y0.12982
X0.61900 Y0.12982
X0.61900 Y0.13082
X0.62000 Y0.13082
X0.62000 Y0.13182
X0.62100 Y0.13182
X0.62100 Y0.13282
X0.62200 Y0.13282
X0.62200 Y0.13382
X0.62300 Y0.13382
X0.62300 Y0.13482
X0.62400 Y0.13482
X0.62400 Y0.13782
X0.62500 Y0.13782
X0.62500 Y0.14382
X0.62600 Y0.14382
X0.62600 Y0.14882
X0.62700 Y0.14882
X0.62700 Y0.14982
X0.62800 Y0.14982
X0.62800 Y0.16182
X0.62900 Y0.16182
X0.62900 Y0.16482
X0.63000 Y0.16482
X0.63000 Y0.16782
X0.63100 Y0.16782
X0.63100 Y0.17082
X0.63400 Y0.17082
X0.63400 Y0.17382
X0.63500 Y0.17382
X0.63500 Y0.17582
X0.63600 Y0.17582
X0.63600 Y0.17682
X0.63700 Y0.17682
X0.63700 Y0.17782
X0.63800 Y0.17782
X0.63800 Y0.17882
X0.63900 Y0.17882
X0.63900 Y0.17982
X0.64000 Y0.17982
X0.64000 Y0.18082
X0.64100 Y0.18082
X0.64100 Y0.18182
X0.64200 Y0.18182
X0.64200 Y0.18282
X0.64300 Y0.18282
X0.64300 Y0.18382
X0.64400 Y0.18382
X0.64400 Y0.18482
X0.64500 Y0.18482
X0.64500 Y0.18582
X0.64600 Y0.18582
X0.64600 Y0.18682
X0.64700 Y0.18682
X0.64700 Y0.18782
X0.64800 Y0.18782
X0.64800 Y0.18882
X0.64900 Y0.18882
X0.64900 Y0.18982
X0.65000 Y0.18982
X0.65000 Y0.19082
X0.65100 Y0.19082
X0.65100 Y0.19182
X0.65300 Y0.19182
X0.65300 Y0.19282
X0.68200 Y0.19282
X0.68200 Y0.19382
X0.72100 Y0.19382
X0.72100 Y0.19482
X0.72200 Y0.19482
X0.72200 Y0.19582
X0.72300 Y0.19582
X0.72300 Y0.21582
X0.72200 Y0.21582
X0.72200 Y0.21782
X0.71900 Y0.21782
X0.71900 Y0.21882
X0.67800 Y0.21882
X0.67800 Y0.21982
X0.64800 Y0.21982
X0.64800 Y0.21882
X0.63900 Y0.21882
X0.63900 Y0.21782
X0.63400 Y0.21782
X0.63400 Y0.21882
X0.63200 Y0.21882
X0.63200 Y0.22082
X0.63100 Y0.22082
X0.63100 Y0.22182
X0.63000 Y0.22182
X0.63000 Y0.22682
X0.63300 Y0.22682
X0.63300 Y0.22782
X0.63400 Y0.22782
X0.63400 Y0.22882
X0.63500 Y0.22882
X0.63500 Y0.22982
X0.63600 Y0.22982
X0.63600 Y0.23082
X0.63700 Y0.23082
X0.63700 Y0.23182
X0.63800 Y0.23182
X0.63800 Y0.23282
X0.63900 Y0.23282
X0.63900 Y0.23382
X0.64000 Y0.23382
X0.64000 Y0.23482
X0.64100 Y0.23482
X0.64100 Y0.23582
X0.64200 Y0.23582
X0.64200 Y0.23682
X0.64300 Y0.23682
X0.64300 Y0.23782
X0.64400 Y0.23782
X0.64400 Y0.23882
X0.64500 Y0.23882
X0.64500 Y0.23982
X0.64600 Y0.23982
X0.64600 Y0.24082
X0.64700 Y0.24082
X0.64700 Y0.24182
X0.64800 Y0.24182
X0.64800 Y0.24282
X0.68200 Y0.24282
X0.68200 Y0.24382
X0.72100 Y0.24382
X0.72100 Y0.24482
X0.72200 Y0.24482
X0.72200 Y0.24582
X0.72300 Y0.24582
X0.72300 Y0.26582
X0.72200 Y0.26582
X0.72200 Y0.26782
X0.71900 Y0.26782
X0.71900 Y0.26882
X0.67800 Y0.26882
X0.67800 Y0.26982
X0.64300 Y0.26982
X0.64300 Y0.26882
X0.63700 Y0.26882
X0.63700 Y0.26782
X0.63400 Y0.26782
X0.63400 Y0.26582
X0.63300 Y0.26582
X0.63300 Y0.26282
X0.63200 Y0.26282
X0.63200 Y0.26082
X0.63100 Y0.26082
X0.63100 Y0.25982
X0.63000 Y0.25982
X0.63000 Y0.25882
X0.62900 Y0.25882
X0.62900 Y0.25782
X0.62800 Y0.25782
X0.62800 Y0.25682
X0.62700 Y0.25682
X0.62700 Y0.25582
X0.62600 Y0.25582
X0.62600 Y0.25482
X0.62500 Y0.25482
X0.62500 Y0.25382
X0.62400 Y0.25382
X0.62400 Y0.25282
X0.62300 Y0.25282
X0.62300 Y0.25182
X0.62200 Y0.25182
X0.62200 Y0.25082
X0.62100 Y0.25082
X0.62100 Y0.24982
X0.62000 Y0.24982
X0.62000 Y0.24882
X0.61900 Y0.24882
X0.61900 Y0.24782
X0.61800 Y0.24782
X0.61800 Y0.24682
X0.61700 Y0.24682
X0.61700 Y0.24582
X0.61600 Y0.24582
X0.61600 Y0.24382
X0.61400 Y0.24382
X0.61400 Y0.24282
X0.61100 Y0.24282
X0.61100 Y0.24182
X0.60800 Y0.24182
X0.60800 Y0.24082
X0.60600 Y0.24082
X0.60600 Y0.24182
X0.60300 Y0.24182
X0.60300 Y0.24282
X0.60200 Y0.24282
X0.60200 Y0.24582
X0.60300 Y0.24582
X0.60300 Y0.24682
X0.60400 Y0.24682
X0.60400 Y0.24782
X0.60500 Y0.24782
X0.60500 Y0.29382
X0.63100 Y0.29382
X0.63100 Y0.29282
X0.68200 Y0.29282
X0.68200 Y0.29382
X0.72100 Y0.29382
X0.72100 Y0.29482
X0.72200 Y0.29482
X0.72200 Y0.29582
X0.72300 Y0.29582
X0.72300 Y0.31582
X0.72200 Y0.31582
X0.72200 Y0.31782
X0.71900 Y0.31782
X0.71900 Y0.31882
X0.67800 Y0.31882
X0.67800 Y0.31982
X0.63200 Y0.31982
X0.63200 Y0.31882
X0.63100 Y0.31882
X0.63100 Y0.31782
X0.58900 Y0.31782
X0.58900 Y0.31682
X0.58600 Y0.31682
X0.58600 Y0.31582
X0.58400 Y0.31582
X0.58400 Y0.31482
X0.58300 Y0.31482
X0.58300 Y0.31382
X0.58200 Y0.31382
X0.58200 Y0.31282
X0.58100 Y0.31282
X0.58100 Y0.31182
X0.58000 Y0.31182
X0.58000 Y0.31082
X0.57900 Y0.31082
X0.57900 Y0.30982
X0.57800 Y0.30982
X0.57800 Y0.30882
X0.57500 Y0.30882
X0.57500 Y0.30782
X0.52500 Y0.30782
X0.52500 Y0.30682
X0.52200 Y0.30682
X0.52200 Y0.30382
X0.52100 Y0.30382
X0.52100 Y0.30082
X0.52000 Y0.30082
X0.52000 Y0.29982
X0.51900 Y0.29982
X0.51900 Y0.29882
X0.51800 Y0.29882
X0.51800 Y0.29782
X0.51700 Y0.29782
X0.51700 Y0.29682
X0.51500 Y0.29682
X0.51500 Y0.29782
X0.51400 Y0.29782
X0.51400 Y0.29882
X0.51300 Y0.29882
X0.51300 Y0.29982
X0.51200 Y0.29982
X0.51200 Y0.30082
X0.51100 Y0.30082
X0.51100 Y0.30382
X0.51000 Y0.30382
X0.51000 Y0.30582
X0.50700 Y0.30582
X0.50700 Y0.30682
X0.47900 Y0.30682
X0.47900 Y0.30582
X0.47500 Y0.30582
X0.47500 Y0.30482
X0.45700 Y0.30482
X0.45700 Y0.36882
X0.50600 Y0.36882
X0.50600 Y0.36982
X0.51000 Y0.36982
X0.51000 Y0.37082
X0.51200 Y0.37082
X0.51200 Y0.37182
X0.51300 Y0.37182
X0.51300 Y0.37282
X0.51600 Y0.37282
X0.51600 Y0.37382
X0.52100 Y0.37382
X0.52100 Y0.36982
X0.52200 Y0.36982
X0.52200 Y0.36682
X0.52500 Y0.36682
X0.52500 Y0.36582
X0.57500 Y0.36582
X0.57500 Y0.36482
X0.57800 Y0.36482
X0.57800 Y0.36382
X0.57900 Y0.36382
X0.57900 Y0.36282
X0.58000 Y0.36282
X0.58000 Y0.36182
X0.58100 Y0.36182
X0.58100 Y0.36082
X0.58200 Y0.36082
X0.58200 Y0.35982
X0.58300 Y0.35982
X0.58300 Y0.35882
X0.58400 Y0.35882
X0.58400 Y0.35782
X0.58500 Y0.35782
X0.58500 Y0.35682
X0.58600 Y0.35682
X0.58600 Y0.35582
X0.58700 Y0.35582
X0.58700 Y0.35482
X0.58800 Y0.35482
X0.58800 Y0.35382
X0.58900 Y0.35382
X0.58900 Y0.35282
X0.59000 Y0.35282
X0.59000 Y0.35182
X0.59100 Y0.35182
X0.59100 Y0.35082
X0.59200 Y0.35082
X0.59200 Y0.34982
X0.59300 Y0.34982
X0.59300 Y0.34882
X0.59400 Y0.34882
X0.59400 Y0.34782
X0.59500 Y0.34782
X0.59500 Y0.34682
X0.59600 Y0.34682
X0.59600 Y0.34582
X0.59800 Y0.34582
X0.59800 Y0.34482
X0.60100 Y0.34482
X0.60100 Y0.34382
X0.63100 Y0.34382
X0.63100 Y0.34282
X0.68200 Y0.34282
X0.68200 Y0.34382
X0.72100 Y0.34382
X0.72100 Y0.34482
X0.72200 Y0.34482
X0.72200 Y0.34582
X0.72300 Y0.34582
X0.72300 Y0.36582
X0.72200 Y0.36582
X0.72200 Y0.36782
X0.71900 Y0.36782
X0.71900 Y0.36882
X0.67800 Y0.36882
X0.67800 Y0.36982
X0.63200 Y0.36982
X0.63200 Y0.36882
X0.63100 Y0.36882
X0.63100 Y0.36782
X0.61100 Y0.36782
X0.61100 Y0.36882
X0.60800 Y0.36882
X0.60800 Y0.36982
X0.60700 Y0.36982
X0.60700 Y0.37082
X0.60600 Y0.37082
X0.60600 Y0.37382
X0.60500 Y0.37382
X0.60500 Y0.41882
X0.60600 Y0.41882
X0.60600 Y0.41982
X0.60900 Y0.41982
X0.60900 Y0.41882
X0.61200 Y0.41882
X0.61200 Y0.41782
X0.61500 Y0.41782
X0.61500 Y0.41682
X0.61600 Y0.41682
X0.61600 Y0.41582
X0.61700 Y0.41582
X0.61700 Y0.41482
X0.61800 Y0.41482
X0.61800 Y0.41382
X0.61900 Y0.41382
X0.61900 Y0.41282
X0.62000 Y0.41282
X0.62000 Y0.41182
X0.62100 Y0.41182
X0.62100 Y0.41082
X0.62200 Y0.41082
X0.62200 Y0.40982
X0.62300 Y0.40982
X0.62300 Y0.40882
X0.62400 Y0.40882
X0.62400 Y0.40782
X0.62500 Y0.40782
X0.62500 Y0.40682
X0.62600 Y0.40682
X0.62600 Y0.40582
X0.62700 Y0.40582
X0.62700 Y0.40482
X0.62800 Y0.40482
X0.62800 Y0.40382
X0.62900 Y0.40382
X0.62900 Y0.40282
X0.63000 Y0.40282
X0.63000 Y0.40182
X0.63100 Y0.40182
X0.63100 Y0.40082
X0.63200 Y0.40082
X0.63200 Y0.39882
X0.63300 Y0.39882
X0.63300 Y0.39482
X0.63400 Y0.39482
X0.63400 Y0.39382
X0.64000 Y0.39382
X0.64000 Y0.39282
X0.68200 Y0.39282
X0.68200 Y0.39382
X0.72100 Y0.39382
X0.72100 Y0.39482
X0.72200 Y0.39482
X0.72200 Y0.39582
X0.72300 Y0.39582
X0.72300 Y0.41582
X0.72200 Y0.41582
X0.72200 Y0.41782
X0.71900 Y0.41782
X0.71900 Y0.41882
X0.67800 Y0.41882
X0.67800 Y0.41982
X0.64600 Y0.41982
X0.64600 Y0.42082
X0.64500 Y0.42082
X0.64500 Y0.42182
X0.64400 Y0.42182
X0.64400 Y0.42282
X0.64300 Y0.42282
X0.64300 Y0.42382
X0.64200 Y0.42382
X0.64200 Y0.42482
X0.64100 Y0.42482
X0.64100 Y0.42582
X0.64000 Y0.42582
X0.64000 Y0.42682
X0.63900 Y0.42682
X0.63900 Y0.42782
X0.63800 Y0.42782
X0.63800 Y0.42882
X0.63700 Y0.42882
X0.63700 Y0.42982
X0.63600 Y0.42982
X0.63600 Y0.43082
X0.63500 Y0.43082
X0.63500 Y0.43182
X0.63400 Y0.43182
X0.63400 Y0.43282
X0.63300 Y0.43282
X0.63300 Y0.43382
X0.63200 Y0.43382
X0.63200 Y0.43482
X0.63100 Y0.43482
X0.63100 Y0.43582
X0.62900 Y0.43582
X0.62900 Y0.43682
X0.62800 Y0.43682
X0.62800 Y0.43782
X0.62700 Y0.43782
X0.62700 Y0.43882
X0.62600 Y0.43882
X0.62600 Y0.44082
X0.62500 Y0.44082
X0.62500 Y0.44182
X0.62400 Y0.44182
X0.62400 Y0.44282
X0.62300 Y0.44282
X0.62300 Y0.44382
X0.62200 Y0.44382
X0.62200 Y0.44482
X0.62100 Y0.44482
X0.62100 Y0.44582
X0.62000 Y0.44582
X0.62000 Y0.44682
X0.61900 Y0.44682
X0.61900 Y0.44782
X0.61800 Y0.44782
X0.61800 Y0.44882
X0.61700 Y0.44882
X0.61700 Y0.44982
X0.61600 Y0.44982
X0.61600 Y0.45082
X0.61500 Y0.45082
X0.61500 Y0.45182
X0.61400 Y0.45182
X0.61400 Y0.45282
X0.61300 Y0.45282
X0.61300 Y0.45382
X0.61200 Y0.45382
X0.61200 Y0.45482
X0.61100 Y0.45482
X0.61100 Y0.45582
X0.61000 Y0.45582
X0.61000 Y0.45682
X0.60900 Y0.45682
X0.60900 Y0.45782
X0.60800 Y0.45782
X0.60800 Y0.45882
X0.60700 Y0.45882
X0.60700 Y0.46082
X0.60600 Y0.46082
X0.60600 Y0.46382
X0.60500 Y0.46382
X0.60500 Y0.48182
X0.60400 Y0.48182
X0.60400 Y0.48482
X0.60100 Y0.48482
X0.60100 Y0.48582
X0.52500 Y0.48582
X0.52500 Y0.48482
X0.52200 Y0.48482
X0.52200 Y0.48182
X0.52100 Y0.48182
X0.52100 Y0.46782
X0.50600 Y0.46782
X0.50600 Y0.46882
X0.50500 Y0.46882
X0.50500 Y0.46982
X0.50100 Y0.46982
X0.50100 Y0.47082
X0.47500 Y0.47082
X0.47500 Y0.46982
X0.47100 Y0.46982
X0.47100 Y0.46582
X0.47000 Y0.46582
X0.47000 Y0.43682
X0.45700 Y0.43682
X0.45700 Y0.45182
X0.45600 Y0.45182
X0.45600 Y0.45482
X0.45300 Y0.45482
X0.45300 Y0.45582
X0.45100 Y0.45582
X0.45100 Y0.45682
X0.45000 Y0.45682
X0.45000 Y0.45782
X0.44900 Y0.45782
X0.44900 Y0.45882
X0.44800 Y0.45882
X0.44800 Y0.45982
X0.44700 Y0.45982
X0.44700 Y0.46282
X0.44800 Y0.46282
X0.44800 Y0.46382
X0.44900 Y0.46382
X0.44900 Y0.46482
X0.45000 Y0.46482
X0.45000 Y0.46582
X0.45100 Y0.46582
X0.45100 Y0.46682
X0.45400 Y0.46682
X0.45400 Y0.46782
X0.45600 Y0.46782
X0.45600 Y0.46982
X0.45700 Y0.46982
X0.45700 Y0.52282
X0.45600 Y0.52282
X0.45600 Y0.52582
X0.45300 Y0.52582
X0.45300 Y0.52682
X0.45200 Y0.52682
X0.45200 Y0.52782
X0.45100 Y0.52782
X0.45100 Y0.52882
X0.45000 Y0.52882
X0.45000 Y0.52982
X0.44900 Y0.52982
X0.44900 Y0.53082
X0.44800 Y0.53082
X0.44800 Y0.53282
X0.44900 Y0.53282
X0.44900 Y0.53382
X0.45000 Y0.53382
X0.45000 Y0.53482
X0.45100 Y0.53482
X0.45100 Y0.53582
X0.45200 Y0.53582
X0.45200 Y0.53682
X0.48600 Y0.53682
X0.48600 Y0.53782
X0.48800 Y0.53782
X0.48800 Y0.54082
X0.48900 Y0.54082
X0.48900 Y0.56182
X0.52100 Y0.56182
X0.52100 Y0.54782
X0.52200 Y0.54782
X0.52200 Y0.54482
X0.52500 Y0.54482
X0.52500 Y0.54382
X0.57500 Y0.54382
X0.57500 Y0.54282
X0.57800 Y0.54282
X0.57800 Y0.54182
X0.57900 Y0.54182
X0.57900 Y0.54082
X0.58000 Y0.54082
X0.58000 Y0.53982
X0.58100 Y0.53982
X0.58100 Y0.53882
X0.58200 Y0.53882
X0.58200 Y0.53782
X0.58300 Y0.53782
X0.58300 Y0.53682
X0.58400 Y0.53682
X0.58400 Y0.53582
X0.58500 Y0.53582
X0.58500 Y0.53482
X0.58600 Y0.53482
X0.58600 Y0.53382
X0.58700 Y0.53382
X0.58700 Y0.53282
X0.58800 Y0.53282
X0.58800 Y0.53182
X0.58900 Y0.53182
X0.58900 Y0.53082
X0.59000 Y0.53082
X0.59000 Y0.52982
X0.59100 Y0.52982
X0.59100 Y0.52882
X0.59200 Y0.52882
X0.59200 Y0.52782
X0.59300 Y0.52782
X0.59300 Y0.52682
X0.59400 Y0.52682
X0.59400 Y0.52582
X0.59500 Y0.52582
X0.59500 Y0.52482
X0.59600 Y0.52482
X0.59600 Y0.52382
X0.59700 Y0.52382
X0.59700 Y0.52282
X0.59800 Y0.52282
X0.59800 Y0.52182
X0.59900 Y0.52182
X0.59900 Y0.52082
X0.60000 Y0.52082
X0.60000 Y0.51982
X0.60100 Y0.51982
X0.60100 Y0.51882
X0.60200 Y0.51882
X0.60200 Y0.51782
X0.60300 Y0.51782
X0.60300 Y0.51682
X0.60400 Y0.51682
X0.60400 Y0.51582
X0.60500 Y0.51582
X0.60500 Y0.51482
X0.60600 Y0.51482
X0.60600 Y0.51382
X0.60700 Y0.51382
X0.60700 Y0.51282
X0.60800 Y0.51282
X0.60800 Y0.51182
X0.60900 Y0.51182
X0.60900 Y0.51082
X0.61000 Y0.51082
X0.61000 Y0.50982
X0.61100 Y0.50982
X0.61100 Y0.50882
X0.61200 Y0.50882
X0.61200 Y0.50782
X0.61300 Y0.50782
X0.61300 Y0.50682
X0.61400 Y0.50682
X0.61400 Y0.50582
X0.61500 Y0.50582
X0.61500 Y0.50482
X0.61600 Y0.50482
X0.61600 Y0.50382
X0.61700 Y0.50382
X0.61700 Y0.50282
X0.61800 Y0.50282
X0.61800 Y0.50182
X0.61900 Y0.50182
X0.61900 Y0.50082
X0.62000 Y0.50082
X0.62000 Y0.49982
X0.62100 Y0.49982
X0.62100 Y0.49882
X0.62200 Y0.49882
X0.62200 Y0.49782
X0.62300 Y0.49782
X0.62300 Y0.49682
X0.62400 Y0.49682
X0.62400 Y0.49582
X0.62500 Y0.49582
X0.62500 Y0.49482
X0.62600 Y0.49482
X0.62600 Y0.49382
X0.62700 Y0.49382
X0.62700 Y0.49282
X0.62800 Y0.49282
X0.62800 Y0.49182
X0.62900 Y0.49182
X0.62900 Y0.49082
X0.63000 Y0.49082
X0.63000 Y0.48982
X0.63100 Y0.48982
X0.63100 Y0.48882
X0.63200 Y0.48882
X0.63200 Y0.48782
X0.63300 Y0.48782
X0.63300 Y0.48682
X0.63400 Y0.48682
X0.63400 Y0.48582
X0.63500 Y0.48582
X0.63500 Y0.48482
X0.63600 Y0.48482
X0.63600 Y0.48382
X0.63700 Y0.48382
X0.63700 Y0.48282
X0.63800 Y0.48282
X0.63800 Y0.48182
X0.63900 Y0.48182
X0.63900 Y0.48082
X0.64000 Y0.48082
X0.64000 Y0.47982
X0.64100 Y0.47982
X0.64100 Y0.47882
X0.64200 Y0.47882
X0.64200 Y0.47782
X0.64300 Y0.47782
X0.64300 Y0.47682
X0.64400 Y0.47682
X0.64400 Y0.47582
X0.64500 Y0.47582
X0.64500 Y0.47282
X0.64600 Y0.47282
X0.64600 Y0.47082
X0.64500 Y0.47082
X0.64500 Y0.46982
X0.64400 Y0.46982
X0.64400 Y0.46882
X0.63700 Y0.46882
X0.63700 Y0.46782
X0.63400 Y0.46782
X0.63400 Y0.46482
X0.63300 Y0.46482
X0.63300 Y0.44682
X0.63400 Y0.44682
X0.63400 Y0.44482
X0.63700 Y0.44482
X0.63700 Y0.44382
X0.67500 Y0.44382
X0.67500 Y0.44282
X0.68200 Y0.44282
X0.68200 Y0.44382
X0.72100 Y0.44382
X0.72100 Y0.44482
X0.72200 Y0.44482
X0.72200 Y0.44582
X0.72300 Y0.44582
X0.72300 Y0.46582
X0.72200 Y0.46582
X0.72200 Y0.46782
X0.71900 Y0.46782
X0.71900 Y0.46882
X0.68600 Y0.46882
X0.68600 Y0.46982
X0.68500 Y0.46982
X0.68500 Y0.47082
X0.68400 Y0.47082
X0.68400 Y0.47182
X0.68300 Y0.47182
X0.68300 Y0.47282
X0.68200 Y0.47282
X0.68200 Y0.47382
X0.68100 Y0.47382
X0.68100 Y0.47482
X0.68000 Y0.47482
X0.68000 Y0.47582
X0.67900 Y0.47582
X0.67900 Y0.47682
X0.67800 Y0.47682
X0.67800 Y0.47782
X0.67700 Y0.47782
X0.67700 Y0.47882
X0.67600 Y0.47882
X0.67600 Y0.47982
X0.67500 Y0.47982
X0.67500 Y0.48082
X0.67400 Y0.48082
X0.67400 Y0.48182
X0.67300 Y0.48182
X0.67300 Y0.48282
X0.67200 Y0.48282
X0.67200 Y0.48382
X0.67100 Y0.48382
X0.67100 Y0.48482
X0.67000 Y0.48482
X0.67000 Y0.48582
X0.66900 Y0.48582
X0.66900 Y0.48682
X0.66800 Y0.48682
X0.66800 Y0.48782
X0.66700 Y0.48782
X0.66700 Y0.48882
X0.66600 Y0.48882
X0.66600 Y0.48982
X0.66500 Y0.48982
X0.66500 Y0.49082
X0.66400 Y0.49082
X0.66400 Y0.49182
X0.66300 Y0.49182
X0.66300 Y0.49282
X0.66200 Y0.49282
X0.66200 Y0.49382
X0.66100 Y0.49382
X0.66100 Y0.49482
X0.66000 Y0.49482
X0.66000 Y0.49582
X0.65900 Y0.49582
X0.65900 Y0.49682
X0.65800 Y0.49682
X0.65800 Y0.49782
X0.65700 Y0.49782
X0.65700 Y0.49882
X0.65600 Y0.49882
X0.65600 Y0.49982
X0.65500 Y0.49982
X0.65500 Y0.50082
X0.65400 Y0.50082
X0.65400 Y0.50182
X0.65300 Y0.50182
X0.65300 Y0.50282
X0.65200 Y0.50282
X0.65200 Y0.50382
X0.65100 Y0.50382
X0.65100 Y0.50482
X0.65000 Y0.50482
X0.65000 Y0.50582
X0.64900 Y0.50582
X0.64900 Y0.50682
X0.64800 Y0.50682
X0.64800 Y0.50782
X0.64700 Y0.50782
X0.64700 Y0.50882
X0.64600 Y0.50882
X0.64600 Y0.50982
X0.64500 Y0.50982
X0.64500 Y0.51082
X0.64400 Y0.51082
X0.64400 Y0.51182
X0.64300 Y0.51182
X0.64300 Y0.51282
X0.64200 Y0.51282
X0.64200 Y0.51382
X0.64100 Y0.51382
X0.64100 Y0.51482
X0.64000 Y0.51482
X0.64000 Y0.51582
X0.63900 Y0.51582
X0.63900 Y0.51682
X0.63800 Y0.51682
X0.63800 Y0.51782
X0.63700 Y0.51782
X0.63700 Y0.51882
X0.63600 Y0.51882
X0.63600 Y0.51982
X0.63500 Y0.51982
X0.63500 Y0.52082
X0.63400 Y0.52082
X0.63400 Y0.52182
X0.63300 Y0.52182
X0.63300 Y0.52282
X0.63200 Y0.52282
X0.63200 Y0.52382
X0.63100 Y0.52382
X0.63100 Y0.52482
X0.63000 Y0.52482
X0.63000 Y0.52582
X0.62900 Y0.52582
X0.62900 Y0.52682
X0.62800 Y0.52682
X0.62800 Y0.52782
X0.62700 Y0.52782
X0.62700 Y0.52882
X0.62600 Y0.52882
X0.62600 Y0.52982
X0.62500 Y0.52982
X0.62500 Y0.53082
X0.62400 Y0.53082
X0.62400 Y0.53182
X0.62300 Y0.53182
X0.62300 Y0.53282
X0.62200 Y0.53282
X0.62200 Y0.53382
X0.62100 Y0.53382
X0.62100 Y0.53482
X0.62000 Y0.53482
X0.62000 Y0.53582
X0.61900 Y0.53582
X0.61900 Y0.53682
X0.61800 Y0.53682
X0.61800 Y0.53782
X0.61700 Y0.53782
X0.61700 Y0.53882
X0.61600 Y0.53882
X0.61600 Y0.53982
X0.61500 Y0.53982
X0.61500 Y0.54082
X0.61400 Y0.54082
X0.61400 Y0.54182
X0.61300 Y0.54182
X0.61300 Y0.54282
X0.61200 Y0.54282
X0.61200 Y0.54382
X0.61100 Y0.54382
X0.61100 Y0.54482
X0.61000 Y0.54482
X0.61000 Y0.54582
X0.60900 Y0.54582
X0.60900 Y0.54682
X0.60700 Y0.54682
X0.60700 Y0.54882
X0.60600 Y0.54882
X0.60600 Y0.55182
X0.60500 Y0.55182
X0.60500 Y0.59982
X0.60400 Y0.59982
X0.60400 Y0.60282
X0.60100 Y0.60282
X0.60100 Y0.60382
X0.53200 Y0.60382
X0.53200 Y0.60482
X0.53100 Y0.60482
X0.53100 Y0.60582
X0.53000 Y0.60582
X0.53000 Y0.60682
X0.52900 Y0.60682
X0.52900 Y0.61082
X0.53000 Y0.61082
X0.53000 Y0.61182
X0.53100 Y0.61182
X0.53100 Y0.61282
X0.53200 Y0.61282
X0.53200 Y0.61382
X0.53300 Y0.61382
X0.53300 Y0.61482
X0.53500 Y0.61482
X0.53500 Y0.61782
X0.53600 Y0.61782
X0.53600 Y0.64382
X0.73200 Y0.64382
X0.73200 Y0.64282
X0.73500 Y0.64282
X0.73500 Y0.64182
X0.73600 Y0.64182
X0.73600 Y0.64082
X0.73700 Y0.64082
X0.73700 Y0.63982
X0.73800 Y0.63982
X0.73800 Y0.63882
X0.73900 Y0.63882
X0.73900 Y0.63782
X0.74000 Y0.63782
X0.74000 Y0.63682
X0.74100 Y0.63682
X0.74100 Y0.63582
X0.74200 Y0.63582
X0.74200 Y0.63482
X0.74300 Y0.63482
X0.74300 Y0.63382
X0.74400 Y0.63382
X0.74400 Y0.63282
X0.74500 Y0.63282
X0.74500 Y0.63182
X0.74600 Y0.63182
X0.74600 Y0.63082
X0.74700 Y0.63082
X0.74700 Y0.62982
X0.74800 Y0.62982
X0.74800 Y0.62882
X0.74900 Y0.62882
X0.74900 Y0.62782
X0.75000 Y0.62782
X0.75000 Y0.62682
X0.75100 Y0.62682
X0.75100 Y0.62582
X0.75200 Y0.62582
X0.75200 Y0.62482
X0.75300 Y0.62482
X0.75300 Y0.62382
X0.75400 Y0.62382
X0.75400 Y0.62282
X0.75500 Y0.62282
X0.75500 Y0.62182
X0.75600 Y0.62182
X0.75600 Y0.62082
X0.75700 Y0.62082
X0.75700 Y0.61982
X0.75800 Y0.61982
X0.75800 Y0.61682
X0.75900 Y0.61682
X0.75900 Y0.61482
X0.76000 Y0.61482
X0.76000 Y0.61282
X0.76300 Y0.61282
X0.76300 Y0.61182
X0.76600 Y0.61182
X0.76600 Y0.61082
X0.76700 Y0.61082
X0.76700 Y0.60982
X0.76800 Y0.60982
X0.76800 Y0.60882
X0.76900 Y0.60882
X0.76900 Y0.60782
X0.77000 Y0.60782
X0.77000 Y0.60682
X0.77100 Y0.60682
X0.77100 Y0.60582
X0.77200 Y0.60582
X0.77200 Y0.60482
X0.77300 Y0.60482
X0.77300 Y0.60382
X0.77400 Y0.60382
X0.77400 Y0.60282
X0.77500 Y0.60282
X0.77500 Y0.60182
X0.77600 Y0.60182
X0.77600 Y0.60082
X0.77700 Y0.60082
X0.77700 Y0.59982
X0.77800 Y0.59982
X0.77800 Y0.59882
X0.77900 Y0.59882
X0.77900 Y0.59782
X0.78000 Y0.59782
X0.78000 Y0.59682
X0.78100 Y0.59682
X0.78100 Y0.59582
X0.78200 Y0.59582
X0.78200 Y0.59482
X0.78300 Y0.59482
X0.78300 Y0.59382
X0.78400 Y0.59382
X0.78400 Y0.59282
X0.78500 Y0.59282
X0.78500 Y0.59182
X0.78600 Y0.59182
X0.78600 Y0.59082
X0.78700 Y0.59082
X0.78700 Y0.58982
X0.78800 Y0.58982
X0.78800 Y0.58882
X0.78900 Y0.58882
X0.78900 Y0.58782
X0.79000 Y0.58782
X0.79000 Y0.58482
X0.79100 Y0.58482
X0.79100 Y0.52782
X0.79200 Y0.52782
X0.79200 Y0.52582
X0.79300 Y0.52582
X0.79300 Y0.52382
X0.79400 Y0.52382
X0.79400 Y0.52282
X0.79500 Y0.52282
X0.79500 Y0.52182
X0.79600 Y0.52182
X0.79600 Y0.52082
X0.79800 Y0.52082
X0.79800 Y0.51982
X0.80000 Y0.51982
X0.80000 Y0.51882
X0.81400 Y0.51882
X0.81400 Y0.51782
X0.81500 Y0.51782
X0.81500 Y0.51682
X0.81600 Y0.51682
X0.81600 Y0.51182
X0.81700 Y0.51182
X0.81700 Y0.50582
X0.81800 Y0.50582
X0.81800 Y0.50382
X0.81900 Y0.50382
X0.81900 Y0.50282
X0.82000 Y0.50282
X0.82000 Y0.50182
X0.82100 Y0.50182
X0.82100 Y0.50082
X0.82200 Y0.50082
X0.82200 Y0.49982
X0.82300 Y0.49982
X0.82300 Y0.49882
X0.82400 Y0.49882
X0.82400 Y0.49782
X0.82500 Y0.49782
X0.82500 Y0.49682
X0.82600 Y0.49682
X0.82600 Y0.49582
X0.82700 Y0.49582
X0.82700 Y0.49482
X0.82800 Y0.49482
X0.82800 Y0.49382
X0.82900 Y0.49382
X0.82900 Y0.49282
X0.83000 Y0.49282
X0.83000 Y0.49182
X0.83100 Y0.49182
X0.83100 Y0.49082
X0.83200 Y0.49082
X0.83200 Y0.48982
X0.83300 Y0.48982
X0.83300 Y0.48882
X0.83400 Y0.48882
X0.83400 Y0.48782
X0.83500 Y0.48782
X0.83500 Y0.48682
X0.83600 Y0.48682
X0.83600 Y0.48582
X0.83700 Y0.48582
X0.83700 Y0.48482
X0.83800 Y0.48482
X0.83800 Y0.48382
X0.83900 Y0.48382
X0.83900 Y0.48282
X0.84000 Y0.48282
X0.84000 Y0.48182
X0.84100 Y0.48182
X0.84100 Y0.48082
X0.84200 Y0.48082
X0.84200 Y0.47982
X0.84300 Y0.47982
X0.84300 Y0.47882
X0.84400 Y0.47882
X0.84400 Y0.47782
X0.84500 Y0.47782
X0.84500 Y0.47682
X0.84600 Y0.47682
X0.84600 Y0.47582
X0.84700 Y0.47582
X0.84700 Y0.47282
X0.84800 Y0.47282
X0.84800 Y0.47082
X0.84700 Y0.47082
X0.84700 Y0.46982
X0.84600 Y0.46982
X0.84600 Y0.46882
X0.84200 Y0.46882
X0.84200 Y0.46782
X0.83900 Y0.46782
X0.83900 Y0.46482
X0.83800 Y0.46482
X0.83800 Y0.44582
X0.83900 Y0.44582
X0.83900 Y0.44482
X0.84000 Y0.44482
X0.84000 Y0.44382
X0.88000 Y0.44382
X0.88000 Y0.44282
X0.88700 Y0.44282
X0.88700 Y0.44382
X0.92600 Y0.44382
X0.92600 Y0.44482
X0.92700 Y0.44482
X0.92700 Y0.44582
X0.92800 Y0.44582
X0.92800 Y0.46582
X0.92700 Y0.46582
X0.92700 Y0.46782
X0.92400 Y0.46782
X0.92400 Y0.46882
X0.88700 Y0.46882
X0.88700 Y0.46982
X0.88600 Y0.46982
X0.88600 Y0.47082
X0.88500 Y0.47082
X0.88500 Y0.47182
X0.88400 Y0.47182
X0.88400 Y0.47282
X0.88300 Y0.47282
X0.88300 Y0.47382
X0.88200 Y0.47382
X0.88200 Y0.47482
X0.88100 Y0.47482
X0.88100 Y0.47582
X0.88000 Y0.47582
X0.88000 Y0.47682
X0.87900 Y0.47682
X0.87900 Y0.47782
X0.87800 Y0.47782
X0.87800 Y0.47882
X0.87700 Y0.47882
X0.87700 Y0.47982
X0.87600 Y0.47982
X0.87600 Y0.48082
X0.87500 Y0.48082
X0.87500 Y0.48182
X0.87400 Y0.48182
X0.87400 Y0.48282
X0.87300 Y0.48282
X0.87300 Y0.48382
X0.87200 Y0.48382
X0.87200 Y0.48482
X0.87100 Y0.48482
X0.87100 Y0.48582
X0.87000 Y0.48582
X0.87000 Y0.48682
X0.86900 Y0.48682
X0.86900 Y0.48782
X0.86800 Y0.48782
X0.86800 Y0.48882
X0.86700 Y0.48882
X0.86700 Y0.48982
X0.86600 Y0.48982
X0.86600 Y0.49082
X0.86500 Y0.49082
X0.86500 Y0.49182
X0.86400 Y0.49182
X0.86400 Y0.49282
X0.86300 Y0.49282
X0.86300 Y0.49382
X0.86200 Y0.49382
X0.86200 Y0.49482
X0.86100 Y0.49482
X0.86100 Y0.49582
X0.86000 Y0.49582
X0.86000 Y0.49682
X0.85900 Y0.49682
X0.85900 Y0.49782
X0.85800 Y0.49782
X0.85800 Y0.49882
X0.85700 Y0.49882
X0.85700 Y0.49982
X0.85600 Y0.49982
X0.85600 Y0.50082
X0.85500 Y0.50082
X0.85500 Y0.50182
X0.85400 Y0.50182
X0.85400 Y0.50282
X0.85300 Y0.50282
X0.85300 Y0.50382
X0.85200 Y0.50382
X0.85200 Y0.50482
X0.85100 Y0.50482
X0.85100 Y0.50582
X0.85000 Y0.50582
X0.85000 Y0.50682
X0.84900 Y0.50682
X0.84900 Y0.50782
X0.84800 Y0.50782
X0.84800 Y0.50882
X0.84700 Y0.50882
X0.84700 Y0.50982
X0.84600 Y0.50982
X0.84600 Y0.51082
X0.84500 Y0.51082
X0.84500 Y0.51282
X0.84400 Y0.51282
X0.84400 Y0.51782
X0.84500 Y0.51782
X0.84500 Y0.51882
X0.85600 Y0.51882
X0.85600 Y0.51982
X0.85900 Y0.51982
X0.85900 Y0.52082
X0.86000 Y0.52082
X0.86000 Y0.52182
X0.86100 Y0.52182
X0.86100 Y0.52282
X0.86200 Y0.52282
X0.86200 Y0.52382
X0.86300 Y0.52382
X0.86300 Y0.52582
X0.86400 Y0.52582
X0.86400 Y0.52782
X0.86500 Y0.52782
X0.86500 Y0.54682
X0.86600 Y0.54682
X0.86600 Y0.54782
X0.86700 Y0.54782
X0.86700 Y0.54882
X0.98000 Y0.54882
X0.98000 Y0.54782
X0.98100 Y0.54782
X0.98100 Y0.54582
X0.98000 Y0.54582
X0.98000 Y0.54482
X0.97900 Y0.54482
X0.97900 Y0.54382
X0.97800 Y0.54382
X0.97800 Y0.54182
X0.97700 Y0.54182
X0.97700 Y0.53982
X0.97600 Y0.53982
X0.97600 Y0.53882
X0.97400 Y0.53882
X0.97400 Y0.53782
X0.97300 Y0.53782
X0.97300 Y0.53682
X0.97200 Y0.53682
X0.97200 Y0.53382
X0.97100 Y0.53382
X0.97100 Y0.47782
X0.97200 Y0.47782
X0.97200 Y0.47582
X0.97300 Y0.47582
X0.97300 Y0.47382
X0.97400 Y0.47382
X0.97400 Y0.47282
X0.97500 Y0.47282
X0.97500 Y0.47182
X0.97600 Y0.47182
X0.97600 Y0.47082
X0.97800 Y0.47082
X0.97800 Y0.46982
X0.98000 Y0.46982
X0.98000 Y0.46882
X1.00400 Y0.46882
X1.00400 Y0.46782
X1.00500 Y0.46782
X1.00500 Y0.46682
X1.00600 Y0.46682
X1.00600 Y0.43982
X1.00500 Y0.43982
X1.00500 Y0.43882
X1.00400 Y0.43882
X1.00400 Y0.43782
X0.98000 Y0.43782
X0.98000 Y0.43682
X0.97800 Y0.43682
X0.97800 Y0.43582
X0.97700 Y0.43582
X0.97700 Y0.43482
X0.97600 Y0.43482
X0.97600 Y0.43382
X0.97400 Y0.43382
X0.97400 Y0.43282
X0.97300 Y0.43282
X0.97300 Y0.43182
X0.97200 Y0.43182
X0.97200 Y0.42882
X0.97100 Y0.42882
X0.97100 Y0.37282
X0.97200 Y0.37282
X0.97200 Y0.37082
X0.97300 Y0.37082
X0.97300 Y0.36882
X0.97400 Y0.36882
X0.97400 Y0.36782
X0.97500 Y0.36782
X0.97500 Y0.36682
X0.97600 Y0.36682
X0.97600 Y0.36582
X0.97800 Y0.36582
X0.97800 Y0.36482
X0.98000 Y0.36482
X0.98000 Y0.36382
X1.05600 Y0.36382
X1.05600 Y0.36482
X1.05800 Y0.36482
X1.05800 Y0.36582
X1.06000 Y0.36582
X1.06000 Y0.36682
X1.06100 Y0.36682
X1.06100 Y0.36782
X1.06200 Y0.36782
X1.06200 Y0.36882
X1.06300 Y0.36882
X1.06300 Y0.37082
X1.06400 Y0.37082
X1.06400 Y0.37282
X1.06500 Y0.37282
X1.06500 Y0.42882
X1.06400 Y0.42882
X1.06400 Y0.43082
X1.06300 Y0.43082
X1.06300 Y0.43282
X1.06200 Y0.43282
X1.06200 Y0.43382
X1.06000 Y0.43382
X1.06000 Y0.43482
X1.05900 Y0.43482
X1.05900 Y0.43582
X1.05800 Y0.43582
X1.05800 Y0.43682
X1.05600 Y0.43682
X1.05600 Y0.43782
X1.03200 Y0.43782
X1.03200 Y0.43882
X1.03100 Y0.43882
X1.03100 Y0.46782
X1.03200 Y0.46782
X1.03200 Y0.46882
X1.05600 Y0.46882
X1.05600 Y0.46982
X1.05800 Y0.46982
X1.05800 Y0.47082
X1.06000 Y0.47082
X1.06000 Y0.47182
X1.06100 Y0.47182
X1.06100 Y0.47282
X1.06200 Y0.47282
X1.06200 Y0.47382
X1.06300 Y0.47382
X1.06300 Y0.47582
X1.06400 Y0.47582
X1.06400 Y0.47782
X1.06500 Y0.47782
X1.06500 Y0.53382
X1.06400 Y0.53382
X1.06400 Y0.53582
X1.06300 Y0.53582
X1.06300 Y0.53782
X1.06200 Y0.53782
X1.06200 Y0.53882
X1.06000 Y0.53882
X1.06000 Y0.53982
X1.05900 Y0.53982
X1.05900 Y0.54182
X1.05800 Y0.54182
X1.05800 Y0.54382
X1.05700 Y0.54382
X1.05700 Y0.54482
X1.05600 Y0.54482
X1.05600 Y0.54582
X1.05500 Y0.54582
X1.05500 Y0.54782
X1.05600 Y0.54782
X1.05600 Y0.54882
X1.06900 Y0.54882
X1.06900 Y0.54982
X1.07300 Y0.54982
X1.07300 Y0.55082
X1.07500 Y0.55082
X1.07500 Y0.55182
X1.07600 Y0.55182
X1.07600 Y0.55282
X1.07700 Y0.55282
X1.07700 Y0.55382
X1.07800 Y0.55382
X1.07800 Y0.55482
X1.07900 Y0.55482
X1.07900 Y0.55582
X1.08000 Y0.55582
X1.08000 Y0.55682
X1.08100 Y0.55682
X1.08100 Y0.55782
X1.08200 Y0.55782
X1.08200 Y0.55882
X1.08300 Y0.55882
X1.08300 Y0.55982
X1.08400 Y0.55982
X1.08400 Y0.56082
X1.08500 Y0.56082
X1.08500 Y0.56182
X1.08600 Y0.56182
X1.08600 Y0.56282
X1.08700 Y0.56282
X1.08700 Y0.56382
X1.08800 Y0.56382
X1.08800 Y0.56482
X1.08900 Y0.56482
X1.08900 Y0.56582
X1.09000 Y0.56582
X1.09000 Y0.56682
X1.09100 Y0.56682
X1.09100 Y0.56782
X1.09200 Y0.56782
X1.09200 Y0.57082
X1.09300 Y0.57082
X1.09300 Y0.57682
X1.09400 Y0.57682
X1.09400 Y0.70482
X1.09300 Y0.70482
X1.09300 Y0.71182
X1.09200 Y0.71182
X1.09200 Y0.71282
X1.09100 Y0.71282
X1.09100 Y0.71382
X1.09000 Y0.71382
X1.09000 Y0.71582
X1.08900 Y0.71582
X1.08900 Y0.71682
X1.08800 Y0.71682
X1.08800 Y0.71782
X1.08700 Y0.71782
X1.08700 Y0.71882
X1.08600 Y0.71882
X1.08600 Y0.71982
X1.08500 Y0.71982
X1.08500 Y0.72082
X1.08400 Y0.72082
X1.08400 Y0.72182
X1.08300 Y0.72182
X1.08300 Y0.72282
X1.08200 Y0.72282
X1.08200 Y0.72382
X1.08100 Y0.72382
X1.08100 Y0.72482
X1.08000 Y0.72482
X1.08000 Y0.72582
X1.07900 Y0.72582
X1.07900 Y0.72682
X1.07800 Y0.72682
X1.07800 Y0.72782
X1.07700 Y0.72782
X1.07700 Y0.72882
X1.07600 Y0.72882
X1.07600 Y0.72982
X1.07500 Y0.72982
X1.07500 Y0.73082
X1.07400 Y0.73082
X1.07400 Y0.73182
X1.07300 Y0.73182
X1.07300 Y0.73282
X1.07200 Y0.73282
X1.07200 Y0.73382
X1.07100 Y0.73382
X1.07100 Y0.73482
X1.07000 Y0.73482
X1.07000 Y0.73582
X1.06900 Y0.73582
X1.06900 Y0.73682
X1.06800 Y0.73682
X1.06800 Y0.73782
X1.06700 Y0.73782
X1.06700 Y0.74082
X1.06600 Y0.74082
X1.06600 Y0.74982
X1.06500 Y0.74982
X1.06500 Y0.75282
X1.06400 Y0.75282
X1.06400 Y0.75782
X1.06300 Y0.75782
X1.06300 Y0.75882
X1.06200 Y0.75882
X1.06200 Y0.76082
X1.06100 Y0.76082
X1.06100 Y0.76182
X1.06000 Y0.76182
X1.06000 Y0.76282
X1.05900 Y0.76282
X1.05900 Y0.76382
X1.05800 Y0.76382
X1.05800 Y0.76482
X1.05700 Y0.76482
X1.05700 Y0.76582
X1.05600 Y0.76582
X1.05600 Y0.76782
X1.05500 Y0.76782
X1.05500 Y0.77082
X1.05400 Y0.77082
X1.05400 Y0.77382
X1.05500 Y0.77382
X1.05500 Y0.77482
X1.08700 Y0.77482
X1.08700 Y0.77582
X1.08900 Y0.77582
X1.08900 Y0.77882
X1.09000 Y0.77882
X1.09000 Y0.83082
X1.08900 Y0.83082
X1.08900 Y0.83382
X1.08700 Y0.83382
X1.08700 Y0.83482
X1.08300 Y0.83482
X1.08300 Y0.83582
X1.08200 Y0.83582
X1.08200 Y0.83682
X1.08100 Y0.83682
X1.08100 Y0.83782
X1.08000 Y0.83782
X1.08000 Y0.83882
X1.07900 Y0.83882
X1.07900 Y0.84182
X1.08000 Y0.84182
X1.08000 Y0.84282
X1.08100 Y0.84282
X1.08100 Y0.84382
X1.08200 Y0.84382
X1.08200 Y0.84482
X1.08300 Y0.84482
X1.08300 Y0.84582
X1.08700 Y0.84582
X1.08700 Y0.84682
X1.08900 Y0.84682
X1.08900 Y0.84982
X1.09000 Y0.84982
X1.09000 Y0.90182
X1.08900 Y0.90182
X1.08900 Y0.90482
X1.08600 Y0.90482
X1.08600 Y0.90582
X1.02600 Y0.90582
X1.02600 Y0.90482
X1.02300 Y0.90482
X1.02300 Y0.90182
X1.02200 Y0.90182
X1.02200 Y0.88382
X1.02100 Y0.88382
X1.02100 Y0.88182
X1.02000 Y0.88182
X1.02000 Y0.87882
X1.01900 Y0.87882
X1.01900 Y0.87582
X1.01800 Y0.87582
X1.01800 Y0.87482
X1.01700 Y0.87482
X1.01700 Y0.87382
X1.01400 Y0.87382
X1.01400 Y0.87282
X1.01100 Y0.87282
X1.01100 Y0.87182
X1.00800 Y0.87182
X1.00800 Y0.87082
X1.00300 Y0.87082
X1.00300 Y0.87182
X0.97400 Y0.87182
X0.97400 Y0.87282
X0.97300 Y0.87282
X0.97300 Y0.87382
X0.97200 Y0.87382
X0.97200 Y0.87582
X0.97100 Y0.87582
X0.97100 Y0.88082
X0.97000 Y0.88082
X0.97000 Y0.88282
X0.97100 Y0.88282
X0.97100 Y0.88682
X0.97200 Y0.88682
X0.97200 Y0.90782
X0.97100 Y0.90782
X0.97100 Y0.91082
X0.96800 Y0.91082
X0.96800 Y0.91182
X0.96100 Y0.91182
X0.96100 Y0.91282
X0.96000 Y0.91282
X0.96000 Y0.91382
X0.95900 Y0.91382
X0.95900 Y1.10182
X0.96000 Y1.10182
X0.96000 Y1.10482
X0.96100 Y1.10482
X0.96100 Y1.10782
X0.96200 Y1.10782
X0.96200 Y1.11682
X0.96100 Y1.11682
X0.96100 Y1.13782
X0.96000 Y1.13782
X0.96000 Y1.14082
X0.95900 Y1.14082
X0.95900 Y1.14482
X0.95800 Y1.14482
X0.95800 Y1.14582
X0.95700 Y1.14582
X0.95700 Y1.14682
X0.95600 Y1.14682
X0.95600 Y1.14782
X0.95500 Y1.14782
X0.95500 Y1.14882
X0.95400 Y1.14882
X0.95400 Y1.15182
X0.95500 Y1.15182
X0.95500 Y1.15282
X0.95600 Y1.15282
X0.95600 Y1.15382
X0.95700 Y1.15382
X0.95700 Y1.15482
X0.95800 Y1.15482
X0.95800 Y1.15582
X0.95900 Y1.15582
X0.95900 Y1.15882
X0.96000 Y1.15882
X0.96000 Y1.16382
X0.96200 Y1.16382
X0.96200 Y1.16482
X0.96300 Y1.16482
X0.96300 Y1.16582
X0.96400 Y1.16582
X0.96400 Y1.16682
X0.96500 Y1.16682
X0.96500 Y1.16782
X0.99400 Y1.16782
X0.99400 Y1.11782
X0.99500 Y1.11782
X0.99500 Y1.11582
X0.99600 Y1.11582
X0.99600 Y1.11482
X0.99700 Y1.11482
X0.99700 Y1.11382
X0.99800 Y1.11382
X0.99800 Y1.11182
X0.99900 Y1.11182
X0.99900 Y1.11082
X1.00100 Y1.11082
X1.00100 Y1.10982
X1.00300 Y1.10982
X1.00300 Y1.10882
X1.04200 Y1.10882
X1.04200 Y1.10782
X1.04300 Y1.10782
X1.04300 Y1.10682
X1.04400 Y1.10682
X1.04400 Y1.10382
X1.04300 Y1.10382
X1.04300 Y1.10082
X1.04200 Y1.10082
X1.04200 Y1.09982
X1.04100 Y1.09982
X1.04100 Y1.09882
X1.04000 Y1.09882
X1.04000 Y1.09782
X1.03900 Y1.09782
X1.03900 Y1.09682
X1.03800 Y1.09682
X1.03800 Y1.09582
X1.03700 Y1.09582
X1.03700 Y1.09482
X1.03600 Y1.09482
X1.03600 Y1.09382
X1.03500 Y1.09382
X1.03500 Y1.09282
X1.03400 Y1.09282
X1.03400 Y1.09182
X1.03300 Y1.09182
X1.03300 Y1.09082
X1.03200 Y1.09082
X1.03200 Y1.08982
X1.03100 Y1.08982
X1.03100 Y1.08882
X1.03000 Y1.08882
X1.03000 Y1.08782
X1.02900 Y1.08782
X1.02900 Y1.08682
X1.02800 Y1.08682
X1.02800 Y1.08582
X1.02700 Y1.08582
X1.02700 Y1.08482
X1.02600 Y1.08482
X1.02600 Y1.08382
X1.02500 Y1.08382
X1.02500 Y1.08282
X1.02400 Y1.08282
X1.02400 Y1.08182
X1.02300 Y1.08182
X1.02300 Y1.08082
X1.02200 Y1.08082
X1.02200 Y1.07982
X1.02100 Y1.07982
X1.02100 Y1.07882
X1.02000 Y1.07882
X1.02000 Y1.07782
X1.01900 Y1.07782
X1.01900 Y1.07682
X1.01800 Y1.07682
X1.01800 Y1.07582
X1.01700 Y1.07582
X1.01700 Y1.07482
X1.01600 Y1.07482
X1.01600 Y1.07382
X1.01500 Y1.07382
X1.01500 Y1.07282
X1.01400 Y1.07282
X1.01400 Y1.07182
X1.01300 Y1.07182
X1.01300 Y1.07082
X1.01200 Y1.07082
X1.01200 Y1.06982
X1.01100 Y1.06982
X1.01100 Y1.06882
X1.01000 Y1.06882
X1.01000 Y1.06782
X1.00900 Y1.06782
X1.00900 Y1.06682
X1.00800 Y1.06682
X1.00800 Y1.06582
X1.00700 Y1.06582
X1.00700 Y1.06482
X1.00600 Y1.06482
X1.00600 Y1.06382
X1.00500 Y1.06382
X1.00500 Y1.06282
X1.00400 Y1.06282
X1.00400 Y1.06182
X1.00300 Y1.06182
X1.00300 Y1.06082
X1.00200 Y1.06082
X1.00200 Y1.05982
X1.00100 Y1.05982
X1.00100 Y1.05882
X1.00000 Y1.05882
X1.00000 Y1.05782
X0.99900 Y1.05782
X0.99900 Y1.05682
X0.99800 Y1.05682
X0.99800 Y1.05582
X0.99700 Y1.05582
X0.99700 Y1.05482
X0.99600 Y1.05482
X0.99600 Y1.05382
X0.99500 Y1.05382
X0.99500 Y1.05282
X0.99400 Y1.05282
X0.99400 Y1.05182
X0.99300 Y1.05182
X0.99300 Y1.05082
X0.99200 Y1.05082
X0.99200 Y1.04982
X0.99100 Y1.04982
X0.99100 Y1.04882
X0.99000 Y1.04882
X0.99000 Y1.04782
X0.98900 Y1.04782
X0.98900 Y1.04682
X0.98800 Y1.04682
X0.98800 Y1.04482
X0.98700 Y1.04482
X0.98700 Y1.04282
X0.98600 Y1.04282
X0.98600 Y1.04082
X0.98500 Y1.04082
X0.98500 Y1.03982
X0.98400 Y1.03982
X0.98400 Y1.03882
X0.98300 Y1.03882
X0.98300 Y1.03682
X0.98200 Y1.03682
X0.98200 Y1.03582
X0.98100 Y1.03582
X0.98100 Y1.03482
X0.98000 Y1.03482
X0.98000 Y1.03282
X0.97900 Y1.03282
X0.97900 Y1.02882
X0.97800 Y1.02882
X0.97800 Y1.02682
X0.97700 Y1.02682
X0.97700 Y1.01482
X0.97800 Y1.01482
X0.97800 Y1.01282
X0.97900 Y1.01282
X0.97900 Y1.00982
X0.98000 Y1.00982
X0.98000 Y1.00782
X0.98100 Y1.00782
X0.98100 Y1.00682
X0.98200 Y1.00682
X0.98200 Y1.00482
X0.98300 Y1.00482
X0.98300 Y1.00382
X0.98400 Y1.00382
X0.98400 Y1.00282
X0.98500 Y1.00282
X0.98500 Y1.00182
X0.98700 Y1.00182
X0.98700 Y1.00082
X0.98900 Y1.00082
X0.98900 Y0.99982
X0.99000 Y0.99982
X0.99000 Y0.99882
X0.99300 Y0.99882
X0.99300 Y0.99782
X0.99500 Y0.99782
X0.99500 Y0.99682
X1.00700 Y0.99682
X1.00700 Y0.99782
X1.00900 Y0.99782
X1.00900 Y0.99882
X1.01300 Y0.99882
X1.01300 Y0.99982
X1.01400 Y0.99982
X1.01400 Y1.00082
X1.01600 Y1.00082
X1.01600 Y1.00182
X1.01800 Y1.00182
X1.01800 Y1.00282
X1.01900 Y1.00282
X1.01900 Y1.00382
X1.02000 Y1.00382
X1.02000 Y1.00482
X1.02100 Y1.00482
X1.02100 Y1.00682
X1.02200 Y1.00682
X1.02200 Y1.00782
X1.02300 Y1.00782
X1.02300 Y1.00982
X1.02400 Y1.00982
X1.02400 Y1.01382
X1.02500 Y1.01382
X1.02500 Y1.01682
X1.02600 Y1.01682
X1.02600 Y1.02482
X1.02500 Y1.02482
X1.02500 Y1.03482
X1.02600 Y1.03482
X1.02600 Y1.03582
X1.02700 Y1.03582
X1.02700 Y1.03682
X1.02800 Y1.03682
X1.02800 Y1.03782
X1.02900 Y1.03782
X1.02900 Y1.03882
X1.03000 Y1.03882
X1.03000 Y1.03982
X1.03100 Y1.03982
X1.03100 Y1.04082
X1.03200 Y1.04082
X1.03200 Y1.04182
X1.03300 Y1.04182
X1.03300 Y1.04282
X1.03400 Y1.04282
X1.03400 Y1.04382
X1.03500 Y1.04382
X1.03500 Y1.04482
X1.03600 Y1.04482
X1.03600 Y1.04582
X1.03700 Y1.04582
X1.03700 Y1.04682
X1.03800 Y1.04682
X1.03800 Y1.04782
X1.03900 Y1.04782
X1.03900 Y1.04882
X1.04000 Y1.04882
X1.04000 Y1.04982
X1.04100 Y1.04982
X1.04100 Y1.05082
X1.04200 Y1.05082
X1.04200 Y1.05182
X1.04300 Y1.05182
X1.04300 Y1.05282
X1.04400 Y1.05282
X1.04400 Y1.05382
X1.04500 Y1.05382
X1.04500 Y1.05482
X1.04600 Y1.05482
X1.04600 Y1.05582
X1.04700 Y1.05582
X1.04700 Y1.05682
X1.04800 Y1.05682
X1.04800 Y1.05782
X1.04900 Y1.05782
X1.04900 Y1.05882
X1.05000 Y1.05882
X1.05000 Y1.05982
X1.05100 Y1.05982
X1.05100 Y1.06082
X1.05200 Y1.06082
X1.05200 Y1.06182
X1.05300 Y1.06182
X1.05300 Y1.06282
X1.05400 Y1.06282
X1.05400 Y1.06382
X1.05500 Y1.06382
X1.05500 Y1.06482
X1.05600 Y1.06482
X1.05600 Y1.06582
X1.05700 Y1.06582
X1.05700 Y1.06682
X1.05800 Y1.06682
X1.05800 Y1.06782
X1.05900 Y1.06782
X1.05900 Y1.06882
X1.06000 Y1.06882
X1.06000 Y1.06982
X1.06100 Y1.06982
X1.06100 Y1.07082
X1.06200 Y1.07082
X1.06200 Y1.07182
X1.06300 Y1.07182
X1.06300 Y1.07282
X1.06600 Y1.07282
X1.06600 Y1.07382
X1.09000 Y1.07382
X1.09000 Y1.07482
X1.09300 Y1.07482
X1.09300 Y1.07582
X1.09600 Y1.07582
X1.09600 Y1.07682
X1.09800 Y1.07682
X1.09800 Y1.07782
X1.09900 Y1.07782
X1.09900 Y1.07882
X1.10000 Y1.07882
X1.10000 Y1.07982
X1.10100 Y1.07982
X1.10100 Y1.08082
X1.10200 Y1.08082
X1.10200 Y1.08182
X1.10300 Y1.08182
X1.10300 Y1.08282
X1.10400 Y1.08282
X1.10400 Y1.08382
X1.10500 Y1.08382
X1.10500 Y1.08482
X1.10600 Y1.08482
X1.10600 Y1.08582
X1.10700 Y1.08582
X1.10700 Y1.08682
X1.10800 Y1.08682
X1.10800 Y1.08782
X1.10900 Y1.08782
X1.10900 Y1.08882
X1.11000 Y1.08882
X1.11000 Y1.08982
X1.11100 Y1.08982
X1.11100 Y1.09082
X1.11200 Y1.09082
X1.11200 Y1.09182
X1.11300 Y1.09182
X1.11300 Y1.09282
X1.11400 Y1.09282
X1.11400 Y1.09382
X1.11500 Y1.09382
X1.11500 Y1.09482
X1.11600 Y1.09482
X1.11600 Y1.09682
X1.11700 Y1.09682
X1.11700 Y1.09982
X1.11800 Y1.09982
X1.11800 Y1.11182
X1.11700 Y1.11182
X1.11700 Y1.11482
X1.11600 Y1.11482
X1.11600 Y1.11582
X1.11500 Y1.11582
X1.11500 Y1.11782
X1.11400 Y1.11782
X1.11400 Y1.28982
X1.11300 Y1.28982
X1.11300 Y1.29682
X1.11200 Y1.29682
X1.11200 Y1.29782
X1.11100 Y1.29782
X1.11100 Y1.29882
X1.11000 Y1.29882
X1.11000 Y1.30082
X1.10900 Y1.30082
X1.10900 Y1.30182
X1.10700 Y1.30182
X1.10700 Y1.30282
X1.10600 Y1.30282
X1.10600 Y1.30382
X1.10500 Y1.30382
X1.10500 Y1.30482
X1.10400 Y1.30482
X1.10400 Y1.30582
X1.10300 Y1.30582
X1.10300 Y1.30682
X1.10200 Y1.30682
X1.10200 Y1.30782
X1.10100 Y1.30782
X1.10100 Y1.30882
X1.10000 Y1.30882
X1.10000 Y1.30982
X1.09900 Y1.30982
X1.09900 Y1.31082
X1.09800 Y1.31082
X1.09800 Y1.31282
X1.09700 Y1.31282
X1.09700 Y1.31482
X1.09600 Y1.31482
X1.09600 Y1.31682
X1.09500 Y1.31682
X1.09500 Y1.32182
X1.09600 Y1.32182
X1.09600 Y1.32382
X1.09700 Y1.32382
X1.09700 Y1.32482
X1.09800 Y1.32482
X1.09800 Y1.32682
X1.09900 Y1.32682
X1.09900 Y1.32782
X1.10000 Y1.32782
X1.10000 Y1.33182
X1.10100 Y1.33182
X1.10100 Y1.33382
X1.10200 Y1.33382
X1.10200 Y1.34582
X1.10100 Y1.34582
X1.10100 Y1.34782
X1.10000 Y1.34782
X1.10000 Y1.35082
X1.09900 Y1.35082
X1.09900 Y1.35282
X1.09800 Y1.35282
X1.09800 Y1.35382
X1.09700 Y1.35382
X1.09700 Y1.35582
X1.09600 Y1.35582
X1.09600 Y1.35682
X1.09500 Y1.35682
X1.09500 Y1.35782
X1.09400 Y1.35782
X1.09400 Y1.35882
X1.09200 Y1.35882
X1.09200 Y1.35982
X1.09000 Y1.35982
X1.09000 Y1.36082
X1.08900 Y1.36082
X1.08900 Y1.36182
X1.08600 Y1.36182
X1.08600 Y1.36282
X1.08300 Y1.36282
X1.08300 Y1.36382
X1.07200 Y1.36382
X1.07200 Y1.36282
X1.06900 Y1.36282
X1.06900 Y1.36182
X1.06600 Y1.36182
X1.06600 Y1.36082
X1.06500 Y1.36082
X1.06500 Y1.35982
X1.06300 Y1.35982
X1.06300 Y1.35882
X1.06100 Y1.35882
X1.06100 Y1.35782
X1.06000 Y1.35782
X1.06000 Y1.35682
X1.05900 Y1.35682
X1.05900 Y1.35582
X1.05800 Y1.35582
X1.05800 Y1.35382
X1.05700 Y1.35382
X1.05700 Y1.35282
X1.05600 Y1.35282
X1.05600 Y1.35082
X1.05500 Y1.35082
X1.05500 Y1.34782
X1.05400 Y1.34782
X1.05400 Y1.34582
X1.05300 Y1.34582
X1.05300 Y1.33382
X1.05200 Y1.33382
X1.05200 Y1.33082
X1.05100 Y1.33082
X1.05100 Y1.32982
X1.05000 Y1.32982
X1.05000 Y1.32882
X1.04900 Y1.32882
X1.04900 Y1.32782
X1.04800 Y1.32782
X1.04800 Y1.32682
X1.04700 Y1.32682
X1.04700 Y1.32582
X1.04600 Y1.32582
X1.04600 Y1.32482
X1.04500 Y1.32482
X1.04500 Y1.32382
X1.04200 Y1.32382
X1.04200 Y1.32282
X0.96100 Y1.32282
X0.96100 Y1.32382
X0.95800 Y1.32382
X0.95800 Y1.32482
X0.95600 Y1.32482
X0.95600 Y1.32682
X0.95500 Y1.32682
X0.95500 Y1.32782
X0.95400 Y1.32782
X0.95400 Y1.32882
X0.95300 Y1.32882
X0.95300 Y1.32982
X0.95200 Y1.32982
X0.95200 Y1.33082
X0.95100 Y1.33082
X0.95100 Y1.33182
X0.95000 Y1.33182
X0.95000 Y1.33282
X0.94900 Y1.33282
X0.94900 Y1.33382
X0.94800 Y1.33382
X0.94800 Y1.33482
X0.94700 Y1.33482
X0.94700 Y1.33582
X0.94600 Y1.33582
X0.94600 Y1.33682
X0.94500 Y1.33682
X0.94500 Y1.33782
X0.94400 Y1.33782
X0.94400 Y1.33882
X0.94300 Y1.33882
X0.94300 Y1.33982
X0.94200 Y1.33982
X0.94200 Y1.34082
X0.94100 Y1.34082
X0.94100 Y1.34182
X0.94000 Y1.34182
X0.94000 Y1.34282
X0.93900 Y1.34282
X0.93900 Y1.34382
X0.93800 Y1.34382
X0.93800 Y1.34482
X0.93700 Y1.34482
X0.93700 Y1.34582
X0.93600 Y1.34582
X0.93600 Y1.34682
X0.93500 Y1.34682
X0.93500 Y1.34782
X0.93400 Y1.34782
X0.93400 Y1.34882
X0.93300 Y1.34882
X0.93300 Y1.34982
X0.93200 Y1.34982
X0.93200 Y1.35082
X0.93100 Y1.35082
X0.93100 Y1.35182
X0.93000 Y1.35182
X0.93000 Y1.35282
X0.92900 Y1.35282
X0.92900 Y1.35382
X0.92800 Y1.35382
X0.92800 Y1.35482
X0.92700 Y1.35482
X0.92700 Y1.35582
X0.92600 Y1.35582
X0.92600 Y1.35682
X0.92500 Y1.35682
X0.92500 Y1.35782
X0.92400 Y1.35782
X0.92400 Y1.35882
X0.92300 Y1.35882
X0.92300 Y1.35982
X0.92200 Y1.35982
X0.92200 Y1.36082
X0.92100 Y1.36082
X0.92100 Y1.36182
X0.92000 Y1.36182
X0.92000 Y1.36282
X0.91900 Y1.36282
X0.91900 Y1.36382
X0.91800 Y1.36382
X0.91800 Y1.36482
X0.91700 Y1.36482
X0.91700 Y1.36582
X0.91600 Y1.36582
X0.91600 Y1.36682
X0.91500 Y1.36682
X0.91500 Y1.36782
X0.91400 Y1.36782
X0.91400 Y1.36882
X0.91300 Y1.36882
X0.91300 Y1.36982
X0.91200 Y1.36982
X0.91200 Y1.37082
X0.91100 Y1.37082
X0.91100 Y1.37182
X0.91000 Y1.37182
X0.91000 Y1.37282
X0.90900 Y1.37282
X0.90900 Y1.37382
X0.90800 Y1.37382
X0.90800 Y1.37482
X0.90700 Y1.37482
X0.90700 Y1.37582
X0.90600 Y1.37582
X0.90600 Y1.37682
X0.90500 Y1.37682
X0.90500 Y1.37782
X0.90400 Y1.37782
X0.90400 Y1.37882
X0.90300 Y1.37882
X0.90300 Y1.37982
X0.90200 Y1.37982
X0.90200 Y1.38082
X0.90100 Y1.38082
X0.90100 Y1.38182
X0.90000 Y1.38182
X0.90000 Y1.38282
X0.89900 Y1.38282
X0.89900 Y1.38382
X0.89800 Y1.38382
X0.89800 Y1.38482
X0.89700 Y1.38482
X0.89700 Y1.38582
X0.89600 Y1.38582
X0.89600 Y1.38682
X0.89500 Y1.38682
X0.89500 Y1.38782
X0.89400 Y1.38782
X0.89400 Y1.38882
X0.89300 Y1.38882
X0.89300 Y1.38982
X0.89200 Y1.38982
X0.89200 Y1.39082
X0.89100 Y1.39082
X0.89100 Y1.39182
X0.89000 Y1.39182
X0.89000 Y1.39282
X0.88900 Y1.39282
X0.88900 Y1.39382
X0.88800 Y1.39382
X0.88800 Y1.39482
X0.88700 Y1.39482
X0.88700 Y1.39582
X0.88600 Y1.39582
X0.88600 Y1.39682
X0.88500 Y1.39682
X0.88500 Y1.39782
X0.88400 Y1.39782
X0.88400 Y1.40082
X0.88300 Y1.40082
X0.88300 Y1.40382
X0.88200 Y1.40382
X0.88200 Y1.40682
X0.88100 Y1.40682
X0.88100 Y1.40882
X1.04500 Y1.40882
X1.04500 Y1.40982
X1.04900 Y1.40982
X1.04900 Y1.41082
X1.05200 Y1.41082
X1.05200 Y1.41382
X1.05300 Y1.41382
X1.05300 Y1.41782
X1.05400 Y1.41782
X1.05400 Y1.57382
X1.05300 Y1.57382
X1.05300 Y1.57782
X1.05200 Y1.57782
X1.05200 Y1.58082
X1.05100 Y1.58082
X1.05100 Y1.58182
X1.04800 Y1.58182
X1.04800 Y1.58282
X1.04300 Y1.58282
X1.04300 Y1.58382
X0.89000 Y1.58382
X0.89000 Y1.58282
X0.88400 Y1.58282
X0.88400 Y1.58182
X0.88100 Y1.58182
X0.88100 Y1.58082
X0.88000 Y1.58082
X0.88000 Y1.57782
X0.87900 Y1.57782
X0.87900 Y1.57182
X0.87800 Y1.57182
X0.87800 Y1.41182
X0.87400 Y1.41182
X0.87400 Y1.41282
X0.87100 Y1.41282
X0.87100 Y1.41382
X0.86800 Y1.41382
X0.86800 Y1.41482
X0.86600 Y1.41482
X0.86600 Y1.41582
X0.86500 Y1.41582
X0.86500 Y1.41682
X0.86400 Y1.41682
X0.86400 Y1.41782
X0.86300 Y1.41782
X0.86300 Y1.41882
X0.86200 Y1.41882
X0.86200 Y1.41982
X0.86100 Y1.41982
X0.86100 Y1.42082
X0.86000 Y1.42082
X0.86000 Y1.42182
X0.85900 Y1.42182
X0.85900 Y1.42282
X0.85800 Y1.42282
X0.85800 Y1.42382
X0.85700 Y1.42382
X0.85700 Y1.42482
X0.85600 Y1.42482
X0.85600 Y1.42582
X0.85500 Y1.42582
X0.85500 Y1.42682
X0.85400 Y1.42682
X0.85400 Y1.42782
X0.85300 Y1.42782
X0.85300 Y1.42882
X0.85200 Y1.42882
X0.85200 Y1.42982
X0.85100 Y1.42982
X0.85100 Y1.43082
X0.85000 Y1.43082
X0.85000 Y1.43182
X0.84900 Y1.43182
X0.84900 Y1.43282
X0.84800 Y1.43282
X0.84800 Y1.43382
X0.84700 Y1.43382
X0.84700 Y1.43482
X0.84600 Y1.43482
X0.84600 Y1.43582
X0.84500 Y1.43582
X0.84500 Y1.43682
X0.84400 Y1.43682
X0.84400 Y1.43782
X0.84300 Y1.43782
X0.84300 Y1.43882
X0.84200 Y1.43882
X0.84200 Y1.43982
X0.84100 Y1.43982
X0.84100 Y1.44082
X0.84000 Y1.44082
X0.84000 Y1.44182
X0.83900 Y1.44182
X0.83900 Y1.44282
X0.83800 Y1.44282
X0.83800 Y1.44382
X0.83700 Y1.44382
X0.83700 Y1.44482
X0.83600 Y1.44482
X0.83600 Y1.44582
X0.83500 Y1.44582
X0.83500 Y1.44682
X0.83400 Y1.44682
X0.83400 Y1.44782
X0.83300 Y1.44782
X0.83300 Y1.44882
X0.83200 Y1.44882
X0.83200 Y1.44982
X0.83100 Y1.44982
X0.83100 Y1.45082
X0.83000 Y1.45082
X0.83000 Y1.45182
X0.82900 Y1.45182
X0.82900 Y1.45282
X0.82800 Y1.45282
X0.82800 Y1.45382
X0.82700 Y1.45382
X0.82700 Y1.45482
X0.82600 Y1.45482
X0.82600 Y1.45582
X0.82500 Y1.45582
X0.82500 Y1.45682
X0.82400 Y1.45682
X0.82400 Y1.45782
X0.82300 Y1.45782
X0.82300 Y1.45882
X0.82200 Y1.45882
X0.82200 Y1.45982
X0.82100 Y1.45982
X0.82100 Y1.46082
X0.82000 Y1.46082
X0.82000 Y1.46182
X0.81900 Y1.46182
X0.81900 Y1.46282
X0.81800 Y1.46282
X0.81800 Y1.46482
X0.81700 Y1.46482
X0.81700 Y1.46782
X0.81600 Y1.46782
X0.81600 Y1.47082
X0.81500 Y1.47082
X0.81500 Y1.47382
X0.81400 Y1.47382
X0.81400 Y1.57382
X0.81300 Y1.57382
X0.81300 Y1.57782
X0.81200 Y1.57782
X0.81200 Y1.58082
X0.81100 Y1.58082
X0.81100 Y1.58182
X0.80800 Y1.58182
X0.80800 Y1.58282
X0.80300 Y1.58282
X0.80300 Y1.58382
X0.65000 Y1.58382
X0.65000 Y1.58282
X0.64400 Y1.58282
X0.64400 Y1.58182
X0.64100 Y1.58182
X0.64100 Y1.58082
X0.64000 Y1.58082
X0.64000 Y1.57782
X0.63900 Y1.57782
X0.63900 Y1.57182
X0.63800 Y1.57182
X0.63800 Y1.57082
